; generated by Slic3r 1.2.9 on 2017-10-21 at 17:06:04

; external perimeters extrusion width = 0.30mm
; perimeters extrusion width = 0.30mm
; infill extrusion width = 0.30mm
; solid infill extrusion width = 0.30mm
; top infill extrusion width = 0.30mm

M107
M190 S57 ; set bed temperature
;G28								; home all axes (if axis shifting bug is fixed!)
;G32								; execute bed Z-plane  compensation at bed.g 4 points
G10 P0 X-16 Y-3 Z0.0 S-273 R-273		; set extruder x,y offsets
M83								; set extruder to relative mode
G10 P0 S195 R160					; Set tool 0 operating and standby temperatures
T0									; select tool ZERO




G21 ; set units to millimeters
G90 ; use absolute coordinates
M83 ; use relative distances for extrusion
G1 E-3.50000 F2400.00000
G1 Z0.300 F9000.000
G1 X36.697 Y43.412 F9000.000
G1 E3.50000 F2400.00000
G1 X37.593 Y42.697 E0.06228 F1200.000
G1 X38.015 Y42.387 E0.02844
G1 X39.208 Y41.585 E0.07810
G1 X40.405 Y40.880 E0.07550
G1 X41.069 Y40.526 E0.04089
G1 X42.234 Y39.962 E0.07030
G1 X43.400 Y39.464 E0.06891
G1 X43.994 Y39.234 E0.03460
G1 X44.569 Y39.025 E0.03325
G1 X45.742 Y38.639 E0.06708
G1 X46.918 Y38.302 E0.06645
G1 X47.588 Y38.131 E0.03758
G1 X49.285 Y37.763 E0.09435
G1 X50.474 Y37.557 E0.06559
G1 X51.642 Y37.395 E0.06404
G1 X83.435 Y33.781 E1.73855
G1 X84.298 Y33.697 E0.04710
G1 X85.203 Y33.640 E0.04924
G1 X86.732 Y33.622 E0.08308
G1 X88.202 Y33.697 E0.07998 F1200.000
G1 X89.693 Y33.867 E0.08152
G1 X91.169 Y34.129 E0.08150
G1 X92.627 Y34.484 E0.08153
G1 X93.198 Y34.650 E0.03226
G1 X94.619 Y35.131 E0.08152
G1 X96.007 Y35.701 E0.08152
G1 X97.356 Y36.357 E0.08152
G1 X98.662 Y37.096 E0.08152
G1 X99.918 Y37.915 E0.08150
G1 X101.121 Y38.812 E0.08152
G1 X101.820 Y39.390 E0.04929
G1 X102.926 Y40.404 E0.08151
G1 X103.967 Y41.485 E0.08151
G1 X104.938 Y42.629 E0.08153
G1 X105.835 Y43.832 E0.08152
G1 X106.654 Y45.088 E0.08151
G1 X107.393 Y46.394 E0.08152
G1 X108.049 Y47.743 E0.08152
G1 X108.619 Y49.131 E0.08152
G1 X109.100 Y50.552 E0.08152
G1 X109.266 Y51.123 E0.03229
G1 X109.621 Y52.580 E0.08148
G1 X109.883 Y54.057 E0.08152
G1 X110.053 Y55.548 E0.08152
G1 X110.128 Y57.046 E0.08151
G1 X110.110 Y58.547 E0.08153
G1 X109.997 Y60.043 E0.08151
G1 X109.883 Y60.943 E0.04928
G1 X109.621 Y62.420 E0.08152
G1 X109.266 Y63.877 E0.08151
G1 X108.820 Y65.310 E0.08152
G1 X108.285 Y66.712 E0.08152
G1 X107.663 Y68.077 E0.08152
G1 X106.956 Y69.401 E0.08152
G1 X106.654 Y69.912 E0.03226
G1 X105.835 Y71.169 E0.08151
G1 X104.938 Y72.371 E0.08151
G1 X103.967 Y73.516 E0.08156
G1 X102.926 Y74.596 E0.08149
G1 X102.266 Y75.217 E0.04924
G1 X101.515 Y75.871 E0.05411
G1 X71.515 Y100.871 E2.12177
G1 X70.652 Y101.552 E0.05971
G1 X69.427 Y102.418 E0.08152
G1 X68.151 Y103.206 E0.08151
G1 X67.356 Y103.643 E0.04927
G1 X66.007 Y104.299 E0.08151
G1 X65.462 Y104.535 E0.03227
G1 X64.060 Y105.070 E0.08152
G1 X62.627 Y105.516 E0.08152
G1 X61.170 Y105.871 E0.08151
G1 X60.279 Y106.040 E0.04928
G1 X58.793 Y106.247 E0.08152
G1 X58.202 Y106.303 E0.03226
G1 X56.704 Y106.378 E0.08151
G1 X55.203 Y106.360 E0.08153
G1 X53.707 Y106.247 E0.08151
G1 X52.807 Y106.133 E0.04928
G1 X52.221 Y106.040 E0.03225
G1 X50.751 Y105.741 E0.08152
G1 X49.302 Y105.350 E0.08151
G1 X48.440 Y105.070 E0.04928
G1 X47.881 Y104.869 E0.03226
G1 X46.493 Y104.299 E0.08152
G1 X45.673 Y103.913 E0.04928
G1 X44.349 Y103.207 E0.08149
G1 X43.073 Y102.419 E0.08152
G1 X41.848 Y101.552 E0.08151
G1 X41.379 Y101.188 E0.03228
G1 X40.680 Y100.610 E0.04929
G1 X39.574 Y99.596 E0.08151
G1 X39.154 Y99.176 E0.03226
G1 X38.140 Y98.070 E0.08151
G1 X37.562 Y97.371 E0.04929
G1 X36.665 Y96.168 E0.08152
G1 X36.331 Y95.677 E0.03228
G1 X35.558 Y94.425 E0.07994
G1 X34.837 Y93.077 E0.08306
G1 X34.451 Y92.257 E0.04927
G1 X33.881 Y90.869 E0.08152
G1 X33.400 Y89.448 E0.08152
G1 X33.009 Y87.999 E0.08151
G1 X32.710 Y86.529 E0.08152
G1 X32.509 Y85.104 E0.07818
G1 X29.958 Y59.290 E1.40938
G1 X29.893 Y58.406 E0.04818
G1 X29.893 Y56.594 E0.09845
G1 X29.916 Y56.223 E0.02017
G1 X30.139 Y54.449 E0.09714
G1 X30.209 Y54.080 E0.02042
G1 X30.632 Y52.399 E0.09423
G1 X30.749 Y52.032 E0.02090
G1 X31.330 Y50.503 E0.08885
G1 X31.492 Y50.140 E0.02160
G1 X32.190 Y48.779 E0.08314
G1 X32.398 Y48.421 E0.02247
G1 X33.165 Y47.237 E0.07664
G1 X33.418 Y46.886 E0.02353
G1 X34.217 Y45.875 E0.06998
G1 X34.514 Y45.532 E0.02464
G1 X35.317 Y44.677 E0.06378
G1 X35.657 Y44.344 E0.02584
G1 X36.663 Y43.441 E0.07344
G1 E-3.50000 F2400.00000
G1 X43.310 Y51.305 F9000.000
G1 E3.50000 F2400.00000
G1 X43.640 Y51.032 E0.02324 F1200.000
G1 X44.169 Y50.643 E0.03567
G1 X44.937 Y50.147 E0.04968
G1 X45.627 Y49.760 E0.04298
G1 X46.342 Y49.405 E0.04336
G1 X46.994 Y49.117 E0.03872
G1 X47.758 Y48.819 E0.04460
G1 X48.622 Y48.525 E0.04957
G1 X49.422 Y48.290 E0.04532
G1 X50.240 Y48.083 E0.04584
G1 X51.002 Y47.918 E0.04238
G1 X51.851 Y47.764 E0.04686
G1 X52.778 Y47.629 E0.05091
G1 X53.646 Y47.533 E0.04743
G1 X54.455 Y47.469 E0.04410
G1 X55.400 Y47.424 E0.05142
G1 X56.282 Y47.412 E0.04792
G1 X57.100 Y47.424 E0.04441
G1 X58.045 Y47.469 E0.05141
G1 X58.854 Y47.533 E0.04410
G1 X59.721 Y47.629 E0.04743
G1 X60.580 Y47.753 E0.04711
G1 X61.498 Y47.918 E0.05067
G1 X62.260 Y48.083 E0.04238
G1 X63.078 Y48.290 E0.04583
G1 X63.957 Y48.550 E0.04983
G1 X64.742 Y48.819 E0.04507
G1 X65.420 Y49.082 E0.03952
G1 X66.158 Y49.405 E0.04380
G1 X66.873 Y49.760 E0.04335
G1 X67.563 Y50.147 E0.04298
G1 X68.226 Y50.571 E0.04274
G1 X68.969 Y51.119 E0.05018
G1 X69.576 Y51.639 E0.04342
G1 X70.145 Y52.208 E0.04373
G1 X70.672 Y52.829 E0.04426
G1 X71.148 Y53.507 E0.04499
G1 X71.562 Y54.242 E0.04584
G1 X71.900 Y55.031 E0.04666
G1 X72.106 Y55.681 E0.03700
G1 X72.793 Y55.629 E0.03746
G1 X72.915 Y54.890 E0.04069
G1 X73.072 Y54.184 E0.03932
G1 X73.347 Y53.239 E0.05344
G1 X73.640 Y52.437 E0.04638
G1 X73.927 Y51.773 E0.03932
G1 X74.374 Y50.897 E0.05344
G1 X74.742 Y50.274 E0.03933
G1 X75.219 Y49.565 E0.04638
G1 X75.821 Y48.788 E0.05344
G1 X76.389 Y48.151 E0.04638
G1 X76.995 Y47.550 E0.04637
G1 X77.538 Y47.071 E0.03933
G1 X78.315 Y46.469 E0.05344
G1 X79.024 Y45.992 E0.04638
G1 X79.647 Y45.624 E0.03932
G1 X80.523 Y45.177 E0.05344
G1 X81.187 Y44.890 E0.03932
G1 X81.989 Y44.597 E0.04638
G1 X82.934 Y44.322 E0.05344
G1 X83.640 Y44.165 E0.03932
G1 X84.482 Y44.027 E0.04638
G1 X85.462 Y43.934 E0.05344
G1 X86.408 Y43.915 E0.05145
G1 X87.168 Y43.943 E0.04131 F1200.000
G1 X87.889 Y44.011 E0.03932
G1 X88.860 Y44.164 E0.05344
G1 X89.566 Y44.322 E0.03933
G1 X90.387 Y44.557 E0.04638
G1 X91.313 Y44.890 E0.05344
G1 X92.094 Y45.233 E0.04638
G1 X92.739 Y45.561 E0.03932
G1 X93.586 Y46.062 E0.05343
G1 X94.290 Y46.545 E0.04638
G1 X94.861 Y46.989 E0.03933
G1 X95.599 Y47.639 E0.05344
G1 X96.111 Y48.151 E0.03932
G1 X96.679 Y48.788 E0.04638
G1 X97.281 Y49.566 E0.05345
G1 X97.688 Y50.164 E0.03932
G1 X98.126 Y50.897 E0.04637
G1 X98.573 Y51.773 E0.05344
G1 X98.908 Y52.558 E0.04638
G1 X99.153 Y53.239 E0.03932
G1 X99.395 Y54.058 E0.04639
G1 X99.610 Y55.018 E0.05343
G1 X99.739 Y55.861 E0.04638
G1 X99.807 Y56.582 E0.03932
G1 X99.838 Y57.565 E0.05344
G1 X99.807 Y58.418 E0.04638
G1 X99.739 Y59.139 E0.03932
G1 X99.585 Y60.110 E0.05344
G1 X99.428 Y60.816 E0.03932
G1 X99.193 Y61.637 E0.04638
G1 X98.860 Y62.563 E0.05344
G1 X98.573 Y63.227 E0.03932
G1 X98.189 Y63.989 E0.04638
G1 X97.688 Y64.836 E0.05344
G1 X97.281 Y65.434 E0.03932
G1 X96.762 Y66.111 E0.04637
G1 X96.111 Y66.849 E0.05345
G1 X95.505 Y67.450 E0.04637
G1 X94.962 Y67.929 E0.03933
G1 X94.184 Y68.531 E0.05344
G1 X93.476 Y69.008 E0.04638
G1 X92.853 Y69.376 E0.03932
G1 X91.977 Y69.823 E0.05344
G1 X91.192 Y70.158 E0.04639
G1 X90.387 Y70.443 E0.04637
G1 X89.692 Y70.645 E0.03932
G1 X88.732 Y70.860 E0.05345
G1 X87.889 Y70.989 E0.04638
G1 X87.168 Y71.057 E0.03932
G1 X86.185 Y71.088 E0.05345
G1 X85.332 Y71.057 E0.04637
G1 X84.611 Y70.989 E0.03932
G1 X83.640 Y70.835 E0.05345
G1 X82.808 Y70.645 E0.04637
G1 X82.113 Y70.443 E0.03933
G1 X81.187 Y70.110 E0.05345
G1 X80.405 Y69.767 E0.04638
G1 X79.647 Y69.376 E0.04637
G1 X79.024 Y69.008 E0.03932
G1 X78.316 Y68.531 E0.04638
G1 X77.538 Y67.929 E0.05345
G1 X76.995 Y67.450 E0.03932
G1 X76.389 Y66.849 E0.04638
G1 X75.739 Y66.111 E0.05344
G1 X75.219 Y65.434 E0.04638
G1 X74.742 Y64.726 E0.04638
G1 X74.374 Y64.103 E0.03932
G1 X73.983 Y63.344 E0.04638
G1 X73.592 Y62.442 E0.05344
G1 X73.347 Y61.761 E0.03932
G1 X73.105 Y60.942 E0.04638
G1 X72.914 Y60.110 E0.04639
G1 X72.793 Y59.371 E0.04068
G1 X72.106 Y59.319 E0.03746
G1 X71.900 Y59.969 E0.03700
G1 X71.562 Y60.758 E0.04667
G1 X71.148 Y61.493 E0.04584
G1 X70.672 Y62.171 E0.04499
G1 X70.145 Y62.792 E0.04426
G1 X69.576 Y63.361 E0.04373
G1 X68.969 Y63.881 E0.04342
G1 X68.331 Y64.357 E0.04325
G1 X67.663 Y64.792 E0.04330
G1 X66.968 Y65.190 E0.04350
G1 X66.249 Y65.552 E0.04376
G1 X65.506 Y65.883 E0.04417
G1 X64.742 Y66.181 E0.04461
G1 X63.957 Y66.450 E0.04506
G1 X63.153 Y66.689 E0.04556
G1 X62.334 Y66.900 E0.04598
G1 X61.497 Y67.082 E0.04650
G1 X60.649 Y67.236 E0.04687
G1 X59.789 Y67.362 E0.04719
G1 X58.854 Y67.467 E0.05113
G1 X57.979 Y67.535 E0.04768
G1 X57.099 Y67.576 E0.04785
G1 X56.282 Y67.588 E0.04440
G1 X55.401 Y67.576 E0.04792
G1 X54.455 Y67.531 E0.05143
G1 X53.646 Y67.467 E0.04409
G1 X52.779 Y67.371 E0.04742
G1 X51.920 Y67.247 E0.04712
G1 X51.074 Y67.096 E0.04671
G1 X50.240 Y66.917 E0.04634
G1 X49.347 Y66.689 E0.05009
G1 X48.543 Y66.450 E0.04556
G1 X47.758 Y66.181 E0.04506
G1 X46.994 Y65.883 E0.04461
G1 X46.251 Y65.552 E0.04417
G1 X45.532 Y65.190 E0.04376
G1 X44.937 Y64.853 E0.03712
G1 X44.274 Y64.429 E0.04274
G1 X43.531 Y63.881 E0.05018
G1 X43.038 Y63.464 E0.03508
G1 X42.470 Y62.915 E0.04293
G1 X41.828 Y62.171 E0.05339
G1 X41.352 Y61.493 E0.04499
G1 X40.938 Y60.758 E0.04584
G1 X40.683 Y60.188 E0.03392
G1 X40.411 Y59.371 E0.04678
G1 X40.233 Y58.513 E0.04764
G1 X40.201 Y58.258 E0.01394
G1 X40.162 Y57.370 E0.04831
G1 X40.233 Y56.487 E0.04812
G1 X40.350 Y55.870 E0.03415
G1 X40.600 Y55.031 E0.04753
G1 X40.683 Y54.812 E0.01275
G1 X41.038 Y54.047 E0.04584
G1 X41.462 Y53.337 E0.04491
G1 X41.828 Y52.829 E0.03402
G1 X42.470 Y52.085 E0.05339
G1 X42.924 Y51.639 E0.03459
G1 X43.276 Y51.334 E0.02530
G1 X43.557 Y51.667 F9000.000
G1 X43.904 Y51.379 E0.02449 F1200.000
G1 X44.516 Y50.933 E0.04112
G1 X45.157 Y50.523 E0.04137
G1 X45.827 Y50.147 E0.04172
G1 X46.522 Y49.801 E0.04219
G1 X47.242 Y49.486 E0.04271
G1 X47.985 Y49.200 E0.04327
G1 X48.750 Y48.941 E0.04384
G1 X49.534 Y48.711 E0.04441
G1 X50.336 Y48.508 E0.04497
G1 X51.154 Y48.332 E0.04547
G1 X51.986 Y48.183 E0.04592
G1 X52.830 Y48.062 E0.04633
G1 X53.684 Y47.967 E0.04666
G1 X54.486 Y47.904 E0.04372
G1 X55.352 Y47.862 E0.04712
G1 X56.279 Y47.847 E0.05034
G1 X57.089 Y47.860 E0.04404 F1200.000
G1 X57.955 Y47.900 E0.04709
G1 X58.816 Y47.967 E0.04692
G1 X59.670 Y48.062 E0.04666
G1 X60.575 Y48.193 E0.04973
G1 X61.346 Y48.332 E0.04253
G1 X62.164 Y48.508 E0.04547
G1 X62.966 Y48.711 E0.04496
G1 X63.821 Y48.964 E0.04844
G1 X64.589 Y49.226 E0.04408
G1 X65.258 Y49.486 E0.03900
G1 X65.978 Y49.801 E0.04271
G1 X66.673 Y50.147 E0.04218
G1 X67.342 Y50.523 E0.04172
G1 X67.984 Y50.933 E0.04137
G1 X68.694 Y51.456 E0.04789
G1 X69.277 Y51.956 E0.04170
G1 X69.822 Y52.499 E0.04185
G1 X70.324 Y53.091 E0.04219
G1 X70.777 Y53.735 E0.04273
G1 X71.169 Y54.430 E0.04338
G1 X71.489 Y55.175 E0.04402
G1 X71.670 Y55.748 E0.03265
G1 X71.836 Y56.555 E0.04478
G1 X71.903 Y57.384 E0.04517
G1 X71.903 Y57.616 E0.01264
G1 X71.836 Y58.445 E0.04518
G1 X71.725 Y59.037 E0.03270
G1 X71.489 Y59.825 E0.04473
G1 X71.169 Y60.570 E0.04403
G1 X70.777 Y61.265 E0.04338
G1 X70.324 Y61.909 E0.04273
G1 X69.822 Y62.501 E0.04219
G1 X69.277 Y63.044 E0.04184
G1 X68.596 Y63.621 E0.04848
G1 X67.984 Y64.067 E0.04112
G1 X67.432 Y64.422 E0.03566
G1 X66.673 Y64.853 E0.04743
G1 X65.978 Y65.199 E0.04218
G1 X65.335 Y65.482 E0.03817
G1 X64.589 Y65.774 E0.04356
G1 X63.821 Y66.036 E0.04407
G1 X62.966 Y66.289 E0.04843
G1 X62.164 Y66.492 E0.04497
G1 X61.345 Y66.668 E0.04550
G1 X60.514 Y66.817 E0.04590
G1 X59.730 Y66.931 E0.04301
G1 X58.875 Y67.027 E0.04674
G1 X58.014 Y67.096 E0.04696
G1 X57.148 Y67.138 E0.04712
G1 X56.279 Y67.153 E0.04720
G1 X55.411 Y67.140 E0.04717
G1 X54.545 Y67.100 E0.04711
G1 X53.684 Y67.033 E0.04691
G1 X52.831 Y66.938 E0.04665
G1 X51.925 Y66.807 E0.04972
G1 X51.091 Y66.656 E0.04605
G1 X50.270 Y66.477 E0.04564
G1 X49.534 Y66.289 E0.04129
G1 X48.750 Y66.059 E0.04438
G1 X47.985 Y65.800 E0.04386
G1 X47.242 Y65.514 E0.04326
G1 X46.441 Y65.160 E0.04760
G1 X45.827 Y64.853 E0.03731
G1 X45.157 Y64.477 E0.04172
G1 X44.422 Y64.002 E0.04758
G1 X43.904 Y63.621 E0.03490
G1 X43.325 Y63.137 E0.04102
G1 X42.678 Y62.501 E0.04931
G1 X42.278 Y62.038 E0.03321
G1 X41.822 Y61.417 E0.04188
G1 X41.421 Y60.745 E0.04254
G1 X41.011 Y59.825 E0.05468
G1 X40.775 Y59.037 E0.04474
G1 X40.635 Y58.217 E0.04515
G1 X40.597 Y57.384 E0.04535
G1 X40.664 Y56.555 E0.04517
G1 X40.775 Y55.963 E0.03270
G1 X41.011 Y55.175 E0.04473
G1 X41.421 Y54.255 E0.05467
G1 X41.822 Y53.583 E0.04255
G1 X42.176 Y53.091 E0.03291
G1 X42.781 Y52.390 E0.05036
G1 X43.223 Y51.956 E0.03367
G1 X43.523 Y51.696 E0.02154
G1 X43.804 Y52.028 F9000.000
G1 X44.168 Y51.725 E0.02574 F1200.000
G1 X44.758 Y51.296 E0.03962
G1 X45.378 Y50.899 E0.04000
G1 X46.027 Y50.534 E0.04046
G1 X46.703 Y50.198 E0.04102
G1 X47.404 Y49.890 E0.04162
G1 X48.130 Y49.611 E0.04225
G1 X48.877 Y49.358 E0.04288
G1 X49.645 Y49.132 E0.04349
G1 X50.432 Y48.933 E0.04410
G1 X51.235 Y48.760 E0.04464
G1 X52.053 Y48.614 E0.04512
G1 X52.829 Y48.501 E0.04262
G1 X53.722 Y48.401 E0.04882
G1 X54.569 Y48.335 E0.04616
G1 X55.421 Y48.295 E0.04635
G1 X56.338 Y48.284 E0.04983
G1 X57.931 Y48.335 E0.08660 F1200.000
G1 X58.778 Y48.401 E0.04616
G1 X59.618 Y48.494 E0.04589
G1 X60.502 Y48.623 E0.04854
G1 X61.265 Y48.760 E0.04212
G1 X62.068 Y48.933 E0.04464
G1 X62.854 Y49.132 E0.04409
G1 X63.685 Y49.378 E0.04706
G1 X64.435 Y49.634 E0.04309
G1 X65.096 Y49.890 E0.03848
G1 X65.797 Y50.198 E0.04162
G1 X66.473 Y50.534 E0.04101
G1 X67.122 Y50.899 E0.04046
G1 X67.742 Y51.296 E0.04000
G1 X68.332 Y51.725 E0.03962
G1 X68.887 Y52.191 E0.03938
G1 X69.407 Y52.694 E0.03933
G1 X69.886 Y53.239 E0.03942
G1 X70.319 Y53.829 E0.03971
G1 X70.697 Y54.464 E0.04018
G1 X71.011 Y55.145 E0.04075
G1 X71.251 Y55.867 E0.04132
G1 X71.406 Y56.622 E0.04192
G1 X71.467 Y57.397 E0.04223
G1 X71.467 Y57.603 E0.01116
G1 X71.406 Y58.378 E0.04223
G1 X71.251 Y59.133 E0.04192
G1 X71.077 Y59.682 E0.03127
G1 X70.776 Y60.382 E0.04139
G1 X70.405 Y61.037 E0.04092
G1 X69.977 Y61.646 E0.04046
G1 X69.498 Y62.209 E0.04013
G1 X68.977 Y62.728 E0.03996
G1 X68.418 Y63.206 E0.03999
G1 X67.742 Y63.704 E0.04560
G1 X67.122 Y64.101 E0.04000
G1 X66.473 Y64.466 E0.04046
G1 X65.797 Y64.802 E0.04101
G1 X65.164 Y65.081 E0.03761
G1 X64.435 Y65.366 E0.04250
G1 X63.685 Y65.622 E0.04309
G1 X62.855 Y65.868 E0.04704
G1 X62.068 Y66.067 E0.04409
G1 X61.264 Y66.240 E0.04466
G1 X60.447 Y66.386 E0.04510
G1 X59.618 Y66.506 E0.04554
G1 X58.778 Y66.599 E0.04588
G1 X57.983 Y66.662 E0.04334
G1 X57.131 Y66.703 E0.04637
G1 X56.276 Y66.717 E0.04646
G1 X55.421 Y66.705 E0.04643
G1 X54.569 Y66.665 E0.04636
G1 X53.722 Y66.599 E0.04616
G1 X52.882 Y66.506 E0.04589
G1 X51.998 Y66.377 E0.04854
G1 X51.179 Y66.229 E0.04523
G1 X50.374 Y66.054 E0.04478
G1 X49.645 Y65.868 E0.04085
G1 X48.878 Y65.642 E0.04347
G1 X48.065 Y65.366 E0.04665
G1 X47.404 Y65.110 E0.03848
G1 X46.703 Y64.802 E0.04163
G1 X46.027 Y64.466 E0.04101
G1 X45.378 Y64.101 E0.04046
G1 X44.675 Y63.647 E0.04548
G1 X44.168 Y63.275 E0.03414
G1 X43.612 Y62.809 E0.03939
G1 X43.002 Y62.209 E0.04655
G1 X42.614 Y61.761 E0.03220
G1 X42.181 Y61.171 E0.03972
G1 X41.803 Y60.536 E0.04018
G1 X41.423 Y59.682 E0.05078
G1 X41.201 Y58.943 E0.04193
G1 X41.069 Y58.177 E0.04224
G1 X41.033 Y57.397 E0.04239
G1 X41.094 Y56.622 E0.04223
G1 X41.249 Y55.867 E0.04192
G1 X41.423 Y55.318 E0.03127
G1 X41.724 Y54.618 E0.04138
G1 X42.181 Y53.829 E0.04958
G1 X42.614 Y53.239 E0.03972
G1 X43.002 Y52.791 E0.03220
G1 X43.523 Y52.272 E0.03996
G1 X43.770 Y52.058 E0.01778
G1 X44.051 Y52.390 F9000.000
G1 X44.432 Y52.072 E0.02699 F1200.000
G1 X44.999 Y51.658 E0.03812
G1 X45.598 Y51.275 E0.03863
G1 X46.226 Y50.921 E0.03919
G1 X46.883 Y50.594 E0.03985
G1 X47.566 Y50.295 E0.04053
G1 X48.274 Y50.022 E0.04123
