; generated by Slic3r 1.2.9 on 2017-06-05 at 17:31:07

; external perimeters extrusion width = 0.30mm
; perimeters extrusion width = 0.30mm
; infill extrusion width = 0.30mm
; solid infill extrusion width = 0.30mm
; top infill extrusion width = 0.30mm

M107
M190 S57 ; set bed temperature
G28								; home all axes (if axis shifting bug is fixed!)
G32								; execute bed Z-plane  compensation at bed.g 4 points
G10 P0 X-16 Y-3 Z0.0 S-273 R-273		; set extruder x,y offsets
M83								; set extruder to relative mode
G10 P0 S195 R160					; Set tool 0 operating and standby temperatures
T0									; select tool ZERO




G21 ; set units to millimeters
G90 ; use absolute coordinates
M83 ; use relative distances for extrusion
G1 E-3.50000 F2400.00000
G1 Z0.300 F9000.000
G1 X52.800 Y47.709 F9000.000
G1 E3.50000 F2400.00000
G1 X53.270 Y47.209 E0.03727 F1200.000
G1 X54.072 Y46.454 E0.05985
G1 X54.899 Y45.780 E0.05799
G1 X55.749 Y45.174 E0.05670
G1 X56.619 Y44.630 E0.05571
G1 X57.503 Y44.142 E0.05489
G1 X58.404 Y43.702 E0.05448
G1 X59.320 Y43.308 E0.05417
G1 X59.914 Y43.078 E0.03460
G1 X60.871 Y42.745 E0.05509
G1 X62.149 Y42.366 E0.07242
G1 X63.118 Y42.125 E0.05426
G1 X64.805 Y41.791 E0.09345
G1 X65.809 Y41.640 E0.05516
G1 X67.090 Y41.497 E0.07002
G1 X68.850 Y41.386 E0.09580
G1 X70.169 Y41.366 E0.07167
G1 X71.150 Y41.386 E0.05333 F1200.000
G1 X72.167 Y41.438 E0.05530
G1 X73.181 Y41.523 E0.05528
G1 X74.191 Y41.640 E0.05524
G1 X75.194 Y41.791 E0.05515
G1 X76.192 Y41.976 E0.05510
G1 X76.882 Y42.125 E0.03837
G1 X77.851 Y42.366 E0.05424
G1 X78.807 Y42.642 E0.05408
G1 X79.750 Y42.956 E0.05403
G1 X81.032 Y43.454 E0.07474
G1 X81.966 Y43.876 E0.05567
G1 X82.885 Y44.349 E0.05613
G1 X83.381 Y44.630 E0.03101
G1 X84.250 Y45.174 E0.05571
G1 X85.100 Y45.780 E0.05669
G1 X85.547 Y46.132 E0.03090
G1 X85.928 Y46.454 E0.02711
G1 X86.730 Y47.209 E0.05985
G1 X87.497 Y48.052 E0.06190
G1 X87.963 Y48.643 E0.04091
G1 X88.216 Y48.994 E0.02349
G1 X88.665 Y49.685 E0.04479
G1 X88.872 Y50.043 E0.02247
G1 X89.280 Y50.839 E0.04859
G1 X89.442 Y51.202 E0.02159
G1 X89.782 Y52.095 E0.05192
G1 X89.898 Y52.461 E0.02090
G1 X90.146 Y53.444 E0.05506
G1 X90.216 Y53.814 E0.02043
G1 X90.346 Y54.850 E0.05675
G1 X90.369 Y55.220 E0.02017
G1 X90.369 Y56.280 E0.05754
G1 X90.321 Y56.950 E0.03653
G1 X87.770 Y82.764 E1.40938
G1 X87.614 Y83.840 E0.05909
G1 X87.385 Y84.941 E0.06106
G1 X87.096 Y85.996 E0.05949
G1 X86.924 Y86.528 E0.03033
G1 X86.528 Y87.579 E0.06104
G1 X86.292 Y88.124 E0.03226
G1 X85.797 Y89.132 E0.06104
G1 X85.240 Y90.108 E0.06104
G1 X84.622 Y91.046 E0.06103
G1 X83.947 Y91.944 E0.06104
G1 X83.609 Y92.352 E0.02880
G1 X82.854 Y93.184 E0.06104
G1 X82.048 Y93.966 E0.06102
G1 X81.602 Y94.359 E0.03227
G1 X80.725 Y95.061 E0.06105
G1 X79.805 Y95.706 E0.06104
G1 X78.847 Y96.292 E0.06103
G1 X77.853 Y96.817 E0.06104
G1 X77.374 Y97.042 E0.02879
G1 X76.336 Y97.473 E0.06105
G1 X75.274 Y97.838 E0.06104
G1 X74.704 Y98.004 E0.03226
G1 X74.163 Y98.142 E0.03031
G1 X73.090 Y98.364 E0.05952
G1 X72.504 Y98.457 E0.03225
G1 X71.387 Y98.580 E0.06104
G1 X70.265 Y98.631 E0.06104
G1 X69.735 Y98.631 E0.02880
G1 X69.142 Y98.613 E0.03226
G1 X68.022 Y98.524 E0.06104
G1 X66.910 Y98.364 E0.06104
G1 X66.389 Y98.265 E0.02879
G1 X65.297 Y98.004 E0.06102
G1 X64.726 Y97.838 E0.03228
G1 X63.664 Y97.473 E0.06104
G1 X62.626 Y97.042 E0.06104
G1 X62.147 Y96.817 E0.02880
G1 X61.154 Y96.292 E0.06102
G1 X60.642 Y95.990 E0.03227
G1 X60.172 Y95.690 E0.03031
G1 X59.275 Y95.061 E0.05950
G1 X58.806 Y94.697 E0.03227
G1 X57.952 Y93.966 E0.06105
G1 X57.566 Y93.604 E0.02879
G1 X56.784 Y92.798 E0.06104
G1 X56.053 Y91.944 E0.06105
G1 X55.689 Y91.475 E0.03227
G1 X55.060 Y90.578 E0.05949
G1 X54.760 Y90.108 E0.03032
G1 X54.458 Y89.597 E0.03226
G1 X53.933 Y88.603 E0.06104
G1 X53.472 Y87.579 E0.06104
G1 X53.076 Y86.528 E0.06104
G1 X52.912 Y86.024 E0.02880
G1 X52.746 Y85.454 E0.03226
G1 X52.491 Y84.388 E0.05951
G1 X52.293 Y83.254 E0.06256
G1 X52.230 Y82.764 E0.02684
G1 X49.679 Y56.950 E1.40938
G1 X49.631 Y56.279 E0.03654
G1 X49.631 Y55.220 E0.05753
G1 X49.654 Y54.850 E0.02017
G1 X49.784 Y53.813 E0.05676
G1 X49.854 Y53.444 E0.02042
G1 X50.102 Y52.461 E0.05506
G1 X50.218 Y52.095 E0.02090
G1 X50.558 Y51.202 E0.05192
G1 X50.720 Y50.839 E0.02160
G1 X51.128 Y50.043 E0.04858
G1 X51.335 Y49.685 E0.02247
G1 X51.784 Y48.994 E0.04479
G1 X52.037 Y48.642 E0.02352
G1 X52.771 Y47.743 E0.06307
G1 E-3.50000 F2400.00000
G1 X56.679 Y51.125 F9000.000
G1 E3.50000 F2400.00000
G1 X57.273 Y50.522 E0.04600 F1200.000
G1 X57.832 Y50.044 E0.03998
G1 X58.425 Y49.603 E0.04012
G1 X59.048 Y49.197 E0.04044
G1 X59.701 Y48.824 E0.04087
G1 X60.381 Y48.482 E0.04134
G1 X61.086 Y48.169 E0.04192
G1 X61.880 Y47.861 E0.04626
G1 X62.627 Y47.608 E0.04288
G1 X63.395 Y47.382 E0.04349
G1 X64.124 Y47.196 E0.04086
G1 X64.929 Y47.021 E0.04477
G1 X65.803 Y46.864 E0.04822
G1 X66.632 Y46.744 E0.04554
G1 X67.472 Y46.651 E0.04590
G1 X68.267 Y46.588 E0.04334
G1 X69.171 Y46.545 E0.04917
G1 X70.088 Y46.534 E0.04983
G1 X71.681 Y46.585 E0.08660 F1200.000
G1 X72.528 Y46.651 E0.04616
G1 X73.368 Y46.744 E0.04589
G1 X74.252 Y46.873 E0.04854
G1 X75.015 Y47.010 E0.04212
G1 X75.818 Y47.183 E0.04464
G1 X76.604 Y47.382 E0.04409
G1 X77.435 Y47.628 E0.04706
G1 X78.185 Y47.884 E0.04309
G1 X78.846 Y48.140 E0.03848
G1 X79.547 Y48.448 E0.04162
G1 X80.223 Y48.784 E0.04101
G1 X80.872 Y49.149 E0.04046
G1 X81.492 Y49.546 E0.04000
G1 X82.082 Y49.975 E0.03962
G1 X82.637 Y50.441 E0.03938
G1 X83.157 Y50.944 E0.03933
G1 X83.636 Y51.489 E0.03942
G1 X84.069 Y52.079 E0.03971
G1 X84.447 Y52.714 E0.04018
G1 X84.761 Y53.395 E0.04075
G1 X85.001 Y54.117 E0.04132
G1 X85.156 Y54.872 E0.04192
G1 X85.217 Y55.647 E0.04223
G1 X85.217 Y55.853 E0.01116
G1 X85.156 Y56.628 E0.04223
G1 X85.001 Y57.383 E0.04192
G1 X84.827 Y57.932 E0.03127
G1 X84.526 Y58.632 E0.04139
G1 X84.155 Y59.287 E0.04092
G1 X83.727 Y59.896 E0.04046
G1 X83.248 Y60.459 E0.04013
G1 X82.727 Y60.978 E0.03996
G1 X82.168 Y61.456 E0.03999
G1 X81.492 Y61.954 E0.04560
G1 X80.872 Y62.351 E0.04000
G1 X80.299 Y62.676 E0.03583
G1 X79.547 Y63.052 E0.04564
G1 X78.846 Y63.360 E0.04163
G1 X78.120 Y63.639 E0.04224
G1 X77.372 Y63.892 E0.04290
G1 X76.664 Y64.101 E0.04012
G1 X75.876 Y64.304 E0.04421
G1 X75.071 Y64.479 E0.04479
G1 X74.197 Y64.636 E0.04822
G1 X73.368 Y64.756 E0.04554
G1 X72.528 Y64.849 E0.04588
G1 X71.681 Y64.915 E0.04617
G1 X70.881 Y64.953 E0.04354
G1 X70.026 Y64.967 E0.04646
G1 X69.171 Y64.955 E0.04643
G1 X68.319 Y64.915 E0.04636
G1 X67.472 Y64.849 E0.04616
G1 X66.579 Y64.749 E0.04882
G1 X65.748 Y64.627 E0.04560
G1 X64.929 Y64.479 E0.04523
G1 X64.182 Y64.317 E0.04154
G1 X63.395 Y64.118 E0.04410
G1 X62.565 Y63.872 E0.04704
G1 X61.880 Y63.639 E0.03933
G1 X61.154 Y63.360 E0.04224
G1 X60.453 Y63.052 E0.04163
G1 X59.777 Y62.716 E0.04101
G1 X59.048 Y62.303 E0.04549
G1 X58.508 Y61.954 E0.03496
G1 X57.918 Y61.525 E0.03961
G1 X57.362 Y61.059 E0.03939
G1 X56.752 Y60.459 E0.04655
G1 X56.364 Y60.011 E0.03220
G1 X55.931 Y59.421 E0.03972
G1 X55.474 Y58.632 E0.04958
G1 X55.173 Y57.932 E0.04138
G1 X54.999 Y57.383 E0.03128
G1 X54.844 Y56.628 E0.04191
G1 X54.783 Y55.853 E0.04224
G1 X54.819 Y55.074 E0.04237
G1 X54.951 Y54.307 E0.04225
G1 X55.173 Y53.568 E0.04193
G1 X55.553 Y52.714 E0.05078
G1 X55.931 Y52.079 E0.04019
G1 X56.273 Y51.604 E0.03180
G1 X56.649 Y51.159 E0.03162
G1 X56.979 Y51.445 F9000.000
G1 X57.572 Y50.839 E0.04607 F1200.000
G1 X58.108 Y50.381 E0.03827
G1 X58.677 Y49.958 E0.03856
G1 X59.279 Y49.567 E0.03901
G1 X59.911 Y49.206 E0.03955
G1 X60.571 Y48.874 E0.04013
G1 X61.257 Y48.569 E0.04079
G1 X62.024 Y48.272 E0.04470
G1 X62.755 Y48.024 E0.04192
G1 X63.507 Y47.803 E0.04258
G1 X64.278 Y47.608 E0.04322
G1 X65.066 Y47.438 E0.04380
G1 X65.822 Y47.302 E0.04171
G1 X66.684 Y47.177 E0.04736
G1 X67.510 Y47.085 E0.04513
G1 X68.343 Y47.020 E0.04540
G1 X69.137 Y46.982 E0.04317
G1 X70.022 Y46.968 E0.04811
G1 X70.819 Y46.981 E0.04329 F1200.000
G1 X71.657 Y47.020 E0.04559
G1 X72.490 Y47.085 E0.04541
G1 X73.316 Y47.177 E0.04513
G1 X74.131 Y47.294 E0.04476
G1 X74.934 Y47.438 E0.04432
G1 X75.772 Y47.619 E0.04660
G1 X76.545 Y47.817 E0.04334
G1 X77.299 Y48.042 E0.04275
G1 X77.976 Y48.272 E0.03884
G1 X78.684 Y48.545 E0.04123
G1 X79.367 Y48.844 E0.04053
G1 X80.023 Y49.171 E0.03984
G1 X80.652 Y49.525 E0.03920
G1 X81.323 Y49.958 E0.04337
G1 X81.892 Y50.381 E0.03856
G1 X82.428 Y50.839 E0.03827
G1 X82.925 Y51.333 E0.03808
G1 X83.379 Y51.866 E0.03806
G1 X83.784 Y52.441 E0.03820
G1 X84.064 Y52.923 E0.03030
G1 X84.358 Y53.561 E0.03819
G1 X84.582 Y54.236 E0.03860
G1 X84.725 Y54.940 E0.03905
G1 X84.781 Y55.839 E0.04893
G1 X84.725 Y56.560 E0.03929
G1 X84.623 Y57.099 E0.02981
G1 X84.416 Y57.788 E0.03912
G1 X84.133 Y58.443 E0.03875
G1 X83.784 Y59.059 E0.03846
G1 X83.379 Y59.634 E0.03820
G1 X82.925 Y60.167 E0.03806
G1 X82.350 Y60.732 E0.04378
G1 X81.818 Y61.178 E0.03775
G1 X81.251 Y61.592 E0.03812
G1 X80.721 Y61.933 E0.03426
G1 X80.023 Y62.329 E0.04356
G1 X79.367 Y62.656 E0.03984
G1 X78.684 Y62.955 E0.04054
G1 X77.976 Y63.228 E0.04122
G1 X77.299 Y63.458 E0.03884
G1 X76.545 Y63.683 E0.04275
G1 X75.772 Y63.880 E0.04332
G1 X74.933 Y64.062 E0.04663
G1 X74.131 Y64.206 E0.04429
G1 X73.316 Y64.323 E0.04476
G1 X72.490 Y64.415 E0.04512
G1 X71.657 Y64.480 E0.04541
G1 X70.819 Y64.519 E0.04560
G1 X70.022 Y64.532 E0.04328
G1 X69.181 Y64.519 E0.04569
G1 X68.343 Y64.480 E0.04561
G1 X67.464 Y64.410 E0.04788
G1 X66.638 Y64.317 E0.04518
G1 X65.822 Y64.198 E0.04481
G1 X65.066 Y64.062 E0.04171
G1 X64.278 Y63.892 E0.04382
G1 X63.507 Y63.697 E0.04322
G1 X62.755 Y63.476 E0.04257
G1 X61.968 Y63.208 E0.04519
G1 X61.316 Y62.955 E0.03796
G1 X60.633 Y62.656 E0.04054
G1 X59.911 Y62.294 E0.04385
G1 X59.348 Y61.975 E0.03518
G1 X58.749 Y61.592 E0.03863
G1 X58.108 Y61.119 E0.04330
G1 X57.650 Y60.732 E0.03257
G1 X57.154 Y60.251 E0.03753
G1 X56.621 Y59.634 E0.04431
G1 X56.291 Y59.175 E0.03069
G1 X55.936 Y58.577 E0.03782
G1 X55.642 Y57.939 E0.03818
G1 X55.377 Y57.099 E0.04783
G1 X55.253 Y56.386 E0.03933
G1 X55.219 Y55.661 E0.03943
G1 X55.275 Y54.940 E0.03929
G1 X55.377 Y54.401 E0.02981
G1 X55.584 Y53.711 E0.03912
G1 X55.936 Y52.923 E0.04689
G1 X56.291 Y52.325 E0.03782
G1 X56.621 Y51.866 E0.03069
G1 X56.949 Y51.479 E0.02759
G1 X57.279 Y51.764 F9000.000
G1 X57.466 Y51.554 E0.01527 F1200.000
G1 X57.872 Y51.155 E0.03090
G1 X58.383 Y50.719 E0.03655
G1 X58.930 Y50.313 E0.03700
G1 X59.510 Y49.936 E0.03758
G1 X60.121 Y49.587 E0.03823
G1 X60.761 Y49.266 E0.03891
G1 X61.428 Y48.970 E0.03966
G1 X62.169 Y48.683 E0.04315
G1 X62.883 Y48.441 E0.04096
G1 X63.619 Y48.224 E0.04167
G1 X64.332 Y48.043 E0.03998
G1 X65.106 Y47.874 E0.04306
G1 X65.935 Y47.725 E0.04578
G1 X66.736 Y47.609 E0.04397
G1 X67.548 Y47.519 E0.04436
G1 X68.329 Y47.457 E0.04258
G1 X69.192 Y47.417 E0.04692
G1 X70.074 Y47.405 E0.04797
G1 X71.633 Y47.455 E0.08473 F1200.000
G1 X72.452 Y47.519 E0.04465
G1 X73.264 Y47.609 E0.04436
G1 X74.065 Y47.725 E0.04397
G1 X74.853 Y47.866 E0.04351
G1 X75.668 Y48.043 E0.04534
G1 X76.425 Y48.236 E0.04245
G1 X77.163 Y48.455 E0.04181
G1 X77.831 Y48.683 E0.03835
G1 X78.522 Y48.949 E0.04021
G1 X79.186 Y49.241 E0.03944
G1 X79.824 Y49.558 E0.03868
G1 X80.432 Y49.901 E0.03793
G1 X81.070 Y50.313 E0.04127
G1 X81.617 Y50.718 E0.03700
G1 X82.128 Y51.155 E0.03655
G1 X82.601 Y51.625 E0.03620
G1 X83.031 Y52.129 E0.03599
G1 X83.413 Y52.669 E0.03594
G1 X83.682 Y53.132 E0.02910
G1 X83.956 Y53.728 E0.03564
G1 X84.163 Y54.355 E0.03587
G1 X84.295 Y55.008 E0.03618
G1 X84.346 Y55.825 E0.04451
G1 X84.295 Y56.492 E0.03635
G1 X84.198 Y57.005 E0.02837
G1 X84.004 Y57.645 E0.03632
G1 X83.740 Y58.255 E0.03611
G1 X83.413 Y58.831 E0.03600
G1 X83.031 Y59.371 E0.03594
G1 X82.601 Y59.875 E0.03599
G1 X82.128 Y60.345 E0.03619
G1 X81.553 Y60.832 E0.04094
G1 X81.009 Y61.229 E0.03663
G1 X80.490 Y61.564 E0.03356
G1 X79.824 Y61.942 E0.04163
G1 X79.186 Y62.259 E0.03867
G1 X78.521 Y62.551 E0.03945
G1 X77.831 Y62.817 E0.04020
G1 X77.163 Y63.045 E0.03835
G1 X76.425 Y63.264 E0.04181
G1 X75.669 Y63.457 E0.04243
G1 X74.853 Y63.634 E0.04536
G1 X74.065 Y63.775 E0.04349
G1 X73.264 Y63.891 E0.04397
G1 X72.452 Y63.981 E0.04435
G1 X71.633 Y64.045 E0.04466
G1 X70.019 Y64.096 E0.08775
G1 X69.192 Y64.084 E0.04495
G1 X68.367 Y64.045 E0.04486
G1 X67.509 Y63.977 E0.04674
G1 X66.697 Y63.886 E0.04441
G1 X65.895 Y63.769 E0.04402
G1 X65.147 Y63.634 E0.04130
G1 X64.374 Y63.467 E0.04298
G1 X63.575 Y63.264 E0.04481
G1 X62.883 Y63.059 E0.03920
G1 X62.169 Y62.817 E0.04097
G1 X61.479 Y62.551 E0.04020
G1 X60.814 Y62.259 E0.03945
G1 X60.121 Y61.913 E0.04207
G1 X59.568 Y61.599 E0.03454
G1 X58.991 Y61.229 E0.03725
G1 X58.383 Y60.782 E0.04101
G1 X57.937 Y60.405 E0.03173
G1 X57.466 Y59.946 E0.03573
G1 X56.969 Y59.371 E0.04128
G1 X56.651 Y58.929 E0.02958
G1 X56.318 Y58.368 E0.03546
G1 X56.044 Y57.772 E0.03563
G1 X55.802 Y57.005 E0.04369
G1 X55.687 Y56.345 E0.03642
G1 X55.654 Y55.675 E0.03646
G1 X55.705 Y55.008 E0.03635
G1 X55.802 Y54.495 E0.02837
G1 X55.996 Y53.855 E0.03632
G1 X56.318 Y53.132 E0.04300
G1 X56.651 Y52.571 E0.03546
G1 X56.969 Y52.129 E0.02959
G1 X57.249 Y51.798 E0.02356
G1 X57.579 Y52.083 F9000.000
G1 X57.777 Y51.858 E0.01627 F1200.000
G1 X58.171 Y51.472 E0.02998
G1 X58.659 Y51.056 E0.03484
G1 X59.183 Y50.668 E0.03544
G1 X59.741 Y50.306 E0.03615
G1 X60.331 Y49.969 E0.03692
G1 X60.951 Y49.658 E0.03770
G1 X61.600 Y49.370 E0.03853
G1 X62.313 Y49.094 E0.04159
G1 X63.011 Y48.857 E0.03999
G1 X63.730 Y48.645 E0.04076
G1 X64.470 Y48.458 E0.04148
G1 X65.228 Y48.294 E0.04213
G1 X65.969 Y48.161 E0.04089
G1 X66.788 Y48.042 E0.04499
G1 X67.586 Y47.953 E0.04359
G1 X69.171 Y47.853 E0.08631
G1 X70.015 Y47.840 E0.04588
G1 X71.609 Y47.890 E0.08663 F1200.000
G1 X72.414 Y47.953 E0.04389
G1 X73.212 Y48.042 E0.04359
G1 X73.998 Y48.155 E0.04319
G1 X74.772 Y48.294 E0.04270
G1 X75.530 Y48.458 E0.04213
G1 X76.270 Y48.645 E0.04147
G1 X76.989 Y48.857 E0.04076
G1 X77.687 Y49.094 E0.04000
G1 X78.400 Y49.370 E0.04159
G1 X79.049 Y49.658 E0.03853
G1 X79.669 Y49.969 E0.03770
G1 X80.259 Y50.306 E0.03692
G1 X80.817 Y50.668 E0.03614
G1 X81.341 Y51.056 E0.03544
G1 X81.829 Y51.472 E0.03484
G1 X82.278 Y51.917 E0.03431
G1 X82.683 Y52.391 E0.03392
G1 X83.042 Y52.897 E0.03367
G1 X83.347 Y53.433 E0.03354
G1 X83.592 Y53.998 E0.03347
G1 X83.772 Y54.588 E0.03352
G1 X83.864 Y55.075 E0.02692
G1 X83.910 Y55.688 E0.03340
G1 X83.864 Y56.425 E0.04009
G1 X83.743 Y57.026 E0.03332
G1 X83.553 Y57.606 E0.03315
G1 X83.300 Y58.159 E0.03308
G1 X82.989 Y58.684 E0.03310
G1 X82.629 Y59.177 E0.03323
G1 X82.223 Y59.642 E0.03350
G1 X81.775 Y60.077 E0.03393
G1 X81.289 Y60.485 E0.03447
G1 X80.817 Y60.832 E0.03185
G1 X80.211 Y61.223 E0.03917
G1 X79.624 Y61.555 E0.03667
G1 X79.006 Y61.863 E0.03750
G1 X78.359 Y62.147 E0.03836
G1 X77.726 Y62.392 E0.03693
G1 X76.989 Y62.643 E0.04226
G1 X76.270 Y62.855 E0.04075
G1 X75.530 Y63.042 E0.04148
G1 X74.772 Y63.206 E0.04214
G1 X73.998 Y63.344 E0.04268
G1 X73.212 Y63.458 E0.04319
G1 X72.446 Y63.544 E0.04187
G1 X71.640 Y63.608 E0.04392
G1 X70.829 Y63.647 E0.04412
G1 X70.015 Y63.660 E0.04422
G1 X69.202 Y63.648 E0.04420
G1 X68.360 Y63.608 E0.04580
G1 X66.788 Y63.458 E0.08577
G1 X66.002 Y63.344 E0.04319
G1 X65.228 Y63.206 E0.04269
G1 X64.435 Y63.034 E0.04408
G1 X63.730 Y62.855 E0.03954
G1 X63.011 Y62.643 E0.04075
G1 X62.313 Y62.406 E0.04001
G1 X61.641 Y62.147 E0.03918
G1 X60.951 Y61.842 E0.04094
G1 X60.376 Y61.555 E0.03492
G1 X59.789 Y61.223 E0.03667
G1 X59.183 Y60.832 E0.03917
G1 X58.711 Y60.485 E0.03184
G1 X58.225 Y60.077 E0.03448
G1 X57.722 Y59.583 E0.03826
G1 X57.371 Y59.177 E0.02917
G1 X57.011 Y58.684 E0.03323
G1 X56.701 Y58.159 E0.03309
G1 X56.408 Y57.502 E0.03911
G1 X56.257 Y57.026 E0.02713
G1 X56.136 Y56.425 E0.03331
G1 X56.090 Y55.812 E0.03341
G1 X56.136 Y55.075 E0.04008
G1 X56.257 Y54.474 E0.03332
G1 X56.447 Y53.894 E0.03315
G1 X56.653 Y53.433 E0.02744
G1 X57.011 Y52.816 E0.03874
G1 X57.317 Y52.391 E0.02848
G1 X57.549 Y52.117 E0.01954
G1 X57.879 Y52.402 F9000.000
G1 X58.088 Y52.163 E0.01727 F1200.000
G1 X58.470 Y51.788 E0.02906
G1 X58.934 Y51.393 E0.03312
G1 X59.436 Y51.022 E0.03387
G1 X60.009 Y50.653 E0.03706
G1 X60.576 Y50.332 E0.03541
G1 X61.175 Y50.034 E0.03634
G1 X61.803 Y49.758 E0.03726
G1 X62.458 Y49.504 E0.03817
