; generated by Slic3r 1.2.9 on 2017-06-09 at 11:25:42

; external perimeters extrusion width = 0.30mm
; perimeters extrusion width = 0.30mm
; infill extrusion width = 0.30mm
; solid infill extrusion width = 0.30mm
; top infill extrusion width = 0.30mm

M107
M190 S57 ; set bed temperature
G28								; home all axes (if axis shifting bug is fixed!)
G32								; execute bed Z-plane  compensation at bed.g 4 points
G10 P0 X-16 Y-3 Z0.0 S-273 R-273		; set extruder x,y offsets
M83								; set extruder to relative mode
G10 P0 S195 R160					; Set tool 0 operating and standby temperatures
T0									; select tool ZERO




G21 ; set units to millimeters
G90 ; use absolute coordinates
M83 ; use relative distances for extrusion
G1 E-3.50000 F2400.00000
G1 Z0.300 F9000.000
G1 X40.451 Y47.852 F9000.000
G1 E3.50000 F2400.00000
G1 X41.145 Y47.290 E0.04857 F1200.000
G1 X41.567 Y46.980 E0.02843
G1 X42.455 Y46.388 E0.05799
G1 X43.361 Y45.859 E0.05700
G1 X44.650 Y45.212 E0.07836
G1 X45.566 Y44.818 E0.05417
G1 X46.160 Y44.588 E0.03460
G1 X47.439 Y44.152 E0.07345
G1 X48.395 Y43.876 E0.05407
G1 X49.065 Y43.705 E0.03757
G1 X50.344 Y43.428 E0.07108
G1 X51.333 Y43.255 E0.05457
G1 X52.315 Y43.116 E0.05391
G1 X84.109 Y39.503 E1.73855
G1 X85.387 Y39.397 E0.06970
G1 X86.539 Y39.379 E0.06259
G1 X87.633 Y39.430 E0.05950 F1200.000
G1 X88.224 Y39.486 E0.03226
G1 X88.750 Y39.553 E0.02880
G1 X89.857 Y39.745 E0.06103
G1 X90.436 Y39.874 E0.03227
G1 X91.520 Y40.172 E0.06104
G1 X92.024 Y40.336 E0.02880
G1 X93.075 Y40.732 E0.06104
G1 X94.099 Y41.193 E0.06104
G1 X94.628 Y41.463 E0.03226
G1 X95.093 Y41.718 E0.02879
G1 X96.051 Y42.304 E0.06102
G1 X96.971 Y42.949 E0.06105
G1 X97.440 Y43.313 E0.03227
G1 X97.848 Y43.651 E0.02880
G1 X98.680 Y44.406 E0.06104
G1 X99.100 Y44.826 E0.03225
G1 X99.855 Y45.658 E0.06104
G1 X100.193 Y46.066 E0.02880
G1 X100.868 Y46.964 E0.06104
G1 X101.202 Y47.455 E0.03227
G1 X101.788 Y48.413 E0.06102
G1 X102.313 Y49.407 E0.06104
G1 X102.538 Y49.886 E0.02880
G1 X102.969 Y50.924 E0.06104
G1 X103.170 Y51.482 E0.03226
G1 X103.334 Y51.986 E0.02880
G1 X103.632 Y53.070 E0.06104
G1 X103.761 Y53.649 E0.03226
G1 X103.953 Y54.756 E0.06104
G1 X104.020 Y55.282 E0.02880
G1 X104.109 Y56.402 E0.06104
G1 X104.132 Y57.257 E0.04651
G1 X104.135 Y83.005 E1.39895
G1 X104.117 Y83.598 E0.03226
G1 X104.028 Y84.718 E0.06104
G1 X103.868 Y85.830 E0.06104
G1 X103.640 Y86.931 E0.06106
G1 X103.350 Y87.987 E0.05949
G1 X103.178 Y88.518 E0.03033
G1 X102.782 Y89.569 E0.06104
G1 X102.321 Y90.593 E0.06104
G1 X101.796 Y91.587 E0.06104
G1 X101.494 Y92.098 E0.03226
G1 X100.892 Y93.013 E0.05949
G1 X100.201 Y93.934 E0.06257
G1 X99.470 Y94.788 E0.06106
G1 X98.688 Y95.594 E0.06102
G1 X97.856 Y96.349 E0.06104
G1 X96.979 Y97.051 E0.06105
G1 X96.059 Y97.696 E0.06104
G1 X95.101 Y98.282 E0.06103
G1 X94.636 Y98.537 E0.02879
G1 X93.628 Y99.032 E0.06104
G1 X92.590 Y99.463 E0.06105
G1 X91.528 Y99.828 E0.06104
G1 X90.445 Y100.126 E0.06103
G1 X89.344 Y100.354 E0.06106
G1 X88.758 Y100.447 E0.03225
G1 X87.641 Y100.570 E0.06104
G1 X87.112 Y100.603 E0.02879
G1 X86.119 Y100.625 E0.05398
G1 X56.111 Y100.144 E1.63063
G1 X54.859 Y100.089 E0.06810
G1 X53.742 Y99.967 E0.06104
G1 X52.635 Y99.775 E0.06104
G1 X52.056 Y99.645 E0.03226
G1 X50.972 Y99.348 E0.06104
G1 X50.468 Y99.184 E0.02880
G1 X49.910 Y98.983 E0.03226
G1 X48.872 Y98.552 E0.06104
G1 X47.864 Y98.057 E0.06105
G1 X47.375 Y97.787 E0.03033
G1 X46.441 Y97.216 E0.05949
G1 X45.521 Y96.571 E0.06103
G1 X45.052 Y96.207 E0.03227
G1 X44.198 Y95.476 E0.06105
G1 X43.412 Y94.714 E0.05950
G1 X43.030 Y94.307 E0.03033
G1 X42.299 Y93.454 E0.06105
G1 X41.624 Y92.556 E0.06104
G1 X41.006 Y91.618 E0.06103
G1 X40.704 Y91.107 E0.03226
G1 X40.192 Y90.138 E0.05951
G1 X39.718 Y89.089 E0.06258
G1 X39.322 Y88.038 E0.06104
G1 X38.992 Y86.963 E0.06104
G1 X38.731 Y85.871 E0.06105
G1 X38.632 Y85.350 E0.02878
G1 X38.476 Y84.274 E0.05909
G1 X35.925 Y58.460 E1.40938
G1 X35.877 Y57.789 E0.03654
G1 X35.877 Y56.730 E0.05753
G1 X35.900 Y56.360 E0.02017
G1 X36.030 Y55.323 E0.05676
G1 X36.100 Y54.954 E0.02042
G1 X36.348 Y53.971 E0.05506
G1 X36.464 Y53.605 E0.02090
G1 X36.804 Y52.712 E0.05192
G1 X36.966 Y52.349 E0.02160
G1 X37.374 Y51.553 E0.04858
G1 X37.581 Y51.195 E0.02247
G1 X38.030 Y50.503 E0.04479
G1 X38.283 Y50.152 E0.02352
G1 X38.750 Y49.562 E0.04090
G1 X39.516 Y48.719 E0.06189
G1 X39.855 Y48.386 E0.02584
G1 X40.416 Y47.881 E0.04099
G1 E-3.50000 F2400.00000
G1 X50.878 Y70.731 F9000.000
G1 E3.50000 F2400.00000
G1 X51.612 Y70.417 E0.04341 F1200.000
G1 X52.365 Y70.149 E0.04340
G1 X53.034 Y69.955 E0.03784
G1 X53.813 Y69.778 E0.04341
G1 X54.601 Y69.650 E0.04341
G1 X55.396 Y69.571 E0.04341
G1 X56.377 Y69.545 E0.05330
G1 X57.096 Y69.571 E0.03908 F1200.000
G1 X57.789 Y69.637 E0.03783
G1 X58.679 Y69.778 E0.04898
G1 X59.359 Y69.930 E0.03784
G1 X60.127 Y70.149 E0.04341
G1 X60.975 Y70.455 E0.04898
G1 X61.707 Y70.775 E0.04341
G1 X62.328 Y71.091 E0.03783
G1 X63.103 Y71.550 E0.04898
G1 X63.679 Y71.941 E0.03783
G1 X64.313 Y72.428 E0.04341
G1 X64.989 Y73.025 E0.04898
G1 X65.481 Y73.517 E0.03783
G1 X66.012 Y74.114 E0.04341
G1 X66.565 Y74.827 E0.04899
G1 X66.956 Y75.402 E0.03783
G1 X67.365 Y76.088 E0.04340
G1 X67.775 Y76.892 E0.04898
G1 X68.089 Y77.626 E0.04341
G1 X68.325 Y78.281 E0.03783
G1 X68.551 Y79.048 E0.04341
G1 X68.747 Y79.927 E0.04897
G1 X68.869 Y80.717 E0.04341
G1 X68.935 Y81.410 E0.03783
G1 X68.963 Y82.311 E0.04898
G1 X68.941 Y83.007 E0.03783
G1 X68.869 Y83.803 E0.04341
G1 X68.728 Y84.693 E0.04898
G1 X68.576 Y85.373 E0.03784
G1 X68.379 Y86.064 E0.03908
G1 X68.089 Y86.894 E0.04772
G1 X67.731 Y87.721 E0.04899
G1 X67.365 Y88.431 E0.04341
G1 X67.011 Y89.031 E0.03783
G1 X66.504 Y89.776 E0.04898
G1 X66.012 Y90.406 E0.04341
G1 X65.551 Y90.928 E0.03784
G1 X64.914 Y91.565 E0.04897
G1 X64.313 Y92.091 E0.04342
G1 X63.762 Y92.518 E0.03783
G1 X63.103 Y92.970 E0.04341
G1 X62.327 Y93.429 E0.04898
G1 X61.614 Y93.789 E0.04340
G1 X60.975 Y94.065 E0.03784
G1 X60.127 Y94.370 E0.04898
G1 X59.359 Y94.590 E0.04340
G1 X58.679 Y94.742 E0.03784
G1 X57.789 Y94.883 E0.04898
G1 X57.096 Y94.949 E0.03783
G1 X56.297 Y94.977 E0.04341
G1 X55.499 Y94.955 E0.04341
G1 X54.601 Y94.870 E0.04898
G1 X53.913 Y94.761 E0.03783
G1 X53.133 Y94.590 E0.04340
G1 X52.267 Y94.339 E0.04898
G1 X51.612 Y94.103 E0.03783
G1 X50.878 Y93.789 E0.04341
G1 X50.075 Y93.379 E0.04898
G1 X49.475 Y93.025 E0.03784
G1 X48.813 Y92.578 E0.04340
G1 X48.179 Y92.091 E0.04341
G1 X47.503 Y91.495 E0.04898
G1 X47.011 Y91.003 E0.03783
G1 X46.480 Y90.406 E0.04340
G1 X45.927 Y89.693 E0.04899
G1 X45.536 Y89.117 E0.03783
G1 X45.127 Y88.431 E0.04340
G1 X44.717 Y87.628 E0.04898
G1 X44.441 Y86.989 E0.03783
G1 X44.167 Y86.239 E0.04341
G1 X43.916 Y85.373 E0.04898
G1 X43.764 Y84.693 E0.03784
G1 X43.636 Y83.905 E0.04340
G1 X43.557 Y83.110 E0.04341
G1 X43.529 Y82.209 E0.04898
G1 X43.551 Y81.513 E0.03784
G1 X43.623 Y80.717 E0.04340
G1 X43.764 Y79.827 E0.04898
G1 X43.916 Y79.147 E0.03783
G1 X44.135 Y78.379 E0.04341
G1 X44.441 Y77.531 E0.04898
G1 X44.717 Y76.892 E0.03783
G1 X45.077 Y76.178 E0.04341
G1 X45.536 Y75.402 E0.04898
G1 X45.927 Y74.826 E0.03784
G1 X46.415 Y74.193 E0.04340
G1 X47.011 Y73.517 E0.04899
G1 X47.578 Y72.954 E0.04340
G1 X48.100 Y72.494 E0.03784
G1 X48.812 Y71.941 E0.04898
G1 X49.475 Y71.495 E0.04341
G1 X50.074 Y71.141 E0.03784
G1 X50.837 Y70.750 E0.04654
G1 X51.022 Y71.145 F9000.000
G1 X51.684 Y70.857 E0.03916 F1200.000
G1 X52.408 Y70.593 E0.04192
G1 X53.149 Y70.375 E0.04192
G1 X53.901 Y70.204 E0.04192
G1 X54.751 Y70.070 E0.04675
G1 X55.519 Y70.000 E0.04192
G1 X56.290 Y69.978 E0.04192
G1 X56.973 Y70.000 E0.03709 F1200.000
G1 X57.741 Y70.070 E0.04192
G1 X58.591 Y70.204 E0.04675
G1 X59.343 Y70.375 E0.04193
G1 X59.999 Y70.566 E0.03709
G1 X60.726 Y70.824 E0.04192
G1 X61.515 Y71.166 E0.04675
G1 X62.124 Y71.476 E0.03709
G1 X62.789 Y71.866 E0.04192
G1 X63.501 Y72.350 E0.04675
G1 X64.040 Y72.769 E0.03709
G1 X64.621 Y73.277 E0.04192
G1 X65.229 Y73.885 E0.04675
G1 X65.681 Y74.397 E0.03709
G1 X66.156 Y75.005 E0.04193
G1 X66.639 Y75.717 E0.04675
G1 X67.030 Y76.382 E0.04192
G1 X67.340 Y76.990 E0.03709
G1 X67.649 Y77.697 E0.04192
G1 X67.940 Y78.507 E0.04676
G1 X68.131 Y79.163 E0.03709
G1 X68.302 Y79.915 E0.04191
G1 X68.436 Y80.765 E0.04676
G1 X68.500 Y81.444 E0.03709
G1 X68.527 Y82.215 E0.04191
G1 X68.506 Y82.987 E0.04193
G1 X68.425 Y83.843 E0.04675
G1 X68.302 Y84.605 E0.04192
G1 X68.153 Y85.271 E0.03709
G1 X67.913 Y86.097 E0.04675
G1 X67.649 Y86.822 E0.04192
G1 X67.378 Y87.449 E0.03709
G1 X66.987 Y88.216 E0.04675
G1 X66.592 Y88.878 E0.04192
G1 X66.208 Y89.443 E0.03709
G1 X65.681 Y90.123 E0.04675
G1 X65.229 Y90.635 E0.03709
G1 X64.686 Y91.182 E0.04191
G1 X64.040 Y91.751 E0.04676
G1 X63.501 Y92.170 E0.03709
G1 X62.864 Y92.606 E0.04192
G1 X62.124 Y93.044 E0.04675
G1 X61.515 Y93.354 E0.03709
G1 X60.808 Y93.663 E0.04192
G1 X59.999 Y93.954 E0.04675
G1 X59.257 Y94.167 E0.04192
G1 X58.591 Y94.316 E0.03709
G1 X57.741 Y94.450 E0.04675
G1 X56.973 Y94.520 E0.04192
G1 X56.290 Y94.541 E0.03709
G1 X55.430 Y94.514 E0.04675
G1 X54.663 Y94.439 E0.04192
G1 X53.988 Y94.332 E0.03709
G1 X53.235 Y94.167 E0.04192
G1 X52.408 Y93.927 E0.04675
G1 X51.766 Y93.695 E0.03709
G1 X51.057 Y93.391 E0.04192
G1 X50.290 Y93.001 E0.04675
G1 X49.628 Y92.606 E0.04192
G1 X49.063 Y92.222 E0.03709
G1 X48.383 Y91.695 E0.04675
G1 X47.871 Y91.243 E0.03709
G1 X47.324 Y90.700 E0.04192
G1 X46.755 Y90.054 E0.04675
G1 X46.284 Y89.443 E0.04192
G1 X45.900 Y88.878 E0.03709
G1 X45.505 Y88.216 E0.04191
G1 X45.114 Y87.449 E0.04675
G1 X44.811 Y86.740 E0.04192
G1 X44.579 Y86.097 E0.03709
G1 X44.339 Y85.271 E0.04675
G1 X44.190 Y84.605 E0.03709
G1 X44.067 Y83.843 E0.04192
G1 X43.992 Y83.075 E0.04192
G1 X43.964 Y82.215 E0.04675
G1 X43.986 Y81.533 E0.03709
G1 X44.056 Y80.765 E0.04192
G1 X44.190 Y79.915 E0.04675
G1 X44.339 Y79.249 E0.03709
G1 X44.552 Y78.507 E0.04192
G1 X44.843 Y77.697 E0.04675
G1 X45.114 Y77.071 E0.03709
G1 X45.462 Y76.382 E0.04192
G1 X45.900 Y75.642 E0.04675
G1 X46.284 Y75.077 E0.03709
G1 X46.755 Y74.466 E0.04191
G1 X47.324 Y73.820 E0.04675
G1 X47.871 Y73.277 E0.04191
G1 X48.383 Y72.825 E0.03709
G1 X49.063 Y72.298 E0.04675
G1 X49.628 Y71.914 E0.03709
G1 X50.290 Y71.519 E0.04192
G1 X50.982 Y71.164 E0.04224
G1 X51.168 Y71.557 F9000.000
G1 X51.850 Y71.260 E0.04043 F1200.000
G1 X52.550 Y71.005 E0.04043
G1 X53.264 Y70.796 E0.04043
G1 X53.989 Y70.631 E0.04043
G1 X54.724 Y70.512 E0.04043
G1 X55.465 Y70.440 E0.04043
G1 X56.349 Y70.416 E0.04810
G1 X57.027 Y70.440 E0.03685 F1200.000
G1 X57.693 Y70.503 E0.03635
G1 X58.503 Y70.631 E0.04452
G1 X59.155 Y70.777 E0.03635
G1 X59.871 Y70.982 E0.04043
G1 X60.642 Y71.260 E0.04452
G1 X61.324 Y71.557 E0.04043
G1 X61.920 Y71.861 E0.03635
G1 X62.625 Y72.278 E0.04452
G1 X63.178 Y72.654 E0.03635
G1 X63.768 Y73.109 E0.04044
G1 X64.382 Y73.650 E0.04452
G1 X64.855 Y74.123 E0.03634
G1 X65.349 Y74.680 E0.04043
G1 X65.852 Y75.328 E0.04452
G1 X66.228 Y75.881 E0.03635
G1 X66.608 Y76.520 E0.04043
G1 X66.980 Y77.250 E0.04452
G1 X67.274 Y77.934 E0.04043
G1 X67.500 Y78.564 E0.03635
G1 X67.710 Y79.278 E0.04044
G1 X67.889 Y80.077 E0.04452
G1 X67.994 Y80.738 E0.03634
G1 X68.066 Y81.479 E0.04044
G1 X68.092 Y82.298 E0.04452
G1 X68.066 Y83.041 E0.04043
G1 X68.003 Y83.707 E0.03635
G1 X67.875 Y84.517 E0.04452
G1 X67.729 Y85.169 E0.03635
G1 X67.542 Y85.821 E0.03685
G1 X67.274 Y86.586 E0.04401
G1 X66.948 Y87.338 E0.04452
G1 X66.608 Y88.000 E0.04043
G1 X66.268 Y88.575 E0.03635
G1 X65.807 Y89.253 E0.04452
G1 X65.349 Y89.840 E0.04043
G1 X64.907 Y90.342 E0.03635
G1 X64.328 Y90.921 E0.04451
G1 X63.826 Y91.363 E0.03635
G1 X63.239 Y91.821 E0.04043
G1 X62.562 Y92.282 E0.04452
G1 X61.920 Y92.659 E0.04044
G1 X61.256 Y92.994 E0.04043
G1 X60.642 Y93.260 E0.03635
G1 X59.871 Y93.538 E0.04452
G1 X59.156 Y93.743 E0.04043
G1 X58.503 Y93.889 E0.03635
G1 X57.693 Y94.017 E0.04452
G1 X57.027 Y94.080 E0.03635
G1 X56.284 Y94.106 E0.04043
G1 X55.465 Y94.080 E0.04452
G1 X54.724 Y94.008 E0.04044
G1 X54.063 Y93.903 E0.03634
G1 X53.337 Y93.743 E0.04043
G1 X52.550 Y93.514 E0.04452
G1 X51.920 Y93.288 E0.03635
G1 X51.236 Y92.994 E0.04043
G1 X50.506 Y92.622 E0.04452
G1 X49.867 Y92.242 E0.04043
G1 X49.314 Y91.866 E0.03635
G1 X48.666 Y91.363 E0.04452
G1 X48.109 Y90.869 E0.04043
G1 X47.636 Y90.396 E0.03634
G1 X47.095 Y89.782 E0.04452
G1 X46.640 Y89.192 E0.04044
G1 X46.264 Y88.639 E0.03635
G1 X45.883 Y88.000 E0.04043
G1 X45.511 Y87.270 E0.04452
G1 X45.218 Y86.586 E0.04043
G1 X44.992 Y85.956 E0.03634
G1 X44.763 Y85.169 E0.04452
G1 X44.603 Y84.443 E0.04044
G1 X44.498 Y83.782 E0.03634
G1 X44.426 Y83.041 E0.04043
G1 X44.400 Y82.222 E0.04452
G1 X44.421 Y81.554 E0.03635
G1 X44.489 Y80.813 E0.04043
G1 X44.617 Y80.003 E0.04452
G1 X44.763 Y79.350 E0.03635
G1 X44.968 Y78.635 E0.04044
G1 X45.246 Y77.864 E0.04452
G1 X45.511 Y77.250 E0.03635
G1 X45.847 Y76.586 E0.04043
G1 X46.224 Y75.944 E0.04044
G1 X46.685 Y75.267 E0.04452
G1 X47.095 Y74.738 E0.03634
G1 X47.585 Y74.178 E0.04044
G1 X48.164 Y73.599 E0.04451
G1 X48.666 Y73.156 E0.03635
G1 X49.253 Y72.699 E0.04043
G1 X49.930 Y72.238 E0.04452
G1 X50.506 Y71.897 E0.03635
G1 X51.128 Y71.578 E0.03799
G1 X51.326 Y71.966 F9000.000
G1 X52.074 Y71.640 E0.04436 F1200.000
G1 X52.749 Y71.399 E0.03894
G1 X53.438 Y71.200 E0.03895
G1 X54.138 Y71.046 E0.03895
G1 X54.846 Y70.936 E0.03895
G1 X55.560 Y70.870 E0.03894
G1 X56.277 Y70.850 E0.03895
G1 X56.932 Y70.870 E0.03560 F1200.000
G1 X57.646 Y70.936 E0.03895
G1 X58.354 Y71.046 E0.03895
G1 X59.113 Y71.216 E0.04229
G1 X59.743 Y71.399 E0.03560
G1 X60.418 Y71.640 E0.03895
G1 X61.132 Y71.949 E0.04229
G1 X61.716 Y72.246 E0.03560
G1 X62.334 Y72.609 E0.03895
G1 X62.978 Y73.047 E0.04229
G1 X63.495 Y73.449 E0.03560
G1 X64.034 Y73.921 E0.03895
G1 X64.585 Y74.471 E0.04229
G1 X65.018 Y74.963 E0.03560
G1 X65.459 Y75.528 E0.03895
G1 X65.896 Y76.172 E0.04229
G1 X66.230 Y76.736 E0.03560
G1 X66.557 Y77.374 E0.03895
G1 X66.844 Y78.031 E0.03895
G1 X67.107 Y78.763 E0.04229
G1 X67.290 Y79.393 E0.03561
G1 X67.448 Y80.092 E0.03894
G1 X67.570 Y80.860 E0.04229
G1 X67.632 Y81.513 E0.03560
G1 X67.656 Y82.229 E0.03894
G1 X67.632 Y83.007 E0.04230
G1 X67.570 Y83.659 E0.03560
G1 X67.469 Y84.309 E0.03574
G1 X67.305 Y85.068 E0.04215
G1 X67.088 Y85.815 E0.04229
G1 X66.844 Y86.489 E0.03895
G1 X66.583 Y87.090 E0.03560
G1 X66.230 Y87.784 E0.04229
G1 X65.896 Y88.348 E0.03560
G1 X65.495 Y88.942 E0.03895
G1 X65.018 Y89.557 E0.04229
G1 X64.543 Y90.093 E0.03895
G1 X64.034 Y90.599 E0.03894
G1 X63.543 Y91.032 E0.03561
G1 X62.928 Y91.509 E0.04229
G1 X62.386 Y91.877 E0.03560
G1 X61.770 Y92.244 E0.03895
G1 X61.076 Y92.597 E0.04229
G1 X60.475 Y92.858 E0.03560
G1 X59.801 Y93.102 E0.03895
G1 X59.054 Y93.319 E0.04229
G1 X58.354 Y93.474 E0.03895
G1 X57.707 Y93.576 E0.03560
G1 X56.993 Y93.646 E0.03895
G1 X56.215 Y93.670 E0.04230
G1 X55.499 Y93.646 E0.03894
G1 X54.846 Y93.584 E0.03560
G1 X54.078 Y93.462 E0.04229
G1 X53.379 Y93.304 E0.03894
G1 X52.749 Y93.121 E0.03561
G1 X52.017 Y92.858 E0.04229
G1 X51.416 Y92.597 E0.03560
G1 X50.776 Y92.274 E0.03895
G1 X50.106 Y91.877 E0.04229
G1 X49.564 Y91.509 E0.03560
G1 X48.997 Y91.071 E0.03895
G1 X48.413 Y90.557 E0.04229
G1 X47.949 Y90.093 E0.03560
G1 X47.474 Y89.557 E0.03894
G1 X46.997 Y88.942 E0.04229
G1 X46.628 Y88.400 E0.03560
G1 X46.262 Y87.784 E0.03894
G1 X45.935 Y87.146 E0.03895
G1 X45.626 Y86.432 E0.04229
G1 X45.385 Y85.757 E0.03895
G1 X45.187 Y85.068 E0.03895
G1 X45.044 Y84.428 E0.03560
G1 X44.922 Y83.659 E0.04229
G1 X44.860 Y83.007 E0.03560
G1 X44.836 Y82.291 E0.03895
G1 X44.860 Y81.513 E0.04229
G1 X44.922 Y80.860 E0.03560
G1 X45.032 Y80.152 E0.03895
G1 X45.202 Y79.392 E0.04229
G1 X45.385 Y78.763 E0.03560
G1 X45.626 Y78.088 E0.03894
G1 X45.935 Y77.374 E0.04229
G1 X46.262 Y76.736 E0.03895
G1 X46.596 Y76.172 E0.03560
G1 X47.033 Y75.528 E0.04229
G1 X47.435 Y75.010 E0.03560
G1 X47.907 Y74.471 E0.03895
G1 X48.458 Y73.921 E0.04228
G1 X48.949 Y73.488 E0.03560
G1 X49.514 Y73.047 E0.03895
G1 X50.158 Y72.609 E0.04229
G1 X50.722 Y72.276 E0.03560
G1 X51.286 Y71.986 E0.03443
G1 X51.484 Y72.375 F9000.000
G1 X52.228 Y72.047 E0.04420 F1200.000
G1 X52.877 Y71.815 E0.03746
G1 X53.540 Y71.624 E0.03746
G1 X54.213 Y71.475 E0.03746
G1 X54.894 Y71.369 E0.03746
