; generated by Slic3r 1.2.9 on 2017-06-09 at 10:01:22

; external perimeters extrusion width = 0.30mm
; perimeters extrusion width = 0.30mm
; infill extrusion width = 0.30mm
; solid infill extrusion width = 0.30mm
; top infill extrusion width = 0.30mm

M107
M190 S57 ; set bed temperature
G28								; home all axes (if axis shifting bug is fixed!)
G32								; execute bed Z-plane  compensation at bed.g 4 points
G10 P0 X-16 Y-3 Z0.0 S-273 R-273		; set extruder x,y offsets
M83								; set extruder to relative mode
G10 P0 S195 R160					; Set tool 0 operating and standby temperatures
T0									; select tool ZERO




G21 ; set units to millimeters
G90 ; use absolute coordinates
M83 ; use relative distances for extrusion
G1 E-3.50000 F2400.00000
G1 Z0.300 F9000.000
G1 X42.361 Y34.080 F9000.000
G1 E3.50000 F2400.00000
G1 X42.699 Y33.672 E0.02880 F1200.000
G1 X43.454 Y32.840 E0.06104
G1 X44.260 Y32.058 E0.06102
G1 X44.706 Y31.665 E0.03227
G1 X45.114 Y31.327 E0.02880
G1 X46.011 Y30.652 E0.06102
G1 X46.950 Y30.034 E0.06104
G1 X47.461 Y29.732 E0.03227
G1 X48.454 Y29.207 E0.06104
G1 X48.934 Y28.982 E0.02880
G1 X49.479 Y28.746 E0.03226
G1 X50.530 Y28.350 E0.06104
G1 X51.061 Y28.178 E0.03031
G1 X52.117 Y27.888 E0.05952
G1 X52.697 Y27.759 E0.03226
G1 X53.804 Y27.567 E0.06104
G1 X54.921 Y27.444 E0.06104
G1 X56.308 Y27.388 E0.07543
G1 X86.573 Y27.393 E1.64438
G1 X87.166 Y27.411 E0.03226 F1200.000
G1 X88.286 Y27.500 E0.06104
G1 X88.812 Y27.567 E0.02880
G1 X89.919 Y27.759 E0.06103
G1 X90.498 Y27.888 E0.03227
G1 X91.581 Y28.186 E0.06104
G1 X92.085 Y28.350 E0.02880
G1 X93.137 Y28.746 E0.06104
G1 X94.161 Y29.207 E0.06104
G1 X94.690 Y29.477 E0.03226
G1 X95.155 Y29.732 E0.02879
G1 X96.113 Y30.318 E0.06102
G1 X97.032 Y30.963 E0.06105
G1 X97.502 Y31.327 E0.03227
G1 X97.910 Y31.665 E0.02880
G1 X98.742 Y32.420 E0.06104
G1 X99.161 Y32.840 E0.03225
G1 X99.917 Y33.672 E0.06104
G1 X100.255 Y34.080 E0.02880
G1 X100.930 Y34.978 E0.06104
G1 X101.264 Y35.469 E0.03227
G1 X101.850 Y36.427 E0.06102
G1 X102.375 Y37.421 E0.06104
G1 X102.600 Y37.900 E0.02880
G1 X103.031 Y38.938 E0.06104
G1 X103.232 Y39.496 E0.03226
G1 X103.562 Y40.571 E0.06107
G1 X103.823 Y41.663 E0.06102
G1 X104.015 Y42.770 E0.06104
G1 X104.081 Y43.296 E0.02880
G1 X104.137 Y43.887 E0.03226
G1 X104.189 Y45.009 E0.06104
G1 X104.192 Y70.449 E1.38223
G1 X103.663 Y95.584 E1.36598
G1 X103.574 Y96.704 E0.06104
G1 X103.507 Y97.230 E0.02879
G1 X103.315 Y98.337 E0.06104
G1 X103.186 Y98.917 E0.03227
G1 X102.896 Y99.973 E0.05949
G1 X102.725 Y100.504 E0.03033
G1 X102.328 Y101.555 E0.06104
G1 X101.867 Y102.579 E0.06104
G1 X101.342 Y103.573 E0.06104
G1 X101.040 Y104.084 E0.03226
G1 X100.438 Y104.999 E0.05950
G1 X99.747 Y105.920 E0.06257
G1 X99.016 Y106.774 E0.06106
G1 X98.654 Y107.160 E0.02878
G1 X97.848 Y107.942 E0.06102
G1 X96.994 Y108.673 E0.06106
G1 X96.096 Y109.348 E0.06104
G1 X95.605 Y109.682 E0.03226
G1 X94.647 Y110.268 E0.06103
G1 X94.183 Y110.523 E0.02879
G1 X93.174 Y111.018 E0.06104
G1 X92.136 Y111.449 E0.06105
G1 X91.074 Y111.814 E0.06104
G1 X89.991 Y112.112 E0.06103
G1 X89.411 Y112.241 E0.03227
G1 X88.304 Y112.433 E0.06104
G1 X87.187 Y112.556 E0.06104
G1 X86.065 Y112.607 E0.06104
G1 X84.942 Y112.589 E0.06105
G1 X83.822 Y112.500 E0.06104
G1 X83.296 Y112.433 E0.02880
G1 X51.171 Y107.339 E1.76728
G1 X50.001 Y107.125 E0.06464
G1 X49.310 Y106.976 E0.03837
G1 X48.341 Y106.734 E0.05429
G1 X47.386 Y106.458 E0.05398
G1 X46.441 Y106.144 E0.05410
G1 X45.160 Y105.646 E0.07472
G1 X44.226 Y105.224 E0.05567
G1 X43.307 Y104.751 E0.05615
G1 X42.811 Y104.470 E0.03100
G1 X41.942 Y103.926 E0.05571
G1 X41.092 Y103.321 E0.05669
G1 X40.646 Y102.968 E0.03089
G1 X40.264 Y102.646 E0.02713
G1 X39.462 Y101.891 E0.05985
G1 X38.696 Y101.049 E0.06189
G1 X38.229 Y100.458 E0.04092
G1 X37.976 Y100.107 E0.02349
G1 X37.528 Y99.415 E0.04479
G1 X37.320 Y99.058 E0.02247
G1 X36.912 Y98.262 E0.04859
G1 X36.750 Y97.899 E0.02159
G1 X36.410 Y97.006 E0.05192
G1 X36.294 Y96.639 E0.02092
G1 X36.046 Y95.656 E0.05505
G1 X35.977 Y95.287 E0.02042
G1 X35.847 Y94.250 E0.05676
G1 X35.823 Y93.880 E0.02018
G1 X35.819 Y92.894 E0.05353
G1 X38.453 Y44.225 E2.64824
G1 X38.534 Y43.296 E0.05066
G1 X38.601 Y42.770 E0.02880
G1 X38.793 Y41.663 E0.06104
G1 X38.922 Y41.084 E0.03226
G1 X39.212 Y40.027 E0.05950
G1 X39.585 Y38.938 E0.06258
G1 X40.015 Y37.900 E0.06104
G1 X40.241 Y37.421 E0.02880
G1 X40.766 Y36.427 E0.06104
G1 X41.352 Y35.469 E0.06103
G1 X41.686 Y34.978 E0.03228
G1 X42.333 Y34.116 E0.05857
G1 E-3.50000 F2400.00000
G1 X51.415 Y84.568 F9000.000
G1 E3.50000 F2400.00000
G1 X52.771 Y84.351 E0.07461 F1200.000
G1 X53.664 Y84.252 E0.04882
G1 X54.511 Y84.185 E0.04616
G1 X55.312 Y84.147 E0.04355
G1 X56.280 Y84.134 E0.05263
G1 X57.873 Y84.185 E0.08660 F1200.000
G1 X58.720 Y84.252 E0.04616
G1 X59.560 Y84.345 E0.04589
G1 X60.444 Y84.473 E0.04854
G1 X61.207 Y84.610 E0.04212
G1 X62.010 Y84.783 E0.04464
G1 X62.797 Y84.982 E0.04409
G1 X63.627 Y85.228 E0.04706
G1 X64.378 Y85.485 E0.04309
G1 X65.038 Y85.741 E0.03848
G1 X65.740 Y86.048 E0.04162
G1 X66.416 Y86.384 E0.04101
G1 X67.064 Y86.749 E0.04046
G1 X67.685 Y87.146 E0.04000
G1 X68.274 Y87.576 E0.03962
G1 X68.830 Y88.041 E0.03938
G1 X69.349 Y88.545 E0.03933
G1 X69.828 Y89.090 E0.03942
G1 X70.261 Y89.679 E0.03971
G1 X70.639 Y90.315 E0.04018
G1 X70.953 Y90.995 E0.04075
G1 X71.193 Y91.717 E0.04132
G1 X71.348 Y92.473 E0.04192
G1 X71.409 Y93.248 E0.04223
G1 X71.409 Y93.453 E0.01116
G1 X71.348 Y94.228 E0.04223
G1 X71.193 Y94.984 E0.04192
G1 X71.019 Y95.532 E0.03127
G1 X70.718 Y96.232 E0.04139
G1 X70.348 Y96.888 E0.04092
G1 X69.919 Y97.496 E0.04046
G1 X69.440 Y98.059 E0.04013
G1 X68.919 Y98.578 E0.03996
G1 X68.360 Y99.057 E0.03999
G1 X67.768 Y99.497 E0.04012
G1 X67.144 Y99.903 E0.04044
G1 X66.491 Y100.277 E0.04087
G1 X65.811 Y100.619 E0.04133
G1 X65.106 Y100.932 E0.04192
G1 X64.377 Y101.216 E0.04250
G1 X63.627 Y101.473 E0.04309
G1 X62.797 Y101.718 E0.04704
G1 X62.010 Y101.918 E0.04409
G1 X61.207 Y102.090 E0.04466
G1 X60.389 Y102.237 E0.04510
G1 X59.560 Y102.356 E0.04554
G1 X58.720 Y102.449 E0.04588
G1 X57.873 Y102.515 E0.04617
G1 X57.021 Y102.555 E0.04635
G1 X56.218 Y102.567 E0.04365
G1 X55.363 Y102.555 E0.04643
G1 X54.511 Y102.515 E0.04636
G1 X53.612 Y102.444 E0.04902
G1 X52.771 Y102.349 E0.04596
G1 X51.941 Y102.228 E0.04560
G1 X51.121 Y102.079 E0.04523
G1 X50.316 Y101.904 E0.04478
G1 X49.528 Y101.702 E0.04421
G1 X48.757 Y101.473 E0.04369
G1 X48.007 Y101.216 E0.04309
G1 X47.278 Y100.932 E0.04250
G1 X46.573 Y100.619 E0.04191
G1 X45.894 Y100.277 E0.04134
G1 X45.241 Y99.903 E0.04087
G1 X44.617 Y99.497 E0.04044
G1 X44.111 Y99.125 E0.03414
G1 X43.555 Y98.660 E0.03939
G1 X43.035 Y98.156 E0.03933
G1 X42.556 Y97.611 E0.03942
G1 X42.037 Y96.888 E0.04839
G1 X41.745 Y96.386 E0.03151
G1 X41.431 Y95.705 E0.04074
G1 X41.143 Y94.793 E0.05198
G1 X41.011 Y94.027 E0.04224
G1 X40.975 Y93.453 E0.03125
G1 X40.975 Y93.248 E0.01115
G1 X41.036 Y92.473 E0.04223
G1 X41.191 Y91.717 E0.04192
G1 X41.365 Y91.168 E0.03127
G1 X41.745 Y90.315 E0.05078
G1 X42.124 Y89.679 E0.04019
G1 X42.466 Y89.204 E0.03180
G1 X43.035 Y88.545 E0.04733
G1 X43.555 Y88.041 E0.03934
G1 X44.111 Y87.576 E0.03937
G1 X44.700 Y87.146 E0.03962
G1 X45.320 Y86.749 E0.04000
G1 X45.969 Y86.384 E0.04046
G1 X46.645 Y86.048 E0.04102
G1 X47.346 Y85.741 E0.04162
G1 X48.072 Y85.461 E0.04225
G1 X48.820 Y85.208 E0.04288
G1 X49.588 Y84.982 E0.04349
G1 X50.374 Y84.783 E0.04410
G1 X51.371 Y84.576 E0.05531
G1 X51.448 Y85.004 F9000.000
G1 X52.830 Y84.783 E0.07605 F1200.000
G1 X53.702 Y84.686 E0.04766
G1 X54.535 Y84.620 E0.04540
G1 X55.329 Y84.583 E0.04317
G1 X56.214 Y84.569 E0.04811
G1 X57.011 Y84.581 E0.04329 F1200.000
G1 X57.849 Y84.620 E0.04559
G1 X58.682 Y84.686 E0.04541
G1 X59.508 Y84.777 E0.04513
G1 X60.323 Y84.895 E0.04476
G1 X61.126 Y85.038 E0.04432
G1 X61.964 Y85.220 E0.04660
G1 X62.737 Y85.418 E0.04334
G1 X63.491 Y85.642 E0.04275
G1 X64.168 Y85.872 E0.03884
G1 X64.876 Y86.145 E0.04123
G1 X65.559 Y86.445 E0.04053
G1 X66.216 Y86.771 E0.03984
G1 X66.844 Y87.125 E0.03920
G1 X67.515 Y87.558 E0.04337
G1 X68.085 Y87.981 E0.03856
G1 X68.620 Y88.439 E0.03827
G1 X69.117 Y88.933 E0.03808
G1 X69.571 Y89.467 E0.03806
G1 X69.976 Y90.041 E0.03820
G1 X70.257 Y90.523 E0.03030
G1 X70.551 Y91.162 E0.03819
G1 X70.774 Y91.836 E0.03860
G1 X70.917 Y92.540 E0.03905
G1 X70.974 Y93.439 E0.04893
G1 X70.917 Y94.160 E0.03929
G1 X70.816 Y94.699 E0.02981
G1 X70.608 Y95.389 E0.03912
G1 X70.325 Y96.044 E0.03875
G1 X69.976 Y96.660 E0.03846
G1 X69.571 Y97.234 E0.03820
G1 X69.117 Y97.767 E0.03806
G1 X68.542 Y98.332 E0.04378
G1 X68.010 Y98.778 E0.03775
G1 X67.515 Y99.142 E0.03338
G1 X66.913 Y99.534 E0.03901
G1 X66.281 Y99.895 E0.03955
G1 X65.621 Y100.227 E0.04012
G1 X64.935 Y100.531 E0.04079
G1 X64.224 Y100.808 E0.04145
G1 X63.491 Y101.059 E0.04210
G1 X62.737 Y101.283 E0.04275
G1 X61.964 Y101.481 E0.04332
G1 X61.174 Y101.653 E0.04393
G1 X60.370 Y101.798 E0.04441
G1 X59.554 Y101.918 E0.04481
G1 X58.728 Y102.011 E0.04518
G1 X57.894 Y102.078 E0.04544
G1 X57.011 Y102.119 E0.04805
G1 X55.374 Y102.119 E0.08896
G1 X54.535 Y102.080 E0.04561
G1 X53.702 Y102.015 E0.04540
G1 X52.877 Y101.924 E0.04512
G1 X52.061 Y101.806 E0.04476
G1 X51.259 Y101.662 E0.04430
G1 X50.470 Y101.493 E0.04382
G1 X49.699 Y101.297 E0.04322
G1 X48.893 Y101.059 E0.04566
G1 X48.160 Y100.808 E0.04210
G1 X47.449 Y100.531 E0.04145
G1 X46.763 Y100.227 E0.04079
G1 X46.103 Y99.895 E0.04013
G1 X45.471 Y99.534 E0.03955
G1 X44.941 Y99.192 E0.03426
G1 X44.375 Y98.778 E0.03812
G1 X43.842 Y98.332 E0.03775
G1 X43.346 Y97.851 E0.03753
G1 X42.892 Y97.333 E0.03744
G1 X42.483 Y96.776 E0.03756
G1 X42.059 Y96.044 E0.04597
G1 X41.834 Y95.539 E0.03003
G1 X41.610 Y94.864 E0.03861
G1 X41.445 Y93.986 E0.04856
G1 X41.411 Y93.439 E0.02977
G1 X41.445 Y92.715 E0.03941
G1 X41.610 Y91.836 E0.04857
G1 X41.834 Y91.162 E0.03860
G1 X42.059 Y90.657 E0.03004
G1 X42.483 Y89.925 E0.04597
G1 X42.892 Y89.367 E0.03755
G1 X43.346 Y88.849 E0.03744
G1 X43.842 Y88.368 E0.03754
G1 X44.375 Y87.922 E0.03774
G1 X44.941 Y87.509 E0.03812
G1 X45.540 Y87.125 E0.03863
G1 X46.169 Y86.771 E0.03919
G1 X46.825 Y86.445 E0.03985
G1 X47.509 Y86.145 E0.04053
G1 X48.216 Y85.872 E0.04123
G1 X48.947 Y85.625 E0.04192
G1 X49.699 Y85.404 E0.04258
G1 X50.470 Y85.208 E0.04322
G1 X51.404 Y85.012 E0.05182
G1 X51.481 Y85.441 F9000.000
G1 X52.889 Y85.215 E0.07750 F1200.000
G1 X53.740 Y85.120 E0.04650
G1 X55.346 Y85.018 E0.08744
G1 X56.267 Y85.005 E0.05002
G1 X57.825 Y85.055 E0.08473 F1200.000
G1 X58.644 Y85.120 E0.04465
G1 X59.456 Y85.210 E0.04436
G1 X60.257 Y85.325 E0.04397
G1 X61.045 Y85.466 E0.04351
G1 X61.861 Y85.643 E0.04534
G1 X62.617 Y85.837 E0.04245
G1 X63.355 Y86.056 E0.04181
G1 X64.023 Y86.283 E0.03835
G1 X64.714 Y86.549 E0.04021
G1 X65.378 Y86.841 E0.03944
G1 X66.016 Y87.158 E0.03868
G1 X66.624 Y87.501 E0.03793
G1 X67.262 Y87.913 E0.04127
G1 X67.809 Y88.319 E0.03700
G1 X68.321 Y88.756 E0.03655
G1 X68.793 Y89.225 E0.03620
G1 X69.223 Y89.729 E0.03599
G1 X69.605 Y90.269 E0.03594
G1 X69.874 Y90.732 E0.02910
G1 X70.148 Y91.328 E0.03564
G1 X70.355 Y91.955 E0.03587
G1 X70.487 Y92.608 E0.03618
G1 X70.538 Y93.426 E0.04451
G1 X70.487 Y94.093 E0.03635
G1 X70.390 Y94.606 E0.02837
G1 X70.196 Y95.245 E0.03632
G1 X69.932 Y95.855 E0.03611
G1 X69.605 Y96.432 E0.03600
G1 X69.223 Y96.972 E0.03594
G1 X68.793 Y97.476 E0.03599
G1 X68.321 Y97.945 E0.03619
G1 X67.809 Y98.382 E0.03655
G1 X67.262 Y98.788 E0.03700
G1 X66.682 Y99.164 E0.03758
G1 X66.071 Y99.513 E0.03823
G1 X65.431 Y99.835 E0.03891
G1 X64.764 Y100.131 E0.03966
G1 X64.071 Y100.400 E0.04039
G1 X63.355 Y100.645 E0.04111
G1 X62.617 Y100.864 E0.04181
G1 X61.861 Y101.058 E0.04243
G1 X61.086 Y101.226 E0.04307
G1 X60.297 Y101.369 E0.04358
G1 X59.495 Y101.486 E0.04402
G1 X58.683 Y101.578 E0.04441
G1 X57.863 Y101.643 E0.04468
G1 X57.001 Y101.684 E0.04692
G1 X55.384 Y101.684 E0.08784
G1 X54.559 Y101.645 E0.04486
G1 X53.740 Y101.581 E0.04465
G1 X52.929 Y101.491 E0.04435
G1 X52.127 Y101.375 E0.04398
G1 X51.339 Y101.234 E0.04349
G1 X50.566 Y101.068 E0.04298
G1 X49.811 Y100.876 E0.04235
G1 X49.029 Y100.645 E0.04427
G1 X48.313 Y100.400 E0.04111
G1 X47.621 Y100.131 E0.04039
G1 X46.953 Y99.835 E0.03966
G1 X46.313 Y99.513 E0.03891
G1 X45.702 Y99.164 E0.03823
G1 X45.183 Y98.830 E0.03356
G1 X44.639 Y98.432 E0.03662
G1 X44.129 Y98.005 E0.03611
G1 X43.658 Y97.547 E0.03573
G1 X43.228 Y97.056 E0.03547
G1 X42.843 Y96.530 E0.03539
G1 X42.452 Y95.855 E0.04235
G1 X42.237 Y95.372 E0.02873
G1 X42.030 Y94.745 E0.03588
G1 X41.879 Y93.945 E0.04423
G1 X41.846 Y93.426 E0.02830
G1 X41.879 Y92.755 E0.03645
G1 X42.030 Y91.955 E0.04424
G1 X42.236 Y91.328 E0.03587
G1 X42.510 Y90.732 E0.03563
G1 X42.843 Y90.171 E0.03546
G1 X43.161 Y89.729 E0.02959
G1 X43.658 Y89.154 E0.04128
G1 X44.130 Y88.696 E0.03574
G1 X44.639 Y88.269 E0.03610
G1 X45.183 Y87.871 E0.03663
G1 X45.760 Y87.501 E0.03725
G1 X46.369 Y87.158 E0.03793
G1 X47.006 Y86.841 E0.03868
G1 X47.671 Y86.549 E0.03944
G1 X48.361 Y86.283 E0.04021
G1 X49.075 Y86.041 E0.04096
G1 X49.811 Y85.825 E0.04167
G1 X50.566 Y85.633 E0.04235
G1 X51.437 Y85.449 E0.04833
G1 X51.514 Y85.878 F9000.000
G1 X52.948 Y85.646 E0.07895 F1200.000
G1 X53.778 Y85.553 E0.04534
G1 X55.363 Y85.453 E0.08631
G1 X56.207 Y85.440 E0.04588
G1 X57.801 Y85.490 E0.08663 F1200.000
G1 X58.607 Y85.553 E0.04389
G1 X59.404 Y85.642 E0.04359
G1 X60.191 Y85.756 E0.04319
G1 X60.964 Y85.895 E0.04270
G1 X61.722 Y86.058 E0.04213
G1 X62.462 Y86.246 E0.04147
G1 X63.182 Y86.458 E0.04076
G1 X63.879 Y86.694 E0.04000
G1 X64.593 Y86.971 E0.04159
G1 X65.241 Y87.258 E0.03853
G1 X65.861 Y87.569 E0.03770
G1 X66.451 Y87.906 E0.03692
G1 X67.009 Y88.268 E0.03614
G1 X67.533 Y88.656 E0.03544
G1 X68.021 Y89.072 E0.03484
G1 X68.470 Y89.517 E0.03431
G1 X68.875 Y89.992 E0.03392
G1 X69.234 Y90.497 E0.03367
G1 X69.539 Y91.034 E0.03354
G1 X69.785 Y91.599 E0.03347
G1 X69.964 Y92.189 E0.03352
G1 X70.056 Y92.676 E0.02692
G1 X70.102 Y93.289 E0.03340
G1 X70.056 Y94.025 E0.04009
G1 X69.935 Y94.626 E0.03332
G1 X69.745 Y95.206 E0.03315
G1 X69.492 Y95.760 E0.03308
G1 X69.182 Y96.284 E0.03310
G1 X68.821 Y96.778 E0.03323
G1 X68.415 Y97.242 E0.03350
G1 X67.968 Y97.677 E0.03393
G1 X67.533 Y98.044 E0.03089
G1 X67.009 Y98.433 E0.03544
G1 X66.451 Y98.795 E0.03615
G1 X65.861 Y99.131 E0.03692
G1 X65.241 Y99.443 E0.03770
G1 X64.593 Y99.730 E0.03853
G1 X63.918 Y99.993 E0.03934
G1 X63.219 Y100.231 E0.04012
G1 X62.498 Y100.445 E0.04088
G1 X61.757 Y100.635 E0.04155
G1 X60.998 Y100.800 E0.04222
G1 X60.223 Y100.940 E0.04276
G1 X59.436 Y101.054 E0.04322
G1 X58.607 Y101.147 E0.04534
G1 X57.801 Y101.211 E0.04390
G1 X56.990 Y101.248 E0.04410
G1 X55.394 Y101.248 E0.08673
G1 X54.583 Y101.211 E0.04411
G1 X53.778 Y101.147 E0.04389
G1 X52.980 Y101.059 E0.04358
G1 X52.194 Y100.945 E0.04319
G1 X51.420 Y100.806 E0.04269
G1 X50.662 Y100.643 E0.04214
G1 X49.922 Y100.455 E0.04148
G1 X49.165 Y100.231 E0.04289
G1 X48.466 Y99.993 E0.04012
G1 X47.792 Y99.730 E0.03934
G1 X47.143 Y99.443 E0.03853
G1 X46.523 Y99.131 E0.03770
G1 X45.981 Y98.824 E0.03390
G1 X45.425 Y98.467 E0.03588
G1 X44.903 Y98.085 E0.03513
G1 X44.417 Y97.677 E0.03448
G1 X43.969 Y97.242 E0.03393
G1 X43.563 Y96.778 E0.03350
G1 X43.203 Y96.284 E0.03323
G1 X42.893 Y95.760 E0.03309
G1 X42.600 Y95.102 E0.03911
G1 X42.449 Y94.626 E0.02713
G1 X42.328 Y94.025 E0.03331
G1 X42.282 Y93.289 E0.04009
G1 X42.328 Y92.676 E0.03341
G1 X42.420 Y92.189 E0.02692
G1 X42.600 Y91.599 E0.03352
G1 X42.845 Y91.034 E0.03347
G1 X43.203 Y90.417 E0.03874
G1 X43.563 Y89.923 E0.03323
G1 X43.969 Y89.459 E0.03350
G1 X44.417 Y89.023 E0.03394
G1 X44.903 Y88.615 E0.03447
G1 X45.425 Y88.234 E0.03513
G1 X45.981 Y87.877 E0.03588
G1 X46.568 Y87.545 E0.03667
G1 X47.186 Y87.238 E0.03751
G1 X47.833 Y86.954 E0.03835
G1 X48.506 Y86.694 E0.03919
G1 X49.203 Y86.458 E0.03999
G1 X49.922 Y86.246 E0.04076
G1 X50.662 Y86.058 E0.04148
G1 X51.470 Y85.886 E0.04485
G1 X51.547 Y86.314 F9000.000
G1 X53.007 Y86.078 E0.08040 F1200.000
G1 X53.816 Y85.987 E0.04419
G1 X55.380 Y85.889 E0.08518
G1 X56.253 Y85.876 E0.04742
G1 X57.777 Y85.925 E0.08285 F1200.000
G1 X58.569 Y85.987 E0.04314
G1 X59.352 Y86.075 E0.04282
G1 X60.124 Y86.186 E0.04240
G1 X60.883 Y86.323 E0.04189
