; generated by Slic3r 1.2.9 on 2017-06-05 at 17:19:04

; external perimeters extrusion width = 0.30mm
; perimeters extrusion width = 0.30mm
; infill extrusion width = 0.30mm
; solid infill extrusion width = 0.30mm
; top infill extrusion width = 0.30mm

M107
M190 S57 ; set bed temperature
G28								; home all axes (if axis shifting bug is fixed!)
G32								; execute bed Z-plane  compensation at bed.g 4 points
G10 P0 X-16 Y-3 Z0.0 S-273 R-273		; set extruder x,y offsets
M83								; set extruder to relative mode
G10 P0 S195 R160					; Set tool 0 operating and standby temperatures
T0									; select tool ZERO




G21 ; set units to millimeters
G90 ; use absolute coordinates
M83 ; use relative distances for extrusion
G1 E-3.50000 F2400.00000
G1 Z0.200 F9000.000
G1 X28.911 Y42.542 F9000.000
G1 E3.50000 F2400.00000
G1 X29.892 Y41.940 E0.04377 F1200.000
G1 X30.887 Y41.414 E0.04275
G1 X31.913 Y40.952 E0.04275
G1 X32.407 Y40.757 E0.02019
G1 X33.470 Y40.391 E0.04274
G1 X34.573 Y40.090 E0.04344
G1 X35.656 Y39.864 E0.04207
G1 X36.243 Y39.772 E0.02256
G1 X36.770 Y39.705 E0.02019
G1 X37.891 Y39.616 E0.04275
G1 X39.034 Y39.598 E0.04344
G1 X39.832 Y39.626 E0.03038 F1200.000
G1 X100.740 Y43.154 E2.31875
G1 X101.933 Y43.251 E0.04549
G1 X103.666 Y43.474 E0.06641
G1 X104.946 Y43.705 E0.04944
G1 X105.636 Y43.854 E0.02684
G1 X106.606 Y44.095 E0.03797
G1 X107.563 Y44.372 E0.03786
G1 X108.507 Y44.685 E0.03783
G1 X109.791 Y45.185 E0.05235
G1 X110.354 Y45.433 E0.02340
G1 X111.257 Y45.873 E0.03814
G1 X112.142 Y46.362 E0.03844
G1 X112.553 Y46.610 E0.01824
G1 X113.012 Y46.906 E0.02078
G1 X113.863 Y47.512 E0.03970
G1 X114.692 Y48.188 E0.04063
G1 X115.495 Y48.944 E0.04193
G1 X115.966 Y49.445 E0.02614
G1 X116.263 Y49.788 E0.01723
G1 X116.731 Y50.380 E0.02870
G1 X116.983 Y50.731 E0.01643
G1 X117.433 Y51.424 E0.03141
G1 X117.641 Y51.782 E0.01572
G1 X118.050 Y52.580 E0.03407
G1 X118.212 Y52.943 E0.01510
G1 X118.552 Y53.838 E0.03641
G1 X118.669 Y54.205 E0.01463
G1 X118.917 Y55.190 E0.03861
G1 X118.987 Y55.560 E0.01430
G1 X119.117 Y56.599 E0.03979
G1 X119.140 Y56.969 E0.01411
G1 X119.140 Y58.031 E0.04035
G1 X119.117 Y58.401 E0.01411
G1 X118.987 Y59.441 E0.03980
G1 X118.917 Y59.810 E0.01429
G1 X118.669 Y60.795 E0.03861
G1 X118.552 Y61.162 E0.01462
G1 X118.212 Y62.057 E0.03641
G1 X118.050 Y62.420 E0.01510
G1 X117.641 Y63.218 E0.03407
G1 X117.433 Y63.576 E0.01572
G1 X116.983 Y64.269 E0.03141
G1 X116.263 Y65.212 E0.04512
G1 X115.496 Y66.056 E0.04333
G1 X115.156 Y66.389 E0.01811
G1 X114.724 Y66.785 E0.02224
G1 X80.266 Y96.212 E1.72223
G1 X79.488 Y96.828 E0.03770
G1 X78.567 Y97.474 E0.04275
G1 X77.608 Y98.060 E0.04274
G1 X77.142 Y98.316 E0.02019
G1 X76.132 Y98.812 E0.04275
G1 X75.587 Y99.048 E0.02256
G1 X74.535 Y99.445 E0.04275
G1 X73.460 Y99.774 E0.04275
G1 X72.366 Y100.036 E0.04275
G1 X71.257 Y100.228 E0.04275
G1 X70.730 Y100.295 E0.02019
G1 X69.609 Y100.384 E0.04275
G1 X68.485 Y100.403 E0.04274
G1 X67.891 Y100.384 E0.02257
G1 X66.770 Y100.295 E0.04275
G1 X66.225 Y100.226 E0.02089
G1 X65.134 Y100.036 E0.04206
G1 X64.041 Y99.774 E0.04274
G1 X62.965 Y99.445 E0.04275
G1 X61.913 Y99.048 E0.04274
G1 X61.368 Y98.812 E0.02259
G1 X60.358 Y98.316 E0.04275
G1 X59.381 Y97.758 E0.04275
G1 X58.442 Y97.140 E0.04274
G1 X57.543 Y96.464 E0.04275
G1 X27.134 Y71.125 E1.50438
G1 X26.301 Y70.369 E0.04276
G1 X25.881 Y69.949 E0.02258
G1 X25.125 Y69.116 E0.04274
G1 X24.422 Y68.238 E0.04277
G1 X23.787 Y67.332 E0.04204
G1 X23.492 Y66.869 E0.02088
G1 X23.190 Y66.358 E0.02256
G1 X22.664 Y65.363 E0.04275
G1 X22.209 Y64.354 E0.04205
G1 X22.007 Y63.844 E0.02089
G1 X21.805 Y63.285 E0.02257
G1 X21.476 Y62.209 E0.04276
G1 X21.214 Y61.116 E0.04273
G1 X21.114 Y60.594 E0.02019
G1 X21.022 Y60.007 E0.02256
G1 X20.899 Y58.889 E0.04275
G1 X20.848 Y57.784 E0.04205
G1 X20.847 Y57.234 E0.02089
G1 X20.899 Y56.111 E0.04275
G1 X20.955 Y55.519 E0.02258
G1 X21.112 Y54.424 E0.04204
G1 X21.214 Y53.884 E0.02089
G1 X21.344 Y53.305 E0.02258
G1 X21.641 Y52.220 E0.04274
G1 X22.007 Y51.157 E0.04274
G1 X22.202 Y50.663 E0.02019
G1 X22.438 Y50.117 E0.02258
G1 X22.934 Y49.108 E0.04274
G1 X23.190 Y48.642 E0.02019
G1 X23.776 Y47.683 E0.04274
G1 X24.110 Y47.191 E0.02259
G1 X24.786 Y46.293 E0.04273
G1 X25.505 Y45.452 E0.04205
G1 X25.881 Y45.051 E0.02089
G1 X26.301 Y44.631 E0.02258
G1 X27.134 Y43.875 E0.04274
G1 X28.012 Y43.172 E0.04276
G1 X28.873 Y42.567 E0.04001
G1 E-3.50000 F2400.00000
G1 X31.700 Y46.726 F9000.000
G1 E3.50000 F2400.00000
G1 X32.499 Y46.241 E0.03553 F1200.000
G1 X33.218 Y45.871 E0.03075
G1 X33.959 Y45.546 E0.03075
G1 X34.822 Y45.236 E0.03484
G1 X35.670 Y44.997 E0.03348
G1 X36.390 Y44.840 E0.02801
G1 X37.083 Y44.730 E0.02666
G1 X37.995 Y44.644 E0.03484
G1 X38.876 Y44.624 E0.03348
G1 X39.612 Y44.651 E0.02801 F1200.000
G1 X40.311 Y44.717 E0.02666
G1 X41.216 Y44.860 E0.03484
G1 X41.901 Y45.013 E0.02666
G1 X42.678 Y45.236 E0.03075
G1 X43.541 Y45.546 E0.03484
G1 X44.346 Y45.903 E0.03349
G1 X45.001 Y46.241 E0.02801
G1 X45.605 Y46.598 E0.02665
G1 X46.363 Y47.113 E0.03483
G1 X46.917 Y47.543 E0.02666
G1 X47.526 Y48.075 E0.03075
G1 X48.175 Y48.724 E0.03484
G1 X48.707 Y49.333 E0.03075
G1 X49.137 Y49.887 E0.02666
G1 X49.594 Y50.554 E0.03074
G1 X50.061 Y51.343 E0.03484
G1 X50.379 Y51.968 E0.02666
G1 X50.675 Y52.643 E0.02801
G1 X50.981 Y53.469 E0.03349
G1 X51.237 Y54.350 E0.03484
G1 X51.390 Y55.034 E0.02665
G1 X51.520 Y55.832 E0.03075
G1 X51.606 Y56.745 E0.03484
G1 X51.628 Y57.554 E0.03075
G1 X51.599 Y58.362 E0.03075
G1 X51.533 Y59.061 E0.02666
G1 X51.390 Y59.966 E0.03484
G1 X51.237 Y60.651 E0.02666
G1 X51.014 Y61.428 E0.03074
G1 X50.704 Y62.291 E0.03485
G1 X50.425 Y62.934 E0.02666
G1 X50.061 Y63.657 E0.03075
G1 X49.594 Y64.446 E0.03484
G1 X49.200 Y65.026 E0.02666
G1 X48.707 Y65.667 E0.03075
G1 X48.101 Y66.355 E0.03484
G1 X47.605 Y66.851 E0.02666
G1 X47.000 Y67.388 E0.03075
G1 X46.363 Y67.887 E0.03075
G1 X45.605 Y68.402 E0.03484
G1 X45.001 Y68.759 E0.02665
G1 X44.282 Y69.129 E0.03075
G1 X43.541 Y69.454 E0.03075
G1 X42.678 Y69.764 E0.03485
G1 X41.901 Y69.987 E0.03074
G1 X41.216 Y70.140 E0.02666
G1 X40.417 Y70.270 E0.03075
G1 X39.505 Y70.356 E0.03484
G1 X38.696 Y70.378 E0.03074
G1 X37.995 Y70.356 E0.02666
G1 X37.083 Y70.270 E0.03484
G1 X36.390 Y70.160 E0.02666
G1 X35.600 Y69.987 E0.03075
G1 X34.719 Y69.731 E0.03484
G1 X33.959 Y69.454 E0.03075
G1 X33.315 Y69.175 E0.02666
G1 X32.499 Y68.759 E0.03484
G1 X31.895 Y68.402 E0.02665
G1 X31.224 Y67.950 E0.03074
G1 X30.500 Y67.388 E0.03484
G1 X29.895 Y66.851 E0.03075
G1 X29.399 Y66.355 E0.02666
G1 X28.862 Y65.750 E0.03074
G1 X28.363 Y65.113 E0.03076
G1 X27.848 Y64.355 E0.03483
G1 X27.491 Y63.751 E0.02666
G1 X27.121 Y63.032 E0.03075
G1 X26.796 Y62.291 E0.03075
G1 X26.486 Y61.428 E0.03484
G1 X26.290 Y60.755 E0.02666
G1 X26.110 Y59.966 E0.03074
G1 X25.967 Y59.061 E0.03484
G1 X25.901 Y58.362 E0.02666
G1 X25.872 Y57.554 E0.03075
G1 X25.901 Y56.638 E0.03483
G1 X25.967 Y55.939 E0.02666
G1 X26.090 Y55.140 E0.03075
G1 X26.290 Y54.245 E0.03484
G1 X26.486 Y53.572 E0.02666
G1 X26.756 Y52.809 E0.03074
G1 X27.075 Y52.065 E0.03076
G1 X27.491 Y51.249 E0.03484
G1 X27.848 Y50.645 E0.02666
G1 X28.300 Y49.974 E0.03075
G1 X28.862 Y49.250 E0.03483
G1 X29.326 Y48.723 E0.02666
G1 X29.895 Y48.149 E0.03074
G1 X30.583 Y47.543 E0.03483
G1 X31.137 Y47.113 E0.02666
G1 X31.663 Y46.752 E0.02425
G1 X31.920 Y47.130 F9000.000
G1 X32.725 Y46.638 E0.03587 F1200.000
G1 X33.419 Y46.281 E0.02966
G1 X34.134 Y45.968 E0.02966
G1 X34.956 Y45.673 E0.03320
G1 X35.770 Y45.443 E0.03212
G1 X36.468 Y45.290 E0.02719
G1 X37.147 Y45.183 E0.02611
G1 X37.924 Y45.106 E0.02966
G1 X38.797 Y45.079 E0.03320
G1 X39.483 Y45.101 E0.02611 F1200.000
G1 X40.260 Y45.171 E0.02966
G1 X41.032 Y45.290 E0.02966
G1 X41.884 Y45.481 E0.03320
G1 X42.633 Y45.701 E0.02965
G1 X43.279 Y45.934 E0.02611
G1 X43.996 Y46.241 E0.02966
G1 X44.775 Y46.638 E0.03321
G1 X45.445 Y47.038 E0.02965
G1 X46.013 Y47.424 E0.02611
G1 X46.703 Y47.959 E0.03321
G1 X47.287 Y48.477 E0.02965
G1 X47.773 Y48.963 E0.02611
G1 X48.350 Y49.619 E0.03320
G1 X48.771 Y50.161 E0.02611
G1 X49.212 Y50.805 E0.02965
G1 X49.657 Y51.557 E0.03320
G1 X49.969 Y52.169 E0.02611
G1 X50.256 Y52.825 E0.02719
G1 X50.549 Y53.617 E0.03212
G1 X50.792 Y54.456 E0.03320
G1 X50.942 Y55.127 E0.02611
G1 X51.067 Y55.897 E0.02965
G1 X51.149 Y56.767 E0.03320
G1 X51.171 Y57.547 E0.02966
G1 X51.144 Y58.326 E0.02965
G1 X51.079 Y59.010 E0.02611
G1 X50.942 Y59.873 E0.03320
G1 X50.792 Y60.544 E0.02611
G1 X50.578 Y61.294 E0.02965
G1 X50.282 Y62.116 E0.03321
G1 X50.009 Y62.746 E0.02611
G1 X49.657 Y63.443 E0.02965
G1 X49.212 Y64.195 E0.03320
G1 X48.826 Y64.763 E0.02611
G1 X48.350 Y65.381 E0.02965
G1 X47.773 Y66.037 E0.03320
G1 X47.287 Y66.523 E0.02611
G1 X46.703 Y67.041 E0.02966
G1 X46.089 Y67.521 E0.02966
G1 X45.366 Y68.012 E0.03321
G1 X44.775 Y68.362 E0.02611
G1 X44.081 Y68.719 E0.02966
G1 X43.279 Y69.066 E0.03320
G1 X42.544 Y69.328 E0.02966
G1 X41.794 Y69.542 E0.02965
G1 X41.123 Y69.692 E0.02612
G1 X40.353 Y69.817 E0.02966
G1 X39.483 Y69.899 E0.03320
G1 X38.703 Y69.921 E0.02965
G1 X38.017 Y69.899 E0.02611
G1 X37.147 Y69.817 E0.03320
G1 X36.468 Y69.710 E0.02611
G1 X35.706 Y69.542 E0.02966
G1 X34.867 Y69.299 E0.03320
G1 X34.134 Y69.032 E0.02965
G1 X33.504 Y68.759 E0.02612
G1 X32.725 Y68.362 E0.03321
G1 X32.134 Y68.012 E0.02611
G1 X31.487 Y67.576 E0.02965
G1 X30.797 Y67.041 E0.03320
G1 X30.213 Y66.523 E0.02966
G1 X29.727 Y66.037 E0.02611
G1 X29.209 Y65.453 E0.02965
G1 X28.729 Y64.839 E0.02966
G1 X28.238 Y64.116 E0.03320
G1 X27.888 Y63.525 E0.02611
G1 X27.531 Y62.831 E0.02966
G1 X27.218 Y62.116 E0.02966
G1 X26.923 Y61.294 E0.03320
G1 X26.731 Y60.634 E0.02611
G1 X26.558 Y59.873 E0.02965
G1 X26.421 Y59.010 E0.03320
G1 X26.356 Y58.326 E0.02611
G1 X26.329 Y57.547 E0.02966
G1 X26.356 Y56.674 E0.03320
G1 X26.421 Y55.989 E0.02611
G1 X26.540 Y55.218 E0.02966
G1 X26.731 Y54.366 E0.03320
G1 X26.923 Y53.706 E0.02611
G1 X27.184 Y52.971 E0.02965
G1 X27.491 Y52.254 E0.02966
G1 X27.888 Y51.475 E0.03320
G1 X28.238 Y50.884 E0.02611
G1 X28.674 Y50.237 E0.02966
G1 X29.209 Y49.547 E0.03320
G1 X29.664 Y49.031 E0.02612
G1 X30.213 Y48.477 E0.02965
G1 X30.868 Y47.900 E0.03320
G1 X31.411 Y47.479 E0.02611
G1 X31.882 Y47.155 E0.02173
G1 X32.139 Y47.533 F9000.000
G1 X32.952 Y47.035 E0.03621 F1200.000
G1 X33.620 Y46.692 E0.02856
G1 X34.309 Y46.391 E0.02857
G1 X35.090 Y46.109 E0.03156
G1 X35.869 Y45.890 E0.03076
G1 X36.547 Y45.741 E0.02637
G1 X37.211 Y45.635 E0.02556
G1 X38.038 Y45.557 E0.03157
G1 X38.847 Y45.538 E0.03076
G1 X39.541 Y45.562 E0.02637 F1200.000
G1 X40.210 Y45.625 E0.02556
G1 X41.031 Y45.755 E0.03157
G1 X41.687 Y45.902 E0.02557
G1 X42.409 Y46.109 E0.02856
G1 X43.191 Y46.391 E0.03156
G1 X43.880 Y46.692 E0.02857
G1 X44.479 Y46.997 E0.02557
G1 X45.127 Y47.377 E0.02856
G1 X45.814 Y47.844 E0.03156
G1 X46.346 Y48.256 E0.02557
G1 X46.911 Y48.752 E0.02857
G1 X47.444 Y49.281 E0.02856
G1 X47.994 Y49.904 E0.03157
G1 X48.406 Y50.436 E0.02557
G1 X48.830 Y51.056 E0.02856
G1 X49.253 Y51.771 E0.03157
G1 X49.558 Y52.370 E0.02556
G1 X49.836 Y53.006 E0.02637
G1 X50.116 Y53.765 E0.03076
G1 X50.348 Y54.563 E0.03156
G1 X50.509 Y55.297 E0.02856
G1 X50.615 Y55.961 E0.02556
G1 X50.693 Y56.788 E0.03156
G1 X50.714 Y57.540 E0.02857
G1 X50.688 Y58.291 E0.02856
G1 X50.625 Y58.960 E0.02557
G1 X50.495 Y59.781 E0.03157
G1 X50.348 Y60.437 E0.02557
G1 X50.141 Y61.159 E0.02856
G1 X49.859 Y61.941 E0.03157
G1 X49.592 Y62.558 E0.02557
G1 X49.253 Y63.229 E0.02856
G1 X48.830 Y63.944 E0.03156
G1 X48.452 Y64.500 E0.02557
G1 X47.994 Y65.096 E0.02856
G1 X47.444 Y65.719 E0.03157
G1 X46.969 Y66.194 E0.02557
G1 X46.407 Y66.693 E0.02856
G1 X45.814 Y67.156 E0.02857
G1 X45.127 Y67.623 E0.03157
G1 X44.548 Y67.965 E0.02556
G1 X43.880 Y68.308 E0.02857
G1 X43.191 Y68.609 E0.02857
G1 X42.409 Y68.891 E0.03157
G1 X41.687 Y69.098 E0.02856
G1 X41.031 Y69.245 E0.02557
G1 X40.289 Y69.365 E0.02857
G1 X39.462 Y69.443 E0.03157
G1 X38.711 Y69.464 E0.02856
G1 X38.038 Y69.443 E0.02557
G1 X37.211 Y69.365 E0.03156
G1 X36.469 Y69.245 E0.02857
G1 X35.813 Y69.098 E0.02556
G1 X35.015 Y68.866 E0.03156
G1 X34.309 Y68.609 E0.02856
G1 X33.692 Y68.342 E0.02557
G1 X32.952 Y67.965 E0.03157
G1 X32.373 Y67.623 E0.02556
G1 X31.750 Y67.202 E0.02856
G1 X31.094 Y66.693 E0.03156
G1 X30.531 Y66.194 E0.02857
G1 X30.056 Y65.719 E0.02557
G1 X29.557 Y65.157 E0.02856
G1 X29.094 Y64.564 E0.02857
G1 X28.627 Y63.877 E0.03156
G1 X28.285 Y63.298 E0.02556
G1 X27.942 Y62.630 E0.02857
G1 X27.641 Y61.941 E0.02857
G1 X27.359 Y61.159 E0.03156
G1 X27.172 Y60.513 E0.02557
G1 X27.005 Y59.781 E0.02856
G1 X26.875 Y58.960 E0.03157
G1 X26.812 Y58.291 E0.02556
G1 X26.786 Y57.539 E0.02857
G1 X26.812 Y56.709 E0.03156
G1 X26.875 Y56.040 E0.02557
G1 X26.991 Y55.297 E0.02857
G1 X27.172 Y54.486 E0.03156
G1 X27.359 Y53.840 E0.02557
G1 X27.612 Y53.133 E0.02856
G1 X27.908 Y52.442 E0.02857
G1 X28.285 Y51.702 E0.03156
G1 X28.627 Y51.123 E0.02557
G1 X29.048 Y50.500 E0.02857
G1 X29.557 Y49.843 E0.03156
G1 X30.002 Y49.339 E0.02557
G1 X30.531 Y48.806 E0.02856
G1 X31.154 Y48.256 E0.03156
G1 X31.686 Y47.844 E0.02557
G1 X32.102 Y47.558 E0.01920
G1 X32.359 Y47.936 F9000.000
G1 X33.178 Y47.432 E0.03656 F1200.000
G1 X33.821 Y47.102 E0.02747
G1 X34.484 Y46.813 E0.02748
G1 X35.225 Y46.546 E0.02993
G1 X35.969 Y46.336 E0.02940
G1 X36.626 Y46.191 E0.02555
G1 X37.276 Y46.088 E0.02502
G1 X37.995 Y46.018 E0.02747
G1 X38.782 Y45.993 E0.02993
G1 X39.440 Y46.014 E0.02502 F1200.000
G1 X40.160 Y46.080 E0.02747
G1 X40.874 Y46.191 E0.02747
G1 X41.643 Y46.363 E0.02993
G1 X42.336 Y46.566 E0.02747
G1 X42.956 Y46.789 E0.02502
G1 X43.620 Y47.075 E0.02747
G1 X44.322 Y47.432 E0.02993
G1 X44.943 Y47.802 E0.02747
G1 X45.487 Y48.172 E0.02502
G1 X46.110 Y48.654 E0.02993
G1 X46.603 Y49.090 E0.02502
G1 X47.080 Y49.564 E0.02555
G1 X47.596 Y50.140 E0.02940
G1 X48.078 Y50.763 E0.02993
G1 X48.483 Y51.362 E0.02747
G1 X48.818 Y51.928 E0.02502
G1 X49.175 Y52.630 E0.02993
G1 X49.437 Y53.234 E0.02502
G1 X49.684 Y53.914 E0.02747
G1 X49.903 Y54.670 E0.02993
G1 X50.047 Y55.312 E0.02502
G1 X50.162 Y56.026 E0.02747
G1 X50.236 Y56.810 E0.02993
G1 X50.257 Y57.532 E0.02748
G1 X50.232 Y58.255 E0.02747
G1 X50.170 Y58.910 E0.02502
G1 X50.047 Y59.688 E0.02993
G1 X49.903 Y60.330 E0.02502
G1 X49.704 Y61.025 E0.02747
G1 X49.437 Y61.766 E0.02993
G1 X49.175 Y62.370 E0.02502
G1 X48.849 Y63.015 E0.02747
G1 X48.448 Y63.693 E0.02993
G1 X48.078 Y64.237 E0.02502
G1 X47.637 Y64.810 E0.02747
G1 X47.116 Y65.401 E0.02993
G1 X46.651 Y65.866 E0.02502
G1 X46.110 Y66.346 E0.02747
G1 X45.540 Y66.790 E0.02747
G1 X44.888 Y67.233 E0.02993
G1 X44.322 Y67.568 E0.02502
G1 X43.679 Y67.898 E0.02747
G1 X43.016 Y68.187 E0.02747
G1 X42.275 Y68.454 E0.02993
G1 X41.580 Y68.653 E0.02747
G1 X40.938 Y68.797 E0.02502
G1 X40.224 Y68.912 E0.02747
G1 X39.440 Y68.986 E0.02993
G1 X38.718 Y69.007 E0.02747
G1 X38.060 Y68.986 E0.02502
G1 X37.276 Y68.912 E0.02993
G1 X36.626 Y68.809 E0.02502
G1 X35.920 Y68.653 E0.02747
G1 X35.164 Y68.434 E0.02993
G1 X34.484 Y68.187 E0.02747
G1 X33.880 Y67.925 E0.02502
G1 X33.178 Y67.568 E0.02993
G1 X32.612 Y67.233 E0.02502
G1 X32.013 Y66.828 E0.02747
G1 X31.390 Y66.346 E0.02993
G1 X30.849 Y65.866 E0.02748
G1 X30.384 Y65.400 E0.02502
G1 X29.904 Y64.860 E0.02747
G1 X29.460 Y64.290 E0.02748
G1 X29.017 Y63.638 E0.02993
G1 X28.682 Y63.072 E0.02502
G1 X28.352 Y62.429 E0.02747
G1 X28.063 Y61.766 E0.02748
G1 X27.796 Y61.025 E0.02993
G1 X27.613 Y60.393 E0.02502
G1 X27.453 Y59.688 E0.02747
G1 X27.330 Y58.910 E0.02993
G1 X27.268 Y58.255 E0.02502
G1 X27.243 Y57.532 E0.02748
G1 X27.268 Y56.745 E0.02993
G1 X27.330 Y56.090 E0.02502
G1 X27.441 Y55.376 E0.02747
G1 X27.613 Y54.607 E0.02993
G1 X27.796 Y53.975 E0.02502
G1 X28.039 Y53.294 E0.02747
G1 X28.325 Y52.630 E0.02748
G1 X28.682 Y51.928 E0.02993
G1 X29.017 Y51.362 E0.02502
G1 X29.422 Y50.763 E0.02748
G1 X29.904 Y50.140 E0.02993
G1 X30.340 Y49.646 E0.02502
G1 X30.850 Y49.134 E0.02747
G1 X31.440 Y48.613 E0.02993
G1 X31.960 Y48.210 E0.02502
G1 X32.322 Y47.962 E0.01667
G1 X32.579 Y48.340 F9000.000
G1 X32.850 Y48.157 E0.01244 F1200.000
G1 X33.405 Y47.829 E0.02447
G1 X34.022 Y47.513 E0.02638
G1 X34.659 Y47.235 E0.02638
G1 X35.359 Y46.983 E0.02829
G1 X36.069 Y46.782 E0.02803
