; generated by Slic3r 1.2.9 on 2017-06-08 at 20:00:44

; external perimeters extrusion width = 0.30mm
; perimeters extrusion width = 0.30mm
; infill extrusion width = 0.30mm
; solid infill extrusion width = 0.30mm
; top infill extrusion width = 0.30mm

M107
M190 S57 ; set bed temperature
G28								; home all axes (if axis shifting bug is fixed!)
G32								; execute bed Z-plane  compensation at bed.g 4 points
G10 P0 X-16 Y-3 Z0.0 S-273 R-273		; set extruder x,y offsets
M83								; set extruder to relative mode
G10 P0 S195 R160					; Set tool 0 operating and standby temperatures
T0									; select tool ZERO




G21 ; set units to millimeters
G90 ; use absolute coordinates
M83 ; use relative distances for extrusion
G1 E-3.50000 F2400.00000
G1 Z0.300 F9000.000
G1 X28.923 Y42.559 F9000.000
G1 E3.50000 F2400.00000
G1 X29.903 Y41.958 E0.06250 F1200.000
G1 X30.897 Y41.433 E0.06104
G1 X31.376 Y41.208 E0.02880
G1 X32.414 Y40.777 E0.06104
G1 X33.476 Y40.412 E0.06102
G1 X34.046 Y40.246 E0.03228
G1 X35.139 Y39.985 E0.06104
G1 X35.660 Y39.886 E0.02879
G1 X36.772 Y39.726 E0.06104
G1 X37.891 Y39.637 E0.06102
G1 X39.043 Y39.619 E0.06259
G1 X39.831 Y39.647 E0.04284 F1200.000
G1 X100.739 Y43.176 E3.31483
G1 X101.931 Y43.273 E0.06498
G1 X102.941 Y43.390 E0.05524
G1 X103.944 Y43.541 E0.05515
G1 X105.632 Y43.875 E0.09346
G1 X106.909 Y44.201 E0.07165
G1 X107.557 Y44.392 E0.03667
G1 X108.500 Y44.706 E0.05403
G1 X109.782 Y45.204 E0.07474
G1 X110.346 Y45.452 E0.03345
G1 X111.247 Y45.892 E0.05447
G1 X112.131 Y46.380 E0.05489
G1 X112.541 Y46.628 E0.02601
G1 X113.429 Y47.220 E0.05797
G1 X113.850 Y47.530 E0.02842
G1 X114.678 Y48.204 E0.05801
G1 X115.480 Y48.959 E0.05985
G1 X115.950 Y49.459 E0.03728
G1 X116.247 Y49.802 E0.02464
G1 X116.966 Y50.744 E0.06439
G1 X117.415 Y51.435 E0.04479
G1 X117.622 Y51.793 E0.02247
G1 X118.030 Y52.589 E0.04859
G1 X118.192 Y52.952 E0.02159
G1 X118.532 Y53.845 E0.05192
G1 X118.648 Y54.211 E0.02090
G1 X118.896 Y55.194 E0.05506
G1 X118.966 Y55.564 E0.02043
G1 X119.096 Y56.600 E0.05675
G1 X119.119 Y56.970 E0.02017
G1 X119.119 Y58.030 E0.05754
G1 X119.071 Y58.700 E0.03653
G1 X116.520 Y84.514 E1.40938
G1 X116.364 Y85.590 E0.05909
G1 X116.135 Y86.691 E0.06106
G1 X115.846 Y87.746 E0.05949
G1 X115.674 Y88.278 E0.03033
G1 X115.278 Y89.329 E0.06104
G1 X115.042 Y89.874 E0.03226
G1 X114.547 Y90.882 E0.06104
G1 X113.990 Y91.858 E0.06104
G1 X113.372 Y92.796 E0.06103
G1 X112.697 Y93.694 E0.06104
G1 X111.966 Y94.548 E0.06106
G1 X111.184 Y95.354 E0.06102
G1 X110.352 Y96.109 E0.06104
G1 X109.944 Y96.447 E0.02880
G1 X109.046 Y97.122 E0.06104
G1 X108.108 Y97.740 E0.06103
G1 X107.132 Y98.297 E0.06104
G1 X106.124 Y98.792 E0.06104
G1 X105.579 Y99.028 E0.03226
G1 X104.528 Y99.424 E0.06104
G1 X103.454 Y99.754 E0.06104
G1 X102.913 Y99.892 E0.03031
G1 X101.840 Y100.114 E0.05952
G1 X100.728 Y100.274 E0.06104
G1 X99.608 Y100.363 E0.06104
G1 X98.750 Y100.386 E0.04666
G1 X38.750 Y100.386 E3.25997
G1 X37.892 Y100.363 E0.04666
G1 X36.772 Y100.274 E0.06104
G1 X35.660 Y100.114 E0.06104
G1 X34.560 Y99.886 E0.06104
G1 X33.476 Y99.588 E0.06104
G1 X32.414 Y99.223 E0.06104
G1 X31.376 Y98.792 E0.06104
G1 X30.368 Y98.297 E0.06105
G1 X29.392 Y97.740 E0.06104
G1 X28.454 Y97.122 E0.06103
G1 X27.556 Y96.447 E0.06104
G1 X26.702 Y95.716 E0.06105
G1 X25.896 Y94.934 E0.06104
G1 X25.141 Y94.102 E0.06104
G1 X24.439 Y93.225 E0.06106
G1 X23.794 Y92.305 E0.06105
G1 X23.208 Y91.347 E0.06102
G1 X22.683 Y90.353 E0.06104
G1 X22.222 Y89.329 E0.06104
G1 X21.826 Y88.278 E0.06104
G1 X21.496 Y87.204 E0.06104
G1 X21.235 Y86.111 E0.06105
G1 X21.043 Y85.004 E0.06103
G1 X20.920 Y83.887 E0.06104
G1 X20.864 Y82.500 E0.07543
G1 X20.864 Y57.500 E1.35832
G1 X20.887 Y56.641 E0.04667
G1 X20.976 Y55.522 E0.06102
G1 X21.043 Y54.996 E0.02880
G1 X21.235 Y53.889 E0.06104
G1 X21.496 Y52.796 E0.06104
G1 X21.662 Y52.226 E0.03228
G1 X22.027 Y51.164 E0.06102
G1 X22.222 Y50.671 E0.02879
G1 X22.683 Y49.647 E0.06104
G1 X22.953 Y49.118 E0.03226
G1 X23.208 Y48.653 E0.02879
G1 X23.794 Y47.695 E0.06103
G1 X24.128 Y47.204 E0.03228
G1 X24.803 Y46.306 E0.06102
G1 X25.141 Y45.898 E0.02880
G1 X25.896 Y45.066 E0.06104
G1 X26.702 Y44.284 E0.06102
G1 X27.148 Y43.891 E0.03227
G1 X28.025 Y43.189 E0.06105
G1 X28.885 Y42.585 E0.05712
G1 E-3.50000 F2400.00000
G1 X31.790 Y46.859 F9000.000
G1 E3.50000 F2400.00000
G1 X32.578 Y46.381 E0.05010 F1200.000
G1 X33.289 Y46.015 E0.04341
G1 X34.021 Y45.695 E0.04341
G1 X34.869 Y45.389 E0.04898
G1 X35.715 Y45.152 E0.04773
G1 X36.417 Y44.999 E0.03908
G1 X37.105 Y44.890 E0.03783
G1 X38.003 Y44.805 E0.04898
G1 X38.881 Y44.785 E0.04773
G1 X39.600 Y44.811 E0.03908 F1200.000
G1 X40.293 Y44.877 E0.03783
G1 X41.183 Y45.018 E0.04898
G1 X41.863 Y45.170 E0.03784
G1 X42.631 Y45.389 E0.04341
G1 X43.479 Y45.695 E0.04898
G1 X44.211 Y46.015 E0.04341
G1 X44.832 Y46.331 E0.03783
G1 X45.607 Y46.790 E0.04898
G1 X46.183 Y47.181 E0.03783
G1 X46.817 Y47.669 E0.04341
G1 X47.493 Y48.265 E0.04898
G1 X47.985 Y48.757 E0.03783
G1 X48.516 Y49.354 E0.04341
G1 X49.069 Y50.067 E0.04899
G1 X49.460 Y50.643 E0.03783
G1 X49.869 Y51.328 E0.04340
G1 X50.279 Y52.132 E0.04898
G1 X50.593 Y52.866 E0.04341
G1 X50.829 Y53.521 E0.03783
G1 X51.080 Y54.387 E0.04898
G1 X51.251 Y55.167 E0.04340
G1 X51.360 Y55.855 E0.03783
G1 X51.445 Y56.753 E0.04898
G1 X51.467 Y57.551 E0.04341
G1 X51.445 Y58.247 E0.03783
G1 X51.373 Y59.043 E0.04341
G1 X51.232 Y59.933 E0.04898
G1 X51.080 Y60.613 E0.03784
G1 X50.883 Y61.305 E0.03908
G1 X50.593 Y62.134 E0.04772
G1 X50.235 Y62.961 E0.04899
G1 X49.869 Y63.671 E0.04341
G1 X49.515 Y64.271 E0.03783
G1 X49.069 Y64.933 E0.04341
G1 X48.516 Y65.646 E0.04898
G1 X47.985 Y66.243 E0.04341
G1 X47.418 Y66.805 E0.04340
G1 X46.896 Y67.266 E0.03784
G1 X46.183 Y67.819 E0.04898
G1 X45.607 Y68.210 E0.03783
G1 X44.921 Y68.619 E0.04341
G1 X44.211 Y68.985 E0.04341
G1 X43.384 Y69.343 E0.04899
G1 X42.406 Y69.684 E0.05622
G1 X42.406 Y70.316 E0.03439
G1 X43.479 Y70.695 E0.06180
G1 X44.211 Y71.015 E0.04341
G1 X44.922 Y71.381 E0.04341
G1 X45.607 Y71.790 E0.04340
G1 X46.266 Y72.242 E0.04341
G1 X46.817 Y72.669 E0.03784
G1 X47.418 Y73.194 E0.04341
G1 X47.985 Y73.757 E0.04341
G1 X48.581 Y74.433 E0.04898
G1 X49.008 Y74.984 E0.03784
G1 X49.460 Y75.643 E0.04340
G1 X49.919 Y76.418 E0.04898
G1 X50.235 Y77.039 E0.03783
G1 X50.555 Y77.771 E0.04341
G1 X50.861 Y78.619 E0.04899
G1 X51.055 Y79.288 E0.03784
G1 X51.232 Y80.067 E0.04340
G1 X51.373 Y80.957 E0.04899
G1 X51.439 Y81.650 E0.03783
G1 X51.467 Y82.449 E0.04340
G1 X51.439 Y83.350 E0.04899
G1 X51.373 Y84.043 E0.03783
G1 X51.251 Y84.833 E0.04341
G1 X51.055 Y85.712 E0.04898
G1 X50.829 Y86.479 E0.04341
G1 X50.555 Y87.229 E0.04341
G1 X50.235 Y87.961 E0.04341
G1 X49.869 Y88.671 E0.04341
G1 X49.515 Y89.271 E0.03783
G1 X49.113 Y89.868 E0.03908
G1 X48.581 Y90.567 E0.04772
G1 X48.055 Y91.168 E0.04342
G1 X47.493 Y91.735 E0.04340
G1 X46.896 Y92.266 E0.04341
G1 X46.266 Y92.758 E0.04341
G1 X45.521 Y93.265 E0.04898
G1 X44.832 Y93.669 E0.04341
G1 X44.118 Y94.029 E0.04340
G1 X43.384 Y94.343 E0.04342
G1 X42.555 Y94.633 E0.04772
G1 X41.863 Y94.830 E0.03908
G1 X41.183 Y94.982 E0.03784
G1 X40.293 Y95.123 E0.04898
G1 X39.600 Y95.189 E0.03783
G1 X38.801 Y95.217 E0.04341
G1 X37.900 Y95.189 E0.04898
G1 X37.207 Y95.123 E0.03783
G1 X36.417 Y95.001 E0.04341
G1 X35.538 Y94.805 E0.04897
G1 X34.869 Y94.611 E0.03784
G1 X34.116 Y94.343 E0.04341
G1 X33.289 Y93.985 E0.04898
G1 X32.579 Y93.619 E0.04340
G1 X31.893 Y93.210 E0.04341
G1 X31.234 Y92.758 E0.04340
G1 X30.683 Y92.331 E0.03784
G1 X30.007 Y91.735 E0.04898
G1 X29.515 Y91.243 E0.03783
G1 X28.984 Y90.646 E0.04340
G1 X28.431 Y89.933 E0.04899
G1 X27.985 Y89.271 E0.04341
G1 X27.581 Y88.582 E0.04341
G1 X27.265 Y87.961 E0.03783
G1 X26.945 Y87.229 E0.04341
G1 X26.639 Y86.381 E0.04898
G1 X26.420 Y85.613 E0.04341
G1 X26.268 Y84.933 E0.03784
G1 X26.127 Y84.043 E0.04898
G1 X26.061 Y83.350 E0.03783
G1 X26.033 Y82.551 E0.04341
G1 X26.061 Y81.650 E0.04898
G1 X26.127 Y80.957 E0.03783
G1 X26.249 Y80.167 E0.04341
G1 X26.445 Y79.288 E0.04898
G1 X26.639 Y78.619 E0.03784
G1 X26.907 Y77.866 E0.04340
G1 X27.265 Y77.039 E0.04898
G1 X27.631 Y76.328 E0.04341
G1 X27.985 Y75.729 E0.03784
G1 X28.492 Y74.984 E0.04898
G1 X28.919 Y74.433 E0.03783
G1 X29.445 Y73.832 E0.04341
G1 X30.082 Y73.195 E0.04897
G1 X30.604 Y72.734 E0.03784
G1 X31.234 Y72.242 E0.04341
G1 X31.979 Y71.735 E0.04898
G1 X32.578 Y71.381 E0.03784
G1 X33.289 Y71.015 E0.04341
G1 X34.116 Y70.657 E0.04898
G1 X35.094 Y70.316 E0.05623
G1 X35.094 Y69.684 E0.03439
G1 X34.116 Y69.343 E0.05623
G1 X33.382 Y69.029 E0.04341
G1 X32.668 Y68.669 E0.04341
G1 X31.893 Y68.210 E0.04898
G1 X31.234 Y67.758 E0.04340
G1 X30.683 Y67.331 E0.03784
G1 X30.082 Y66.805 E0.04341
G1 X29.515 Y66.243 E0.04341
G1 X28.919 Y65.567 E0.04898
G1 X28.431 Y64.933 E0.04341
G1 X28.040 Y64.357 E0.03783
G1 X27.631 Y63.672 E0.04340
G1 X27.265 Y62.961 E0.04341
G1 X26.945 Y62.229 E0.04341
G1 X26.671 Y61.479 E0.04341
G1 X26.445 Y60.712 E0.04340
G1 X26.268 Y59.933 E0.04341
G1 X26.140 Y59.145 E0.04340
G1 X26.061 Y58.350 E0.04341
G1 X26.033 Y57.449 E0.04898
G1 X26.061 Y56.650 E0.04341
G1 X26.140 Y55.855 E0.04341
G1 X26.268 Y55.067 E0.04341
G1 X26.420 Y54.387 E0.03783
G1 X26.617 Y53.695 E0.03909
G1 X26.907 Y52.866 E0.04772
G1 X27.221 Y52.132 E0.04341
G1 X27.581 Y51.418 E0.04341
G1 X27.985 Y50.729 E0.04341
G1 X28.432 Y50.067 E0.04341
G1 X28.984 Y49.354 E0.04898
G1 X29.515 Y48.757 E0.04341
G1 X30.082 Y48.195 E0.04340
G1 X30.683 Y47.669 E0.04342
G1 X31.234 Y47.242 E0.03783
G1 X31.753 Y46.885 E0.03426
G1 X31.998 Y47.245 F9000.000
G1 X32.794 Y46.759 E0.05069 F1200.000
G1 X33.481 Y46.406 E0.04192
G1 X34.188 Y46.097 E0.04192
G1 X34.997 Y45.806 E0.04675
G1 X35.810 Y45.577 E0.04587
G1 X36.492 Y45.428 E0.03797
G1 X37.167 Y45.321 E0.03709
G1 X38.023 Y45.240 E0.04675
G1 X38.794 Y45.218 E0.04192
G1 X39.477 Y45.240 E0.03709 F1200.000
G1 X40.245 Y45.310 E0.04192
G1 X41.095 Y45.444 E0.04675
G1 X41.761 Y45.593 E0.03709
G1 X42.503 Y45.806 E0.04192
G1 X43.312 Y46.097 E0.04675
G1 X43.939 Y46.368 E0.03709
G1 X44.628 Y46.716 E0.04192
G1 X45.368 Y47.154 E0.04675
G1 X46.005 Y47.590 E0.04192
G1 X46.544 Y48.009 E0.03709
G1 X47.190 Y48.578 E0.04675
G1 X47.672 Y49.060 E0.03709
G1 X48.185 Y49.637 E0.04192
G1 X48.712 Y50.317 E0.04675
G1 X49.096 Y50.882 E0.03709
G1 X49.491 Y51.544 E0.04191
G1 X49.882 Y52.311 E0.04675
G1 X50.185 Y53.020 E0.04192
G1 X50.417 Y53.663 E0.03709
G1 X50.657 Y54.489 E0.04675
G1 X50.822 Y55.242 E0.04192
G1 X50.929 Y55.917 E0.03709
G1 X51.010 Y56.773 E0.04675
G1 X51.031 Y57.544 E0.04192
G1 X51.010 Y58.227 E0.03709
G1 X50.940 Y58.995 E0.04192
G1 X50.806 Y59.845 E0.04675
G1 X50.657 Y60.511 E0.03709
G1 X50.444 Y61.253 E0.04192
G1 X50.153 Y62.062 E0.04675
G1 X49.882 Y62.689 E0.03709
G1 X49.534 Y63.378 E0.04192
G1 X49.096 Y64.118 E0.04675
G1 X48.712 Y64.683 E0.03709
G1 X48.241 Y65.294 E0.04192
G1 X47.672 Y65.940 E0.04676
G1 X47.125 Y66.483 E0.04191
G1 X46.613 Y66.935 E0.03709
G1 X45.933 Y67.462 E0.04675
G1 X45.368 Y67.846 E0.03709
G1 X44.706 Y68.241 E0.04192
G1 X43.939 Y68.632 E0.04675
G1 X43.312 Y68.903 E0.03709
G1 X42.587 Y69.167 E0.04192
G1 X41.761 Y69.407 E0.04675
G1 X40.655 Y69.640 E0.06144
G1 X40.655 Y70.360 E0.03916
G1 X41.847 Y70.615 E0.06627
G1 X42.587 Y70.833 E0.04192
G1 X43.312 Y71.097 E0.04192
G1 X44.019 Y71.406 E0.04192
G1 X44.706 Y71.759 E0.04192
G1 X45.368 Y72.154 E0.04191
G1 X46.005 Y72.590 E0.04192
G1 X46.544 Y73.009 E0.03709
G1 X47.125 Y73.517 E0.04192
G1 X47.733 Y74.125 E0.04675
G1 X48.185 Y74.637 E0.03709
G1 X48.660 Y75.245 E0.04193
G1 X49.143 Y75.957 E0.04675
G1 X49.534 Y76.622 E0.04192
G1 X49.844 Y77.231 E0.03709
G1 X50.185 Y78.020 E0.04675
G1 X50.444 Y78.747 E0.04192
G1 X50.635 Y79.403 E0.03709
G1 X50.806 Y80.155 E0.04191
G1 X50.929 Y80.917 E0.04192
G1 X51.010 Y81.773 E0.04675
G1 X51.031 Y82.544 E0.04192
G1 X51.010 Y83.227 E0.03709
G1 X50.940 Y83.995 E0.04192
G1 X50.834 Y84.686 E0.03797
G1 X50.635 Y85.597 E0.05070
G1 X50.417 Y86.337 E0.04192
G1 X50.185 Y86.980 E0.03709
G1 X49.910 Y87.622 E0.03797
G1 X49.534 Y88.378 E0.04587
G1 X49.143 Y89.043 E0.04192
G1 X48.712 Y89.683 E0.04192
G1 X48.185 Y90.363 E0.04675
G1 X47.672 Y90.940 E0.04192
G1 X47.125 Y91.483 E0.04191
G1 X46.544 Y91.991 E0.04193
G1 X45.873 Y92.503 E0.04586
G1 X45.293 Y92.893 E0.03797
G1 X44.706 Y93.241 E0.03709
G1 X44.019 Y93.594 E0.04192
G1 X43.312 Y93.903 E0.04192
G1 X42.587 Y94.167 E0.04192
G1 X41.847 Y94.385 E0.04192
G1 X41.095 Y94.556 E0.04192
G1 X40.245 Y94.690 E0.04675
G1 X39.477 Y94.760 E0.04192
G1 X38.794 Y94.781 E0.03709
G1 X37.934 Y94.754 E0.04675
G1 X37.255 Y94.690 E0.03709
G1 X36.492 Y94.572 E0.04192
G1 X35.653 Y94.385 E0.04674
G1 X34.997 Y94.194 E0.03709
G1 X34.270 Y93.935 E0.04192
G1 X33.481 Y93.594 E0.04675
G1 X32.794 Y93.241 E0.04192
G1 X32.132 Y92.846 E0.04192
G1 X31.495 Y92.410 E0.04192
G1 X30.956 Y91.991 E0.03709
G1 X30.310 Y91.422 E0.04675
G1 X29.828 Y90.940 E0.03709
G1 X29.315 Y90.363 E0.04192
G1 X28.788 Y89.683 E0.04676
G1 X28.404 Y89.118 E0.03709
G1 X28.009 Y88.456 E0.04191
G1 X27.656 Y87.769 E0.04192
G1 X27.347 Y87.062 E0.04192
G1 X27.056 Y86.253 E0.04675
G1 X26.843 Y85.511 E0.04192
G1 X26.694 Y84.845 E0.03709
G1 X26.560 Y83.995 E0.04675
G1 X26.490 Y83.227 E0.04192
G1 X26.468 Y82.456 E0.04192
G1 X26.490 Y81.773 E0.03709
G1 X26.560 Y81.005 E0.04192
G1 X26.694 Y80.155 E0.04675
G1 X26.843 Y79.489 E0.03709
G1 X27.056 Y78.747 E0.04192
G1 X27.315 Y78.020 E0.04192
G1 X27.618 Y77.311 E0.04192
G1 X28.009 Y76.544 E0.04675
G1 X28.357 Y75.957 E0.03709
G1 X28.788 Y75.317 E0.04192
G1 X29.315 Y74.637 E0.04675
G1 X29.828 Y74.060 E0.04192
G1 X30.375 Y73.517 E0.04191
G1 X30.887 Y73.065 E0.03709
G1 X31.495 Y72.590 E0.04192
G1 X32.207 Y72.107 E0.04675
G1 X32.794 Y71.759 E0.03709
G1 X33.481 Y71.406 E0.04192
G1 X34.270 Y71.065 E0.04675
G1 X34.997 Y70.806 E0.04192
G1 X35.653 Y70.615 E0.03709
G1 X36.845 Y70.360 E0.06627
G1 X36.845 Y69.640 E0.03916
G1 X35.739 Y69.407 E0.06144
G1 X34.913 Y69.167 E0.04675
G1 X34.187 Y68.903 E0.04192
G1 X33.561 Y68.632 E0.03709
G1 X32.872 Y68.284 E0.04192
G1 X32.132 Y67.846 E0.04675
G1 X31.495 Y67.410 E0.04192
G1 X30.887 Y66.935 E0.04193
G1 X30.375 Y66.483 E0.03709
G1 X29.828 Y65.940 E0.04192
G1 X29.315 Y65.363 E0.04192
G1 X28.840 Y64.755 E0.04193
G1 X28.404 Y64.118 E0.04192
G1 X27.966 Y63.378 E0.04675
G1 X27.618 Y62.689 E0.04192
G1 X27.315 Y61.980 E0.04192
G1 X27.056 Y61.253 E0.04192
G1 X26.843 Y60.511 E0.04192
G1 X26.694 Y59.845 E0.03709
G1 X26.571 Y59.083 E0.04192
G1 X26.490 Y58.227 E0.04675
G1 X26.468 Y57.456 E0.04192
G1 X26.490 Y56.773 E0.03709
G1 X26.560 Y56.005 E0.04192
G1 X26.678 Y55.242 E0.04192
G1 X26.843 Y54.489 E0.04192
G1 X27.056 Y53.747 E0.04192
G1 X27.347 Y52.938 E0.04675
G1 X27.656 Y52.231 E0.04192
G1 X28.009 Y51.544 E0.04192
G1 X28.357 Y50.957 E0.03709
G1 X28.747 Y50.377 E0.03796
G1 X29.259 Y49.706 E0.04587
G1 X29.767 Y49.125 E0.04193
G1 X30.375 Y48.517 E0.04674
G1 X30.956 Y48.009 E0.04193
G1 X31.495 Y47.590 E0.03709
G1 X31.961 Y47.270 E0.03070
G1 X32.206 Y47.631 F9000.000
G1 X33.010 Y47.138 E0.05127 F1200.000
G1 X33.672 Y46.798 E0.04043
G1 X34.354 Y46.500 E0.04043
G1 X35.125 Y46.222 E0.04452
G1 X35.905 Y46.003 E0.04401
G1 X36.567 Y45.857 E0.03685
G1 X37.228 Y45.752 E0.03635
G1 X38.044 Y45.675 E0.04452
G1 X38.854 Y45.656 E0.04401
G1 X39.531 Y45.680 E0.03685 F1200.000
G1 X40.197 Y45.743 E0.03635
G1 X41.007 Y45.871 E0.04452
G1 X41.660 Y46.017 E0.03635
G1 X42.375 Y46.222 E0.04043
G1 X43.146 Y46.500 E0.04452
G1 X43.828 Y46.798 E0.04043
G1 X44.424 Y47.101 E0.03635
G1 X45.129 Y47.518 E0.04452
G1 X45.682 Y47.894 E0.03635
G1 X46.272 Y48.349 E0.04044
G1 X46.832 Y48.839 E0.04043
G1 X47.411 Y49.418 E0.04452
G1 X47.901 Y49.978 E0.04043
G1 X48.311 Y50.507 E0.03635
G1 X48.732 Y51.121 E0.04043
G1 X49.149 Y51.826 E0.04452
G1 X49.484 Y52.490 E0.04043
G1 X49.778 Y53.174 E0.04043
G1 X50.004 Y53.804 E0.03635
G1 X50.233 Y54.591 E0.04452
G1 X50.393 Y55.317 E0.04043
G1 X50.498 Y55.978 E0.03634
G1 X50.570 Y56.719 E0.04044
G1 X50.596 Y57.538 E0.04452
G1 X50.570 Y58.281 E0.04043
G1 X50.507 Y58.947 E0.03635
G1 X50.379 Y59.757 E0.04452
G1 X50.233 Y60.410 E0.03635
G1 X50.028 Y61.125 E0.04043
G1 X49.750 Y61.896 E0.04452
G1 X49.452 Y62.578 E0.04044
