; generated by Slic3r 1.2.9 on 2017-10-21 at 13:17:53

; external perimeters extrusion width = 0.30mm
; perimeters extrusion width = 0.30mm
; infill extrusion width = 0.30mm
; solid infill extrusion width = 0.30mm
; top infill extrusion width = 0.30mm

M107
M190 S57 ; set bed temperature
;G28								; home all axes (if axis shifting bug is fixed!)
;G32								; execute bed Z-plane  compensation at bed.g 4 points
G10 P0 X-16 Y-3 Z0.0 S-273 R-273		; set extruder x,y offsets
M83								; set extruder to relative mode
G10 P0 S195 R-273					; Set tool 0 operating and standby temperatures
T0									; select tool ZERO




G21 ; set units to millimeters
G90 ; use absolute coordinates
M83 ; use relative distances for extrusion
G1 E-3.50000 F2400.00000
G1 Z0.300 F9000.000
G1 X21.343 Y28.447 F9000.000
G1 E3.50000 F2400.00000
G1 X22.498 Y27.632 E0.07684 F1200.000
G1 X22.958 Y27.335 E0.02971
G1 X23.659 Y26.911 E0.04451
G1 X24.819 Y26.276 E0.07189
G1 X25.984 Y25.712 E0.07030
G1 X26.547 Y25.464 E0.03345
G1 X27.150 Y25.214 E0.03546
G1 X28.319 Y24.775 E0.06784
G1 X29.492 Y24.389 E0.06708
G1 X30.139 Y24.197 E0.03667
G1 X31.338 Y23.881 E0.06736
G1 X32.540 Y23.611 E0.06692
G1 X33.742 Y23.386 E0.06649
G1 X34.947 Y23.202 E0.06619
G1 X36.153 Y23.060 E0.06598
G1 X37.360 Y22.957 E0.06581
G1 X38.566 Y22.892 E0.06567
G1 X40.000 Y22.864 E0.07790
G1 X100.226 Y22.866 E3.27224
G1 X102.182 Y22.928 E0.10636 F1200.000
G1 X103.383 Y23.015 E0.06543
G1 X104.581 Y23.142 E0.06544
G1 X105.775 Y23.307 E0.06550
G1 X106.965 Y23.513 E0.06560
G1 X108.151 Y23.761 E0.06579
G1 X109.332 Y24.052 E0.06611
G1 X110.508 Y24.389 E0.06646
G1 X111.681 Y24.775 E0.06709
G1 X112.850 Y25.214 E0.06784
G1 X114.016 Y25.712 E0.06891
G1 X114.649 Y26.010 E0.03803
G1 X115.844 Y26.629 E0.07313
G1 X117.042 Y27.335 E0.07553
G1 X117.501 Y27.632 E0.02970
G1 X118.656 Y28.447 E0.07680
G1 X119.801 Y29.372 E0.07998
G1 X120.593 Y30.094 E0.05822
G1 X120.933 Y30.427 E0.02584
G1 X121.737 Y31.283 E0.06379
G1 X122.033 Y31.626 E0.02464
G1 X122.832 Y32.636 E0.07001
G1 X123.085 Y32.987 E0.02349
G1 X123.852 Y34.171 E0.07665
G1 X124.060 Y34.529 E0.02247
G1 X124.758 Y35.891 E0.08315
G1 X124.920 Y36.254 E0.02160
G1 X125.501 Y37.782 E0.08884
G1 X125.618 Y38.148 E0.02090
G1 X126.041 Y39.830 E0.09423
G1 X126.111 Y40.200 E0.02043
G1 X126.334 Y41.973 E0.09712
G1 X126.357 Y42.344 E0.02017
G1 X126.368 Y43.968 E0.08823
G1 X123.849 Y94.561 E2.75229
G1 X123.747 Y95.793 E0.06715
G1 X123.633 Y96.693 E0.04928
G1 X123.371 Y98.170 E0.08152
G1 X123.016 Y99.627 E0.08151
G1 X122.570 Y101.060 E0.08152
G1 X122.035 Y102.462 E0.08152
G1 X121.413 Y103.827 E0.08152
G1 X120.706 Y105.151 E0.08152
G1 X120.404 Y105.662 E0.03226
G1 X119.585 Y106.919 E0.08151
G1 X118.688 Y108.121 E0.08151
G1 X117.717 Y109.266 E0.08156
G1 X117.096 Y109.926 E0.04924
G1 X116.016 Y110.967 E0.08149
G1 X114.871 Y111.938 E0.08156
G1 X113.669 Y112.835 E0.08151
G1 X112.412 Y113.654 E0.08151
G1 X111.901 Y113.956 E0.03226
G1 X111.106 Y114.393 E0.04927
G1 X109.757 Y115.049 E0.08151
G1 X108.369 Y115.619 E0.08153
G1 X106.948 Y116.100 E0.08151
G1 X105.500 Y116.491 E0.08150
G1 X104.920 Y116.621 E0.03228
G1 X103.443 Y116.883 E0.08152
G1 X101.952 Y117.053 E0.08152
G1 X101.047 Y117.110 E0.04926
G1 X100.000 Y117.136 E0.05690
G1 X70.000 Y117.136 E1.62999
G1 X68.953 Y117.110 E0.05690
G1 X67.457 Y116.997 E0.08151
G1 X66.557 Y116.883 E0.04928
G1 X65.080 Y116.621 E0.08152
G1 X63.623 Y116.266 E0.08148
G1 X63.052 Y116.100 E0.03229
G1 X62.190 Y115.820 E0.04928
G1 X60.788 Y115.285 E0.08152
G1 X59.423 Y114.663 E0.08153
G1 X58.099 Y113.957 E0.08149
G1 X57.588 Y113.654 E0.03228
G1 X56.332 Y112.835 E0.08151
G1 X55.598 Y112.302 E0.04924
G1 X54.735 Y111.621 E0.05974
G1 X24.735 Y86.621 E2.12177
G1 X23.985 Y85.967 E0.05409
G1 X23.324 Y85.346 E0.04927
G1 X22.283 Y84.265 E0.08151
G1 X21.312 Y83.121 E0.08153
G1 X20.415 Y81.918 E0.08152
G1 X19.596 Y80.662 E0.08150
G1 X19.294 Y80.151 E0.03226
G1 X18.600 Y78.852 E0.07998
G1 X17.965 Y77.462 E0.08306
G1 X17.430 Y76.060 E0.08152
G1 X16.984 Y74.627 E0.08152
G1 X16.629 Y73.169 E0.08153
G1 X16.460 Y72.279 E0.04926
G1 X16.259 Y70.854 E0.07818
G1 X13.708 Y45.040 E1.40938
G1 X13.643 Y44.156 E0.04818
G1 X13.643 Y42.344 E0.09845
G1 X13.666 Y41.973 E0.02017
G1 X13.889 Y40.199 E0.09714
G1 X13.959 Y39.830 E0.02042
G1 X14.382 Y38.149 E0.09423
G1 X14.499 Y37.782 E0.02090
G1 X15.080 Y36.253 E0.08885
G1 X15.242 Y35.890 E0.02160
G1 X15.940 Y34.529 E0.08314
G1 X16.148 Y34.171 E0.02247
G1 X16.915 Y32.987 E0.07664
G1 X17.168 Y32.636 E0.02353
G1 X17.967 Y31.625 E0.06998
G1 X18.264 Y31.282 E0.02464
G1 X19.067 Y30.427 E0.06378
G1 X19.407 Y30.094 E0.02584
G1 X20.199 Y29.372 E0.05822
G1 X21.308 Y28.475 E0.07750
G1 E-3.50000 F2400.00000
G1 X27.410 Y36.768 F9000.000
G1 E3.50000 F2400.00000
G1 X28.024 Y36.321 E0.04126 F1200.000
G1 X28.687 Y35.897 E0.04274
G1 X29.377 Y35.510 E0.04298
G1 X30.092 Y35.155 E0.04336
G1 X30.830 Y34.832 E0.04380
G1 X31.591 Y34.539 E0.04429
G1 X32.293 Y34.300 E0.04030
G1 X33.097 Y34.061 E0.04555
G1 X33.990 Y33.833 E0.05011
G1 X34.824 Y33.654 E0.04631
G1 X35.670 Y33.503 E0.04673
G1 X36.528 Y33.379 E0.04711
G1 X37.396 Y33.283 E0.04743
G1 X38.205 Y33.219 E0.04410
G1 X39.085 Y33.177 E0.04787
G1 X40.032 Y33.162 E0.05146
G1 X40.850 Y33.174 E0.04441
G1 X41.729 Y33.215 E0.04784
G1 X42.604 Y33.283 E0.04767
G1 X43.539 Y33.388 E0.05114
G1 X44.399 Y33.514 E0.04721
G1 X45.177 Y33.654 E0.04294
G1 X46.010 Y33.833 E0.04631
G1 X46.828 Y34.040 E0.04583
G1 X47.628 Y34.275 E0.04532
G1 X48.409 Y34.539 E0.04481
G1 X49.170 Y34.832 E0.04428
G1 X49.908 Y35.155 E0.04380
G1 X50.623 Y35.510 E0.04335
G1 X51.313 Y35.897 E0.04298
G1 X51.976 Y36.321 E0.04274
G1 X52.610 Y36.782 E0.04261
G1 X53.212 Y37.286 E0.04266
G1 X53.780 Y37.835 E0.04293
G1 X54.308 Y38.434 E0.04337
G1 X54.777 Y39.071 E0.04300
G1 X55.223 Y39.071 E0.02425
G1 X55.692 Y38.434 E0.04301
G1 X56.220 Y37.835 E0.04336
G1 X56.788 Y37.286 E0.04293
G1 X57.390 Y36.782 E0.04264
G1 X57.919 Y36.393 E0.03567
G1 X58.587 Y35.958 E0.04330
G1 X59.377 Y35.510 E0.04936
G1 X60.092 Y35.155 E0.04336
G1 X60.830 Y34.832 E0.04380
G1 X61.508 Y34.569 E0.03952
G1 X62.293 Y34.300 E0.04507
G1 X63.172 Y34.040 E0.04982
G1 X63.990 Y33.833 E0.04584
G1 X64.752 Y33.668 E0.04238
G1 X65.670 Y33.503 E0.05066
G1 X66.528 Y33.379 E0.04711
G1 X67.330 Y33.290 E0.04381
G1 X68.271 Y33.215 E0.05130
G1 X69.085 Y33.177 E0.04430
G1 X69.967 Y33.162 E0.04794
G1 X70.915 Y33.177 E0.05148
G1 X71.729 Y33.215 E0.04429
G1 X72.604 Y33.283 E0.04767
G1 X73.471 Y33.379 E0.04743
G1 X74.399 Y33.514 E0.05091
G1 X75.248 Y33.668 E0.04687
G1 X76.010 Y33.833 E0.04238
G1 X76.828 Y34.040 E0.04583
G1 X77.628 Y34.275 E0.04532
G1 X78.409 Y34.539 E0.04481
G1 X79.170 Y34.832 E0.04428
G1 X79.999 Y35.198 E0.04925
G1 X80.718 Y35.560 E0.04376
G1 X81.413 Y35.958 E0.04351
G1 X82.081 Y36.393 E0.04329
G1 X82.610 Y36.782 E0.03567
G1 X83.212 Y37.286 E0.04266
G1 X83.780 Y37.835 E0.04293
G1 X84.308 Y38.434 E0.04337
G1 X84.777 Y39.071 E0.04300
G1 X85.223 Y39.071 E0.02425
G1 X85.692 Y38.434 E0.04301
G1 X86.220 Y37.835 E0.04336
G1 X86.788 Y37.286 E0.04293
G1 X87.390 Y36.782 E0.04264
G1 X88.024 Y36.321 E0.04261
G1 X88.687 Y35.897 E0.04274
G1 X89.377 Y35.510 E0.04298
G1 X90.001 Y35.198 E0.03790
G1 X90.830 Y34.832 E0.04926
G1 X91.591 Y34.539 E0.04429
G1 X92.372 Y34.275 E0.04480
G1 X93.097 Y34.061 E0.04105
G1 X93.917 Y33.850 E0.04601
G1 X94.824 Y33.654 E0.05041
G1 X95.670 Y33.503 E0.04673
G1 X96.461 Y33.388 E0.04341
G1 X97.396 Y33.283 E0.05113
G1 X98.271 Y33.215 E0.04767
G1 X99.085 Y33.177 E0.04430
G1 X100.102 Y33.163 E0.05523
G1 X101.729 Y33.215 E0.08847 F1200.000
G1 X102.670 Y33.290 E0.05130
G1 X103.471 Y33.379 E0.04380
G1 X104.330 Y33.503 E0.04711
G1 X105.177 Y33.654 E0.04674
G1 X106.083 Y33.850 E0.05040
G1 X106.903 Y34.061 E0.04600
G1 X107.628 Y34.275 E0.04105
G1 X108.409 Y34.539 E0.04481
G1 X109.170 Y34.832 E0.04428
G1 X109.999 Y35.198 E0.04925
G1 X110.623 Y35.510 E0.03790
G1 X111.313 Y35.897 E0.04298
G1 X111.976 Y36.321 E0.04274
G1 X112.610 Y36.782 E0.04261
G1 X113.212 Y37.286 E0.04266
G1 X113.780 Y37.835 E0.04293
G1 X114.308 Y38.434 E0.04337
G1 X114.788 Y39.087 E0.04403
G1 X115.212 Y39.796 E0.04491
G1 X115.567 Y40.562 E0.04585
G1 X115.839 Y41.378 E0.04676
G1 X115.900 Y41.620 E0.01352
G1 X116.049 Y42.492 E0.04806
G1 X116.088 Y43.380 E0.04831
G1 X116.049 Y44.008 E0.03419
G1 X115.900 Y44.880 E0.04807
G1 X115.650 Y45.719 E0.04753
G1 X115.312 Y46.508 E0.04667
G1 X114.898 Y47.243 E0.04584
G1 X114.422 Y47.921 E0.04499
G1 X113.895 Y48.542 E0.04426
G1 X113.326 Y49.111 E0.04373
G1 X112.719 Y49.631 E0.04342
G1 X112.081 Y50.107 E0.04325
G1 X111.413 Y50.542 E0.04330
G1 X110.718 Y50.940 E0.04350
G1 X109.999 Y51.302 E0.04376
G1 X109.170 Y51.668 E0.04926
G1 X108.409 Y51.961 E0.04428
G1 X107.628 Y52.225 E0.04483
G1 X106.828 Y52.460 E0.04529
G1 X106.010 Y52.667 E0.04584
G1 X105.247 Y52.832 E0.04239
G1 X104.399 Y52.986 E0.04687
G1 X103.539 Y53.112 E0.04719
G1 X102.670 Y53.210 E0.04751
G1 X101.729 Y53.285 E0.05130
G1 X100.849 Y53.326 E0.04785
G1 X100.032 Y53.338 E0.04440
G1 X99.151 Y53.326 E0.04792
G1 X98.271 Y53.285 E0.04785
G1 X97.330 Y53.210 E0.05129
G1 X96.529 Y53.121 E0.04380
G1 X95.670 Y52.997 E0.04712
G1 X94.824 Y52.846 E0.04671
G1 X93.990 Y52.667 E0.04634
G1 X93.172 Y52.460 E0.04584
G1 X92.372 Y52.225 E0.04529
G1 X91.591 Y51.961 E0.04483
G1 X90.830 Y51.668 E0.04428
G1 X90.091 Y51.345 E0.04381
G1 X89.377 Y50.990 E0.04335
G1 X88.687 Y50.603 E0.04298
G1 X88.024 Y50.179 E0.04274
G1 X87.390 Y49.718 E0.04260
G1 X86.788 Y49.214 E0.04266
G1 X86.220 Y48.665 E0.04293
G1 X85.692 Y48.066 E0.04336
G1 X85.223 Y47.429 E0.04301
G1 X84.777 Y47.429 E0.02425
G1 X84.308 Y48.066 E0.04301
G1 X83.780 Y48.665 E0.04336
G1 X83.212 Y49.214 E0.04293
G1 X82.610 Y49.718 E0.04265
G1 X82.081 Y50.107 E0.03567
G1 X81.413 Y50.542 E0.04330
G1 X80.623 Y50.990 E0.04936
G1 X79.909 Y51.345 E0.04335
G1 X79.170 Y51.668 E0.04381
G1 X78.492 Y51.931 E0.03952
G1 X77.707 Y52.200 E0.04506
G1 X76.828 Y52.460 E0.04981
G1 X76.010 Y52.667 E0.04584
G1 X75.247 Y52.832 E0.04239
G1 X74.330 Y52.997 E0.05066
G1 X73.471 Y53.121 E0.04712
G1 X72.670 Y53.210 E0.04380
G1 X71.729 Y53.285 E0.05130
G1 X70.849 Y53.326 E0.04785
G1 X70.032 Y53.338 E0.04440
G1 X69.085 Y53.324 E0.05147
G1 X68.271 Y53.285 E0.04430
G1 X67.396 Y53.217 E0.04767
G1 X66.529 Y53.121 E0.04742
G1 X65.601 Y52.986 E0.05091
G1 X64.753 Y52.832 E0.04687
G1 X63.990 Y52.667 E0.04239
G1 X63.172 Y52.460 E0.04584
G1 X62.372 Y52.225 E0.04529
G1 X61.591 Y51.961 E0.04483
G1 X60.830 Y51.668 E0.04428
G1 X60.001 Y51.302 E0.04926
G1 X59.282 Y50.940 E0.04376
G1 X58.587 Y50.542 E0.04350
G1 X57.919 Y50.107 E0.04330
G1 X57.390 Y49.718 E0.03566
G1 X56.788 Y49.214 E0.04266
G1 X56.220 Y48.665 E0.04293
G1 X55.692 Y48.066 E0.04336
G1 X55.223 Y47.429 E0.04301
G1 X54.777 Y47.429 E0.02425
G1 X54.308 Y48.066 E0.04301
G1 X53.780 Y48.665 E0.04336
G1 X53.326 Y49.111 E0.03459
G1 X52.610 Y49.718 E0.05099
G1 X51.976 Y50.179 E0.04261
G1 X51.413 Y50.542 E0.03637
G1 X50.623 Y50.990 E0.04936
G1 X49.909 Y51.345 E0.04335
G1 X49.256 Y51.633 E0.03872
G1 X48.409 Y51.961 E0.04937
G1 X47.628 Y52.225 E0.04483
G1 X46.903 Y52.439 E0.04104
G1 X46.010 Y52.667 E0.05009
G1 X45.176 Y52.846 E0.04634
G1 X44.399 Y52.986 E0.04292
G1 X43.471 Y53.121 E0.05090
G1 X42.604 Y53.217 E0.04742
G1 X41.729 Y53.285 E0.04768
G1 X40.849 Y53.326 E0.04785
G1 X40.032 Y53.338 E0.04440
G1 X39.151 Y53.326 E0.04792
G1 X38.271 Y53.285 E0.04785
G1 X37.330 Y53.210 E0.05129
G1 X36.529 Y53.121 E0.04380
G1 X35.670 Y52.997 E0.04712
G1 X34.753 Y52.832 E0.05066
G1 X33.916 Y52.650 E0.04650
G1 X33.172 Y52.460 E0.04173
G1 X32.372 Y52.225 E0.04529
G1 X31.591 Y51.961 E0.04483
G1 X30.830 Y51.668 E0.04428
G1 X30.091 Y51.345 E0.04381
G1 X29.377 Y50.990 E0.04335
G1 X28.687 Y50.603 E0.04298
G1 X28.024 Y50.179 E0.04274
G1 X27.390 Y49.718 E0.04260
G1 X26.788 Y49.214 E0.04266
G1 X26.220 Y48.665 E0.04293
G1 X25.692 Y48.066 E0.04336
G1 X25.212 Y47.413 E0.04405
G1 X24.688 Y46.508 E0.05681
G1 X24.350 Y45.719 E0.04666
G1 X24.161 Y45.121 E0.03404
G1 X23.983 Y44.263 E0.04764
G1 X23.951 Y44.008 E0.01394
G1 X23.912 Y43.380 E0.03421
G1 X23.951 Y42.492 E0.04830
G1 X23.983 Y42.237 E0.01394
G1 X24.161 Y41.378 E0.04765
G1 X24.350 Y40.781 E0.03403
G1 X24.688 Y39.992 E0.04666
G1 X25.212 Y39.087 E0.05682
G1 X25.692 Y38.434 E0.04405
G1 X26.220 Y37.835 E0.04336
G1 X26.788 Y37.286 E0.04293
G1 X27.374 Y36.795 E0.04155
G1 X27.644 Y37.137 F9000.000
G1 X28.266 Y36.683 E0.04181 F1200.000
G1 X28.907 Y36.273 E0.04137
G1 X29.577 Y35.897 E0.04172
G1 X30.272 Y35.551 E0.04219
G1 X30.992 Y35.236 E0.04271
G1 X31.735 Y34.950 E0.04327
G1 X32.429 Y34.714 E0.03981
G1 X33.216 Y34.480 E0.04462
G1 X34.086 Y34.258 E0.04879
G1 X34.904 Y34.082 E0.04547
G1 X35.736 Y33.933 E0.04592
G1 X36.520 Y33.819 E0.04301
G1 X37.375 Y33.723 E0.04673
G1 X38.295 Y33.650 E0.05016
G1 X39.161 Y33.610 E0.04710
G1 X40.029 Y33.597 E0.04717
G1 X40.839 Y33.610 E0.04404
G1 X41.764 Y33.654 E0.05029
G1 X42.625 Y33.723 E0.04696
G1 X43.420 Y33.812 E0.04342
G1 X44.263 Y33.933 E0.04633
G1 X45.096 Y34.082 E0.04593
G1 X45.914 Y34.258 E0.04547
G1 X46.716 Y34.461 E0.04496
G1 X47.571 Y34.714 E0.04844
G1 X48.339 Y34.976 E0.04408
G1 X49.085 Y35.268 E0.04355
G1 X49.809 Y35.590 E0.04304
G1 X50.508 Y35.942 E0.04255
G1 X51.182 Y36.328 E0.04219
G1 X51.734 Y36.683 E0.03566
G1 X52.346 Y37.129 E0.04111
G1 X53.027 Y37.706 E0.04848
G1 X53.572 Y38.249 E0.04185
G1 X54.074 Y38.841 E0.04219
G1 X54.428 Y39.333 E0.03290
G1 X54.749 Y39.868 E0.03390
G1 X55.251 Y39.868 E0.02724
G1 X55.572 Y39.333 E0.03389
G1 X55.926 Y38.841 E0.03291
G1 X56.428 Y38.249 E0.04218
G1 X56.973 Y37.706 E0.04185
G1 X57.654 Y37.129 E0.04848
G1 X58.266 Y36.683 E0.04112
G1 X58.907 Y36.273 E0.04137
G1 X59.491 Y35.942 E0.03647
G1 X60.272 Y35.551 E0.04743
G1 X60.992 Y35.236 E0.04271
G1 X61.661 Y34.976 E0.03900
G1 X62.500 Y34.691 E0.04811
G1 X63.284 Y34.461 E0.04441
G1 X64.021 Y34.273 E0.04130
G1 X64.904 Y34.082 E0.04914
G1 X65.736 Y33.933 E0.04592
G1 X66.520 Y33.819 E0.04301
G1 X67.434 Y33.717 E0.04998
G1 X68.295 Y33.650 E0.04691
G1 X69.102 Y33.612 E0.04392
G1 X70.029 Y33.597 E0.05034
G1 X70.839 Y33.610 E0.04404
G1 X71.705 Y33.650 E0.04709
G1 X72.625 Y33.723 E0.05016
G1 X73.420 Y33.812 E0.04342
G1 X74.263 Y33.933 E0.04633
G1 X75.159 Y34.095 E0.04945
G1 X75.980 Y34.273 E0.04562
G1 X76.716 Y34.461 E0.04130
G1 X77.500 Y34.691 E0.04441
G1 X78.265 Y34.950 E0.04385
G1 X79.008 Y35.236 E0.04326
G1 X79.728 Y35.551 E0.04271
G1 X80.423 Y35.897 E0.04218
G1 X81.092 Y36.273 E0.04172
G1 X81.734 Y36.683 E0.04137
G1 X82.346 Y37.129 E0.04111
G1 X83.027 Y37.706 E0.04848
G1 X83.572 Y38.249 E0.04185
G1 X84.074 Y38.841 E0.04219
G1 X84.428 Y39.333 E0.03290
G1 X84.749 Y39.868 E0.03390
G1 X85.251 Y39.868 E0.02724
G1 X85.572 Y39.333 E0.03389
G1 X85.926 Y38.841 E0.03291
G1 X86.428 Y38.249 E0.04218
G1 X86.973 Y37.706 E0.04185
G1 X87.556 Y37.206 E0.04170
G1 X88.172 Y36.748 E0.04169
G1 X88.907 Y36.273 E0.04758
G1 X89.577 Y35.897 E0.04172
G1 X90.272 Y35.551 E0.04219
G1 X90.915 Y35.268 E0.03816
G1 X91.661 Y34.976 E0.04355
G1 X92.500 Y34.691 E0.04811
G1 X93.284 Y34.461 E0.04441
G1 X94.021 Y34.273 E0.04130
G1 X94.904 Y34.082 E0.04914
G1 X95.736 Y33.933 E0.04592
G1 X96.520 Y33.819 E0.04301
G1 X97.434 Y33.717 E0.04998
G1 X98.295 Y33.650 E0.04691
G1 X99.102 Y33.612 E0.04392
G1 X100.029 Y33.597 E0.05034
G1 X100.839 Y33.610 E0.04404 F1200.000
G1 X101.705 Y33.650 E0.04709
G1 X102.566 Y33.717 E0.04692
G1 X103.420 Y33.812 E0.04666
G1 X104.325 Y33.943 E0.04973
G1 X105.096 Y34.082 E0.04253
G1 X105.914 Y34.258 E0.04547
G1 X106.716 Y34.461 E0.04496
G1 X107.571 Y34.714 E0.04844
G1 X108.339 Y34.976 E0.04408
G1 X109.008 Y35.236 E0.03900
G1 X109.728 Y35.551 E0.04271
G1 X110.423 Y35.897 E0.04218
G1 X111.092 Y36.273 E0.04172
G1 X111.734 Y36.683 E0.04137
G1 X112.444 Y37.206 E0.04789
G1 X113.027 Y37.706 E0.04170
G1 X113.572 Y38.249 E0.04185
G1 X114.074 Y38.841 E0.04219
G1 X114.527 Y39.485 E0.04273
G1 X114.919 Y40.180 E0.04338
G1 X115.239 Y40.925 E0.04402
G1 X115.420 Y41.498 E0.03265
G1 X115.586 Y42.305 E0.04478
G1 X115.653 Y43.134 E0.04517
G1 X115.653 Y43.366 E0.01264
G1 X115.586 Y44.195 E0.04518
G1 X115.475 Y44.787 E0.03270
G1 X115.239 Y45.575 E0.04473
