; generated by Slic3r 1.2.9 on 2017-06-08 at 21:04:17

; external perimeters extrusion width = 0.30mm
; perimeters extrusion width = 0.30mm
; infill extrusion width = 0.30mm
; solid infill extrusion width = 0.30mm
; top infill extrusion width = 0.30mm

M107
M190 S57 ; set bed temperature
G28								; home all axes (if axis shifting bug is fixed!)
G32								; execute bed Z-plane  compensation at bed.g 4 points
G10 P0 X-16 Y-3 Z0.0 S-273 R-273		; set extruder x,y offsets
M83								; set extruder to relative mode
G10 P0 S195 R160					; Set tool 0 operating and standby temperatures
T0									; select tool ZERO




G21 ; set units to millimeters
G90 ; use absolute coordinates
M83 ; use relative distances for extrusion
G1 E-3.50000 F2400.00000
G1 Z0.300 F9000.000
G1 X37.800 Y34.198 F9000.000
G1 E3.50000 F2400.00000
G1 X38.270 Y33.698 E0.03727 F1200.000
G1 X39.072 Y32.943 E0.05985
G1 X39.899 Y32.269 E0.05799
G1 X40.321 Y31.959 E0.02843
G1 X40.749 Y31.663 E0.02829
G1 X41.619 Y31.119 E0.05571
G1 X42.503 Y30.631 E0.05489
G1 X43.404 Y30.191 E0.05448
G1 X44.320 Y29.797 E0.05417
G1 X44.914 Y29.567 E0.03460
G1 X45.871 Y29.233 E0.05509
G1 X46.840 Y28.940 E0.05502
G1 X47.819 Y28.684 E0.05497
G1 X48.808 Y28.464 E0.05505
G1 X49.805 Y28.279 E0.05509
G1 X50.809 Y28.129 E0.05516
G1 X51.819 Y28.011 E0.05524
G1 X52.833 Y27.927 E0.05529
G1 X53.850 Y27.874 E0.05531
G1 X54.867 Y27.854 E0.05531
G1 X85.132 Y27.854 E1.64435
G1 X86.150 Y27.874 E0.05534 F1200.000
G1 X87.167 Y27.927 E0.05530
G1 X88.181 Y28.011 E0.05528
G1 X89.191 Y28.129 E0.05524
G1 X90.194 Y28.279 E0.05515
G1 X91.192 Y28.464 E0.05510
G1 X91.882 Y28.613 E0.03837
G1 X92.851 Y28.855 E0.05424
G1 X93.807 Y29.131 E0.05408
G1 X94.750 Y29.444 E0.05403
G1 X96.032 Y29.943 E0.07474
G1 X96.966 Y30.365 E0.05567
G1 X97.885 Y30.837 E0.05613
G1 X98.381 Y31.119 E0.03101
G1 X99.250 Y31.663 E0.05571
G1 X100.100 Y32.268 E0.05669
G1 X100.547 Y32.621 E0.03090
G1 X100.928 Y32.943 E0.02711
G1 X101.730 Y33.698 E0.05985
G1 X102.497 Y34.541 E0.06190
G1 X102.963 Y35.131 E0.04091
G1 X103.216 Y35.482 E0.02349
G1 X103.665 Y36.174 E0.04479
G1 X103.872 Y36.531 E0.02247
G1 X104.280 Y37.327 E0.04859
G1 X104.442 Y37.690 E0.02159
G1 X104.782 Y38.583 E0.05192
G1 X104.898 Y38.950 E0.02090
G1 X105.146 Y39.933 E0.05506
G1 X105.216 Y40.302 E0.02043
G1 X105.346 Y41.339 E0.05675
G1 X105.369 Y41.709 E0.02017
G1 X105.385 Y42.340 E0.03431
G1 X105.072 Y67.380 E1.36061
G1 X102.909 Y95.062 E1.50859
G1 X102.775 Y96.313 E0.06838
G1 X102.583 Y97.420 E0.06104
G1 X102.454 Y98.000 E0.03227
G1 X102.164 Y99.056 E0.05949
G1 X101.993 Y99.587 E0.03033
G1 X101.596 Y100.638 E0.06104
G1 X101.135 Y101.663 E0.06104
G1 X100.610 Y102.656 E0.06104
G1 X100.308 Y103.167 E0.03226
G1 X99.706 Y104.082 E0.05950
G1 X99.015 Y105.003 E0.06257
G1 X98.284 Y105.857 E0.06106
G1 X97.922 Y106.243 E0.02878
G1 X97.116 Y107.025 E0.06102
G1 X96.262 Y107.756 E0.06106
G1 X95.364 Y108.431 E0.06104
G1 X94.873 Y108.765 E0.03226
G1 X93.915 Y109.351 E0.06103
G1 X93.450 Y109.607 E0.02879
G1 X92.442 Y110.102 E0.06104
G1 X91.404 Y110.533 E0.06105
G1 X90.342 Y110.897 E0.06104
G1 X89.259 Y111.195 E0.06103
G1 X88.679 Y111.324 E0.03227
G1 X87.572 Y111.516 E0.06104
G1 X86.455 Y111.639 E0.06104
G1 X85.194 Y111.694 E0.06862
G1 X54.797 Y112.146 E1.65174
G1 X53.813 Y112.124 E0.05347
G1 X53.284 Y112.091 E0.02879
G1 X52.167 Y111.969 E0.06104
G1 X51.060 Y111.776 E0.06104
G1 X49.968 Y111.515 E0.06102
G1 X49.398 Y111.350 E0.03228
G1 X48.335 Y110.985 E0.06104
G1 X47.297 Y110.554 E0.06104
G1 X46.818 Y110.328 E0.02880
G1 X45.825 Y109.803 E0.06102
G1 X44.866 Y109.217 E0.06104
G1 X43.947 Y108.572 E0.06103
G1 X43.477 Y108.208 E0.03227
G1 X42.624 Y107.478 E0.06105
G1 X41.838 Y106.715 E0.05950
G1 X41.455 Y106.309 E0.03033
G1 X40.724 Y105.455 E0.06105
G1 X40.360 Y104.986 E0.03227
G1 X39.715 Y104.066 E0.06105
G1 X39.129 Y103.108 E0.06102
G1 X38.617 Y102.140 E0.05951
G1 X38.379 Y101.635 E0.03033
G1 X37.948 Y100.598 E0.06104
G1 X37.747 Y100.039 E0.03226
G1 X37.417 Y98.965 E0.06104
G1 X37.156 Y97.872 E0.06105
G1 X36.964 Y96.765 E0.06103
G1 X36.831 Y95.523 E0.06787
G1 X34.664 Y68.278 E1.48501
G1 X34.614 Y67.239 E0.05653
G1 X34.614 Y42.239 E1.35832
G1 X34.654 Y41.339 E0.04895
G1 X34.784 Y40.302 E0.05676
G1 X34.854 Y39.933 E0.02042
G1 X35.102 Y38.950 E0.05506
G1 X35.218 Y38.583 E0.02090
G1 X35.558 Y37.690 E0.05192
G1 X35.720 Y37.327 E0.02160
G1 X36.128 Y36.531 E0.04858
G1 X36.335 Y36.174 E0.02247
G1 X36.784 Y35.482 E0.04479
G1 X37.037 Y35.131 E0.02352
G1 X37.771 Y34.232 E0.06307
G1 E-3.50000 F2400.00000
G1 X41.679 Y37.614 F9000.000
G1 E3.50000 F2400.00000
G1 X42.273 Y37.011 E0.04600 F1200.000
G1 X42.832 Y36.532 E0.03998
G1 X43.425 Y36.092 E0.04012
G1 X44.128 Y35.638 E0.04548
G1 X44.777 Y35.272 E0.04046
G1 X45.453 Y34.936 E0.04102
G1 X46.086 Y34.657 E0.03761
G1 X46.815 Y34.373 E0.04250
G1 X47.627 Y34.097 E0.04664
G1 X48.395 Y33.871 E0.04349
G1 X49.182 Y33.671 E0.04410
G1 X49.929 Y33.510 E0.04153
G1 X50.748 Y33.361 E0.04522
G1 X51.632 Y33.233 E0.04854
G1 X52.472 Y33.140 E0.04590
G1 X53.267 Y33.077 E0.04334
G1 X54.171 Y33.034 E0.04917
G1 X55.025 Y33.021 E0.04643
G1 X55.829 Y33.034 E0.04366
G1 X56.733 Y33.077 E0.04916
G1 X57.528 Y33.140 E0.04334
G1 X58.368 Y33.233 E0.04589
G1 X59.197 Y33.352 E0.04554
G1 X60.071 Y33.510 E0.04823
G1 X60.876 Y33.685 E0.04476
G1 X61.604 Y33.871 E0.04086
G1 X62.373 Y34.097 E0.04350
G1 X63.120 Y34.349 E0.04288
G1 X63.914 Y34.657 E0.04626
G1 X64.619 Y34.970 E0.04191
G1 X65.223 Y35.272 E0.03671
G1 X65.872 Y35.638 E0.04046
G1 X66.492 Y36.034 E0.04000
G1 X67.082 Y36.464 E0.03962
G1 X67.637 Y36.929 E0.03938
G1 X68.248 Y37.530 E0.04655
G1 X68.727 Y38.092 E0.04012
G1 X69.155 Y38.701 E0.04046
G1 X69.447 Y39.203 E0.03151
G1 X69.718 Y39.786 E0.03493
G1 X70.282 Y39.786 E0.03069
G1 X70.553 Y39.203 E0.03493
G1 X70.931 Y38.567 E0.04019
G1 X71.364 Y37.978 E0.03972
G1 X71.843 Y37.433 E0.03942
G1 X72.273 Y37.011 E0.03275
G1 X72.832 Y36.532 E0.03998
G1 X73.508 Y36.034 E0.04560
G1 X74.128 Y35.638 E0.04000
G1 X74.701 Y35.312 E0.03583
G1 X75.453 Y34.936 E0.04564
G1 X76.154 Y34.629 E0.04162
G1 X76.880 Y34.349 E0.04225
G1 X77.565 Y34.116 E0.03933
G1 X78.395 Y33.871 E0.04705
G1 X79.182 Y33.671 E0.04410
G1 X79.929 Y33.510 E0.04153
G1 X80.803 Y33.352 E0.04822
G1 X81.632 Y33.233 E0.04554
G1 X82.472 Y33.140 E0.04590
G1 X83.319 Y33.074 E0.04616
G1 X84.120 Y33.036 E0.04355
G1 X85.088 Y33.022 E0.05263
G1 X86.681 Y33.074 E0.08660 F1200.000
G1 X87.528 Y33.140 E0.04616
G1 X88.368 Y33.233 E0.04589
G1 X89.252 Y33.361 E0.04854
G1 X90.015 Y33.499 E0.04212
G1 X90.818 Y33.671 E0.04464
G1 X91.604 Y33.871 E0.04409
G1 X92.435 Y34.116 E0.04706
G1 X93.185 Y34.373 E0.04309
G1 X93.846 Y34.629 E0.03848
G1 X94.547 Y34.936 E0.04162
G1 X95.223 Y35.272 E0.04101
G1 X95.872 Y35.638 E0.04046
G1 X96.492 Y36.034 E0.04000
G1 X97.082 Y36.464 E0.03962
G1 X97.637 Y36.929 E0.03938
G1 X98.157 Y37.433 E0.03933
G1 X98.636 Y37.978 E0.03942
G1 X99.069 Y38.567 E0.03971
G1 X99.447 Y39.203 E0.04018
G1 X99.761 Y39.884 E0.04075
G1 X100.001 Y40.605 E0.04132
G1 X100.156 Y41.361 E0.04192
G1 X100.217 Y42.136 E0.04223
G1 X100.217 Y42.341 E0.01116
G1 X100.156 Y43.116 E0.04223
G1 X100.001 Y43.872 E0.04192
G1 X99.827 Y44.420 E0.03127
G1 X99.526 Y45.120 E0.04139
G1 X99.155 Y45.776 E0.04092
G1 X98.727 Y46.385 E0.04046
G1 X98.248 Y46.947 E0.04013
G1 X97.727 Y47.466 E0.03996
G1 X97.168 Y47.945 E0.03999
G1 X96.575 Y48.386 E0.04012
G1 X95.872 Y48.839 E0.04547
G1 X95.223 Y49.205 E0.04046
G1 X94.547 Y49.541 E0.04101
G1 X93.914 Y49.820 E0.03761
G1 X93.185 Y50.104 E0.04250
G1 X92.372 Y50.381 E0.04666
G1 X91.605 Y50.606 E0.04347
G1 X90.818 Y50.806 E0.04409
G1 X90.071 Y50.968 E0.04155
G1 X89.252 Y51.116 E0.04523
G1 X88.368 Y51.244 E0.04853
G1 X87.466 Y51.342 E0.04930
G1 X85.881 Y51.442 E0.08629
G1 X85.026 Y51.456 E0.04646
G1 X84.119 Y51.442 E0.04924
G1 X83.319 Y51.404 E0.04355
G1 X82.472 Y51.337 E0.04616
G1 X81.632 Y51.244 E0.04589
G1 X80.748 Y51.116 E0.04854
G1 X79.929 Y50.968 E0.04523
G1 X79.182 Y50.806 E0.04154
G1 X78.395 Y50.606 E0.04410
G1 X77.628 Y50.381 E0.04347
G1 X76.815 Y50.104 E0.04665
G1 X76.086 Y49.820 E0.04250
G1 X75.381 Y49.507 E0.04191
G1 X74.701 Y49.165 E0.04134
G1 X74.128 Y48.839 E0.03583
G1 X73.508 Y48.443 E0.04000
G1 X72.918 Y48.013 E0.03961
G1 X72.362 Y47.548 E0.03939
G1 X71.843 Y47.044 E0.03933
G1 X71.364 Y46.499 E0.03942
G1 X70.931 Y45.910 E0.03972
G1 X70.553 Y45.274 E0.04018
G1 X70.282 Y44.691 E0.03493
G1 X69.718 Y44.691 E0.03069
G1 X69.447 Y45.274 E0.03493
G1 X69.155 Y45.776 E0.03152
G1 X68.636 Y46.499 E0.04838
G1 X68.157 Y47.044 E0.03942
G1 X67.727 Y47.466 E0.03274
G1 X67.082 Y48.013 E0.04596
G1 X66.492 Y48.443 E0.03962
G1 X65.952 Y48.791 E0.03496
G1 X65.223 Y49.205 E0.04550
G1 X64.547 Y49.541 E0.04101
G1 X63.914 Y49.820 E0.03761
G1 X63.185 Y50.104 E0.04250
G1 X62.435 Y50.361 E0.04309
G1 X61.605 Y50.606 E0.04704
G1 X60.818 Y50.806 E0.04409
G1 X60.014 Y50.979 E0.04466
G1 X59.197 Y51.125 E0.04510
G1 X58.368 Y51.244 E0.04554
G1 X57.528 Y51.337 E0.04588
G1 X56.681 Y51.404 E0.04617
G1 X55.829 Y51.443 E0.04635
G1 X54.974 Y51.456 E0.04643
G1 X54.119 Y51.442 E0.04646
G1 X53.267 Y51.400 E0.04637
G1 X52.419 Y51.332 E0.04619
G1 X51.579 Y51.238 E0.04596
G1 X50.803 Y51.125 E0.04262
G1 X49.986 Y50.979 E0.04510
G1 X49.182 Y50.806 E0.04466
G1 X48.336 Y50.590 E0.04745
G1 X47.565 Y50.361 E0.04369
G1 X46.815 Y50.104 E0.04309
G1 X46.086 Y49.820 E0.04250
G1 X45.381 Y49.507 E0.04191
G1 X44.777 Y49.205 E0.03671
G1 X44.128 Y48.839 E0.04046
G1 X43.508 Y48.443 E0.04000
G1 X42.918 Y48.013 E0.03961
G1 X42.273 Y47.466 E0.04597
G1 X41.843 Y47.044 E0.03275
G1 X41.364 Y46.499 E0.03942
G1 X40.844 Y45.776 E0.04839
G1 X40.553 Y45.274 E0.03151
G1 X40.239 Y44.594 E0.04074
G1 X39.951 Y43.681 E0.05198
G1 X39.819 Y42.915 E0.04224
G1 X39.783 Y42.341 E0.03125
G1 X39.819 Y41.562 E0.04237
G1 X39.999 Y40.605 E0.05290
G1 X40.239 Y39.884 E0.04132
G1 X40.474 Y39.357 E0.03133
G1 X40.931 Y38.567 E0.04958
G1 X41.273 Y38.092 E0.03180
G1 X41.649 Y37.648 E0.03162
G1 X41.979 Y37.933 F9000.000
G1 X42.572 Y37.327 E0.04607 F1200.000
G1 X43.182 Y36.811 E0.04345
G1 X43.749 Y36.397 E0.03812
G1 X44.348 Y36.014 E0.03863
G1 X44.911 Y35.694 E0.03519
G1 X45.571 Y35.362 E0.04013
G1 X46.316 Y35.033 E0.04426
G1 X47.024 Y34.760 E0.04123
G1 X47.755 Y34.513 E0.04192
G1 X48.455 Y34.306 E0.03966
G1 X49.228 Y34.108 E0.04334
G1 X50.066 Y33.927 E0.04660
G1 X50.869 Y33.783 E0.04431
G1 X51.638 Y33.671 E0.04222
G1 X52.510 Y33.574 E0.04766
G1 X53.343 Y33.509 E0.04540
G1 X54.137 Y33.471 E0.04317
G1 X55.022 Y33.457 E0.04811
G1 X55.819 Y33.470 E0.04329
G1 X56.657 Y33.509 E0.04559
G1 X57.536 Y33.578 E0.04789
G1 X58.316 Y33.665 E0.04264
G1 X59.131 Y33.783 E0.04476
G1 X59.982 Y33.936 E0.04701
G1 X60.722 Y34.096 E0.04111
G1 X61.493 Y34.292 E0.04322
G1 X62.245 Y34.513 E0.04259
G1 X63.032 Y34.781 E0.04518
G1 X63.743 Y35.058 E0.04144
G1 X64.367 Y35.333 E0.03705
G1 X65.023 Y35.659 E0.03984
G1 X65.652 Y36.014 E0.03920
G1 X66.323 Y36.446 E0.04337
G1 X66.817 Y36.811 E0.03338
G1 X67.350 Y37.257 E0.03775
G1 X67.846 Y37.738 E0.03753
G1 X68.300 Y38.256 E0.03745
G1 X68.784 Y38.929 E0.04506
G1 X69.133 Y39.545 E0.03846
G1 X69.416 Y40.200 E0.03875
G1 X69.681 Y41.038 E0.04776
G1 X70.319 Y41.038 E0.03465
G1 X70.584 Y40.200 E0.04775
G1 X70.936 Y39.412 E0.04689
G1 X71.291 Y38.813 E0.03782
G1 X71.700 Y38.256 E0.03755
G1 X72.075 Y37.822 E0.03119
G1 X72.572 Y37.327 E0.03808
G1 X73.182 Y36.811 E0.04345
G1 X73.749 Y36.397 E0.03812
G1 X74.279 Y36.055 E0.03426
G1 X74.976 Y35.659 E0.04356
G1 X75.633 Y35.333 E0.03985
G1 X76.257 Y35.058 E0.03705
G1 X77.024 Y34.760 E0.04470
G1 X77.755 Y34.513 E0.04192
G1 X78.455 Y34.306 E0.03966
G1 X79.278 Y34.096 E0.04614
G1 X80.066 Y33.927 E0.04380
G1 X80.822 Y33.791 E0.04171
G1 X81.638 Y33.671 E0.04483
G1 X82.464 Y33.578 E0.04518
G1 X83.343 Y33.509 E0.04789
G1 X84.181 Y33.470 E0.04560
G1 X85.022 Y33.457 E0.04569
G1 X85.819 Y33.470 E0.04329 F1200.000
G1 X86.657 Y33.509 E0.04559
G1 X87.490 Y33.574 E0.04541
G1 X88.316 Y33.665 E0.04513
G1 X89.131 Y33.783 E0.04476
G1 X89.934 Y33.927 E0.04432
G1 X90.772 Y34.108 E0.04660
G1 X91.545 Y34.306 E0.04334
G1 X92.299 Y34.530 E0.04275
G1 X92.976 Y34.760 E0.03884
G1 X93.684 Y35.033 E0.04123
G1 X94.367 Y35.333 E0.04053
G1 X95.023 Y35.659 E0.03984
G1 X95.652 Y36.014 E0.03920
G1 X96.323 Y36.446 E0.04337
G1 X96.892 Y36.870 E0.03856
G1 X97.428 Y37.327 E0.03827
G1 X97.925 Y37.822 E0.03808
G1 X98.379 Y38.355 E0.03806
G1 X98.784 Y38.929 E0.03820
G1 X99.064 Y39.412 E0.03030
G1 X99.358 Y40.050 E0.03819
G1 X99.582 Y40.724 E0.03860
G1 X99.725 Y41.429 E0.03905
G1 X99.781 Y42.328 E0.04893
G1 X99.725 Y43.049 E0.03929
G1 X99.623 Y43.588 E0.02981
G1 X99.416 Y44.277 E0.03912
G1 X99.133 Y44.932 E0.03875
G1 X98.784 Y45.548 E0.03846
G1 X98.379 Y46.122 E0.03820
G1 X97.925 Y46.656 E0.03806
G1 X97.350 Y47.221 E0.04378
G1 X96.818 Y47.667 E0.03775
G1 X96.251 Y48.080 E0.03812
G1 X95.652 Y48.464 E0.03863
G1 X95.023 Y48.818 E0.03920
G1 X94.429 Y49.115 E0.03611
G1 X93.743 Y49.419 E0.04079
G1 X92.976 Y49.717 E0.04470
G1 X92.245 Y49.964 E0.04194
G1 X91.545 Y50.171 E0.03966
G1 X90.722 Y50.381 E0.04613
G1 X89.933 Y50.551 E0.04382
G1 X89.131 Y50.694 E0.04429
G1 X88.362 Y50.806 E0.04222
G1 X87.490 Y50.903 E0.04766
G1 X86.702 Y50.966 E0.04296
G1 X85.863 Y51.006 E0.04562
G1 X84.978 Y51.020 E0.04812
G1 X84.181 Y51.008 E0.04328
G1 X83.343 Y50.969 E0.04561
G1 X82.510 Y50.903 E0.04540
G1 X81.638 Y50.806 E0.04766
G1 X80.869 Y50.694 E0.04222
G1 X80.066 Y50.551 E0.04430
G1 X79.278 Y50.381 E0.04382
G1 X78.507 Y50.185 E0.04322
G1 X77.701 Y49.947 E0.04566
G1 X77.024 Y49.717 E0.03884
G1 X76.316 Y49.444 E0.04122
G1 X75.633 Y49.144 E0.04054
G1 X74.911 Y48.783 E0.04385
G1 X74.279 Y48.422 E0.03955
G1 X73.749 Y48.080 E0.03426
G1 X73.183 Y47.667 E0.03812
G1 X72.650 Y47.221 E0.03775
G1 X72.154 Y46.740 E0.03753
G1 X71.700 Y46.222 E0.03744
G1 X71.216 Y45.548 E0.04507
G1 X70.867 Y44.932 E0.03846
G1 X70.584 Y44.277 E0.03874
G1 X70.319 Y43.439 E0.04776
G1 X69.681 Y43.439 E0.03465
G1 X69.358 Y44.427 E0.05646
G1 X69.064 Y45.066 E0.03819
G1 X68.784 Y45.548 E0.03031
G1 X68.300 Y46.222 E0.04506
G1 X67.846 Y46.740 E0.03745
G1 X67.428 Y47.150 E0.03182
G1 X66.818 Y47.667 E0.04345
G1 X66.251 Y48.080 E0.03812
G1 X65.652 Y48.464 E0.03863
G1 X65.023 Y48.818 E0.03920
G1 X64.429 Y49.115 E0.03611
G1 X63.743 Y49.419 E0.04079
G1 X63.032 Y49.697 E0.04145
G1 X62.245 Y49.964 E0.04519
G1 X61.493 Y50.185 E0.04257
G1 X60.722 Y50.381 E0.04322
G1 X59.933 Y50.551 E0.04382
G1 X59.131 Y50.694 E0.04429
G1 X58.316 Y50.812 E0.04476
G1 X57.490 Y50.903 E0.04512
G1 X56.657 Y50.969 E0.04541
G1 X55.819 Y51.008 E0.04560
G1 X54.978 Y51.020 E0.04569
G1 X54.137 Y51.006 E0.04571
G1 X53.298 Y50.966 E0.04562
G1 X52.464 Y50.899 E0.04543
G1 X51.638 Y50.806 E0.04518
G1 X50.822 Y50.687 E0.04481
G1 X50.018 Y50.541 E0.04441
G1 X49.228 Y50.369 E0.04393
G1 X48.455 Y50.171 E0.04332
G1 X47.701 Y49.947 E0.04275
G1 X46.968 Y49.697 E0.04210
G1 X46.257 Y49.419 E0.04145
G1 X45.633 Y49.144 E0.03706
G1 X44.976 Y48.818 E0.03984
G1 X44.348 Y48.464 E0.03920
G1 X43.749 Y48.080 E0.03863
G1 X43.183 Y47.667 E0.03812
G1 X42.650 Y47.221 E0.03775
G1 X42.075 Y46.656 E0.04379
G1 X41.700 Y46.222 E0.03119
G1 X41.291 Y45.664 E0.03756
G1 X40.867 Y44.932 E0.04597
G1 X40.642 Y44.427 E0.03003
G1 X40.418 Y43.753 E0.03861
G1 X40.253 Y42.874 E0.04856
G1 X40.219 Y42.328 E0.02977
G1 X40.253 Y41.603 E0.03941
G1 X40.418 Y40.724 E0.04857
G1 X40.642 Y40.050 E0.03860
G1 X40.867 Y39.545 E0.03004
G1 X41.291 Y38.813 E0.04597
G1 X41.621 Y38.355 E0.03069
G1 X41.949 Y37.967 E0.02759
G1 E-3.50000 F2400.00000
G1 X70.696 Y41.572 F9000.000
G1 E3.50000 F2400.00000
G1 X70.837 Y40.844 E0.04030 F1200.000
G1 X71.044 Y40.217 E0.03587
G1 X71.318 Y39.621 E0.03563
G1 X71.587 Y39.157 E0.02910
G1 X72.035 Y38.533 E0.04175
G1 X72.466 Y38.042 E0.03547
G1 X72.937 Y37.584 E0.03574
G1 X73.383 Y37.207 E0.03172
G1 X73.991 Y36.759 E0.04101
G1 X74.568 Y36.390 E0.03725
G1 X75.121 Y36.076 E0.03454
G1 X75.814 Y35.729 E0.04207
G1 X76.478 Y35.438 E0.03944
G1 X77.121 Y35.189 E0.03745
G1 X77.883 Y34.930 E0.04372
G1 X78.619 Y34.713 E0.04167
G1 X79.374 Y34.521 E0.04235
G1 X80.147 Y34.355 E0.04297
G1 X80.895 Y34.220 E0.04130
