; generated by Slic3r 1.2.9 on 2017-06-06 at 21:33:47

; external perimeters extrusion width = 0.30mm
; perimeters extrusion width = 0.30mm
; infill extrusion width = 0.30mm
; solid infill extrusion width = 0.30mm
; top infill extrusion width = 0.30mm

M107
M190 S57 ; set bed temperature
G28								; home all axes (if axis shifting bug is fixed!)
G32								; execute bed Z-plane  compensation at bed.g 4 points
G10 P0 X-16 Y-3 Z0.0 S-273 R-273		; set extruder x,y offsets
M83								; set extruder to relative mode
G10 P0 S195 R160					; Set tool 0 operating and standby temperatures
T0									; select tool ZERO




G21 ; set units to millimeters
G90 ; use absolute coordinates
M83 ; use relative distances for extrusion
G1 E-3.50000 F2400.00000
G1 Z0.300 F9000.000
G1 X36.963 Y39.367 F9000.000
G1 E3.50000 F2400.00000
G1 X37.585 Y38.834 E0.04447 F1200.000
G1 X38.209 Y38.379 E0.04197
G1 X38.666 Y38.090 E0.02935
G1 X39.226 Y37.777 E0.03488
G1 X39.934 Y37.444 E0.04251
G1 X40.428 Y37.249 E0.02883
G1 X41.039 Y37.046 E0.03499
G1 X41.795 Y36.852 E0.04240
G1 X42.319 Y36.752 E0.02897
G1 X42.957 Y36.668 E0.03497
G1 X43.616 Y36.622 E0.03591
G1 X96.258 Y36.618 E2.86020
G1 X97.043 Y36.668 E0.04275 F1200.000
G1 X97.681 Y36.752 E0.03497
G1 X98.204 Y36.852 E0.02889
G1 X98.960 Y37.046 E0.04242
G1 X99.572 Y37.249 E0.03503
G1 X100.066 Y37.444 E0.02886
G1 X100.774 Y37.777 E0.04250
G1 X101.334 Y38.090 E0.03489
G1 X101.791 Y38.379 E0.02935
G1 X102.319 Y38.759 E0.03532
G1 X102.820 Y39.169 E0.03519
G1 X103.386 Y39.700 E0.04219
G1 X103.750 Y40.088 E0.02889
G1 X104.166 Y40.585 E0.03520
G1 X104.621 Y41.209 E0.04198
G1 X104.910 Y41.665 E0.02935
G1 X105.223 Y42.226 E0.03490
G1 X105.556 Y42.934 E0.04251
G1 X105.751 Y43.428 E0.02884
G1 X105.954 Y44.040 E0.03505
G1 X106.148 Y44.796 E0.04239
G1 X106.248 Y45.318 E0.02891
G1 X106.332 Y45.957 E0.03498
G1 X106.386 Y47.001 E0.05680
G1 X106.386 Y92.999 E2.49923
G1 X106.344 Y93.921 E0.05015
G1 X106.248 Y94.681 E0.04163
G1 X106.121 Y95.325 E0.03563
G1 X105.988 Y95.842 E0.02901
G1 X105.793 Y96.457 E0.03505
G1 X105.507 Y97.180 E0.04224
G1 X105.223 Y97.774 E0.03577
G1 X104.910 Y98.335 E0.03489
G1 X104.621 Y98.791 E0.02935
G1 X104.241 Y99.319 E0.03532
G1 X103.750 Y99.912 E0.04184
G1 X103.386 Y100.300 E0.02891
G1 X102.913 Y100.749 E0.03543
G1 X102.319 Y101.241 E0.04195
G1 X101.790 Y101.621 E0.03534
G1 X101.335 Y101.910 E0.02930
G1 X100.664 Y102.278 E0.04158
G1 X100.066 Y102.556 E0.03585
G1 X99.572 Y102.751 E0.02885
G1 X98.961 Y102.954 E0.03497
G1 X98.205 Y103.148 E0.04241
G1 X97.681 Y103.248 E0.02897
G1 X97.044 Y103.332 E0.03496
G1 X96.385 Y103.378 E0.03586
G1 X43.616 Y103.378 E2.86712
G1 X43.079 Y103.344 E0.02923
G1 X42.440 Y103.267 E0.03498
G1 X41.675 Y103.121 E0.04227
G1 X41.157 Y102.988 E0.02905
G1 X40.544 Y102.793 E0.03498
G1 X39.822 Y102.507 E0.04220
G1 X39.336 Y102.278 E0.02919
G1 X38.771 Y101.972 E0.03490
G1 X38.108 Y101.552 E0.04263
G1 X37.585 Y101.166 E0.03534
G1 X37.088 Y100.750 E0.03519
G1 X36.700 Y100.386 E0.02889
G1 X36.250 Y99.912 E0.03554
G1 X35.759 Y99.319 E0.04185
G1 X35.379 Y98.790 E0.03539
G1 X35.090 Y98.335 E0.02928
G1 X34.721 Y97.664 E0.04159
G1 X34.444 Y97.066 E0.03581
G1 X34.249 Y96.572 E0.02885
G1 X34.046 Y95.960 E0.03504
G1 X33.852 Y95.205 E0.04232
G1 X33.752 Y94.681 E0.02898
G1 X33.668 Y94.043 E0.03497
G1 X33.622 Y93.384 E0.03589
G1 X33.614 Y47.001 E2.52015
G1 X33.668 Y45.957 E0.05680
G1 X33.752 Y45.319 E0.03498
G1 X33.852 Y44.795 E0.02897
G1 X34.046 Y44.040 E0.04237
G1 X34.249 Y43.427 E0.03505
G1 X34.493 Y42.821 E0.03548
G1 X34.722 Y42.335 E0.02918
G1 X35.028 Y41.771 E0.03489
G1 X35.449 Y41.108 E0.04269
G1 X35.759 Y40.681 E0.02863
G1 X36.169 Y40.180 E0.03520
G1 X36.614 Y39.700 E0.03554
G1 X36.931 Y39.397 E0.02382
G1 E-3.50000 F2400.00000
G1 X40.465 Y43.162 F9000.000
G1 E3.50000 F2400.00000
G1 X40.891 Y42.810 E0.03001 F1200.000
G1 X41.160 Y42.623 E0.01782
G1 X41.531 Y42.404 E0.02338
G1 X42.033 Y42.168 E0.03014
G1 X42.436 Y42.023 E0.02326
G1 X42.972 Y41.885 E0.03012
G1 X43.396 Y41.818 E0.02332
G1 X43.725 Y41.790 E0.01791
G1 X65.074 Y41.784 E1.15999
G1 X65.604 Y41.818 E0.02883 F1200.000
G1 X65.926 Y41.865 E0.01769
G1 X66.564 Y42.023 E0.03571
G1 X67.175 Y42.257 E0.03554
G1 X67.557 Y42.452 E0.02333
G1 X67.840 Y42.623 E0.01793
G1 X68.109 Y42.810 E0.01782
G1 X68.534 Y43.161 E0.02993
G1 X68.988 Y43.636 E0.03568
G1 X69.377 Y44.160 E0.03546
G1 X69.733 Y44.800 E0.03980
G1 X70.267 Y44.800 E0.02899
G1 X70.623 Y44.160 E0.03976
G1 X70.810 Y43.891 E0.01783
G1 X71.162 Y43.466 E0.02996
G1 X71.391 Y43.232 E0.01781
G1 X71.714 Y42.948 E0.02335
G1 X72.160 Y42.623 E0.03001
G1 X72.443 Y42.452 E0.01792
G1 X73.033 Y42.168 E0.03560
G1 X73.652 Y41.960 E0.03548
G1 X74.296 Y41.830 E0.03570
G1 X74.925 Y41.784 E0.03427
G1 X96.024 Y41.783 E1.14640
G1 X96.604 Y41.818 E0.03155
G1 X97.248 Y41.934 E0.03557
G1 X97.872 Y42.130 E0.03550
G1 X98.269 Y42.302 E0.02352
G1 X98.840 Y42.623 E0.03559
G1 X99.365 Y43.013 E0.03554
G1 X99.768 Y43.391 E0.03003
G1 X100.190 Y43.891 E0.03551
G1 X100.433 Y44.249 E0.02351
G1 X100.743 Y44.825 E0.03556
G1 X100.977 Y45.436 E0.03557
G1 X101.135 Y46.074 E0.03569
G1 X101.182 Y46.396 E0.01768
G1 X101.216 Y46.925 E0.02879
G1 X101.210 Y93.275 E2.51836
G1 X101.135 Y93.926 E0.03558
G1 X100.978 Y94.563 E0.03566
G1 X100.742 Y95.175 E0.03563
G1 X100.433 Y95.751 E0.03551
G1 X100.190 Y96.109 E0.02353
G1 X99.768 Y96.608 E0.03551
G1 X99.286 Y97.052 E0.03561
G1 X98.751 Y97.433 E0.03565
G1 X98.175 Y97.742 E0.03552
G1 X97.564 Y97.977 E0.03557
G1 X96.926 Y98.135 E0.03575
G1 X96.276 Y98.210 E0.03552
G1 X74.975 Y98.217 E1.15734
G1 X74.620 Y98.204 E0.01932
G1 X74.074 Y98.135 E0.02989
G1 X73.752 Y98.066 E0.01791
G1 X73.128 Y97.870 E0.03551
G1 X72.531 Y97.596 E0.03572
G1 X71.974 Y97.250 E0.03563
G1 X71.466 Y96.839 E0.03549
G1 X71.013 Y96.365 E0.03566
G1 X70.623 Y95.839 E0.03553
G1 X70.267 Y95.200 E0.03975
G1 X69.733 Y95.200 E0.02899
G1 X69.377 Y95.840 E0.03976
G1 X69.190 Y96.109 E0.01783
G1 X68.839 Y96.533 E0.02988
G1 X68.365 Y96.987 E0.03570
G1 X68.027 Y97.250 E0.02323
G1 X67.751 Y97.433 E0.01798
G1 X67.175 Y97.742 E0.03552
G1 X66.564 Y97.977 E0.03557
G1 X65.926 Y98.135 E0.03575
G1 X65.276 Y98.210 E0.03552
G1 X43.724 Y98.210 E1.17099
G1 X43.296 Y98.170 E0.02338
G1 X42.918 Y98.103 E0.02082
G1 X42.436 Y97.977 E0.02709
G1 X42.032 Y97.832 E0.02330
G1 X41.731 Y97.698 E0.01794
G1 X41.248 Y97.433 E0.02989
G1 X40.891 Y97.190 E0.02348
G1 X40.466 Y96.839 E0.02995
G1 X40.161 Y96.534 E0.02344
G1 X39.750 Y96.026 E0.03548
G1 X39.452 Y95.557 E0.03020
G1 X39.257 Y95.175 E0.02332
G1 X39.023 Y94.564 E0.03554
G1 X38.885 Y94.028 E0.03008
G1 X38.818 Y93.604 E0.02331
G1 X38.783 Y93.024 E0.03156
G1 X38.790 Y46.723 E2.51567
G1 X38.830 Y46.296 E0.02333
G1 X38.934 Y45.752 E0.03010
G1 X39.054 Y45.340 E0.02332
G1 X39.257 Y44.825 E0.03006
G1 X39.452 Y44.443 E0.02333
G1 X39.750 Y43.973 E0.03019
G1 X40.013 Y43.635 E0.02327
G1 X40.433 Y43.193 E0.03312
G1 X40.731 Y43.511 F9000.000
G1 X40.986 Y43.288 E0.01841 F1200.000
G1 X41.400 Y42.987 E0.02778
G1 X41.735 Y42.789 E0.02115
G1 X42.199 Y42.570 E0.02790
G1 X42.564 Y42.439 E0.02105
G1 X43.061 Y42.311 E0.02787
G1 X43.745 Y42.225 E0.03748
G1 X65.021 Y42.218 E1.15598
G1 X65.346 Y42.231 E0.01765 F1200.000
G1 X65.851 Y42.295 E0.02769
G1 X66.519 Y42.466 E0.03748
G1 X66.995 Y42.654 E0.02782
G1 X67.342 Y42.831 E0.02111
G1 X67.600 Y42.987 E0.01643
G1 X68.014 Y43.288 E0.02778
G1 X68.516 Y43.760 E0.03744
G1 X68.841 Y44.152 E0.02770
G1 X69.061 Y44.476 E0.02126
G1 X69.307 Y44.922 E0.02767
G1 X69.430 Y45.199 E0.01646
G1 X69.673 Y45.949 E0.04285
G1 X70.327 Y45.949 E0.03552
G1 X70.570 Y45.199 E0.04284
G1 X70.789 Y44.735 E0.02790
G1 X70.987 Y44.400 E0.02115
G1 X71.288 Y43.986 E0.02780
G1 X71.545 Y43.694 E0.02111
G1 X71.759 Y43.484 E0.01633
G1 X72.153 Y43.158 E0.02773
G1 X72.658 Y42.831 E0.03273
G1 X73.282 Y42.538 E0.03746
G1 X73.767 Y42.380 E0.02769
G1 X74.061 Y42.311 E0.01639
G1 X74.745 Y42.225 E0.03748
G1 X96.346 Y42.231 E1.17362
G1 X96.939 Y42.311 E0.03253
G1 X97.436 Y42.439 E0.02788
G1 X97.995 Y42.654 E0.03258
G1 X98.524 Y42.939 E0.03259
G1 X98.847 Y43.159 E0.02126
G1 X99.305 Y43.545 E0.03256
G1 X99.712 Y43.986 E0.03262
G1 X100.061 Y44.476 E0.03268
G1 X100.345 Y45.004 E0.03259
G1 X100.462 Y45.282 E0.01638
G1 X100.620 Y45.767 E0.02771
G1 X100.738 Y46.357 E0.03269
G1 X100.782 Y46.979 E0.03386
G1 X100.781 Y93.065 E2.50400
G1 X100.738 Y93.643 E0.03147
G1 X100.620 Y94.233 E0.03271
G1 X100.430 Y94.801 E0.03251
G1 X100.169 Y95.342 E0.03264
G1 X99.841 Y95.847 E0.03273
G1 X99.455 Y96.305 E0.03255
G1 X99.014 Y96.712 E0.03264
G1 X98.524 Y97.061 E0.03267
G1 X97.996 Y97.345 E0.03256
G1 X97.436 Y97.561 E0.03260
G1 X96.851 Y97.705 E0.03276
G1 X96.556 Y97.749 E0.01619
G1 X96.065 Y97.781 E0.02674
G1 X74.979 Y97.782 E1.14569
G1 X74.444 Y97.749 E0.02911
G1 X73.766 Y97.620 E0.03747
G1 X73.282 Y97.462 E0.02767
G1 X73.004 Y97.345 E0.01637
G1 X72.399 Y97.013 E0.03752
G1 X72.114 Y96.812 E0.01896
G1 X71.760 Y96.516 E0.02507
G1 X71.288 Y96.014 E0.03745
G1 X70.987 Y95.600 E0.02779
G1 X70.831 Y95.341 E0.01642
G1 X70.538 Y94.718 E0.03744
G1 X70.327 Y94.051 E0.03801
G1 X69.673 Y94.051 E0.03552
G1 X69.430 Y94.801 E0.04283
G1 X69.211 Y95.265 E0.02791
G1 X69.013 Y95.600 E0.02115
G1 X68.712 Y96.014 E0.02779
G1 X68.455 Y96.305 E0.02111
G1 X68.241 Y96.516 E0.01634
G1 X67.848 Y96.841 E0.02772
G1 X67.265 Y97.211 E0.03746
G1 X66.717 Y97.463 E0.03277
G1 X66.145 Y97.643 E0.03257
G1 X65.851 Y97.705 E0.01636
G1 X65.346 Y97.769 E0.02767
G1 X43.745 Y97.775 E1.17365
G1 X43.357 Y97.738 E0.02115
G1 X43.013 Y97.678 E0.01897
G1 X42.564 Y97.561 E0.02522
G1 X42.199 Y97.430 E0.02108
G1 X41.923 Y97.307 E0.01644
G1 X41.476 Y97.061 E0.02768
G1 X41.153 Y96.842 E0.02123
G1 X40.760 Y96.516 E0.02773
G1 X40.484 Y96.240 E0.02120
G1 X40.106 Y95.776 E0.03252
G1 X39.831 Y95.341 E0.02795
G1 X39.654 Y94.995 E0.02110
G1 X39.439 Y94.436 E0.03258
G1 X39.311 Y93.940 E0.02784
G1 X39.251 Y93.556 E0.02109
G1 X39.218 Y93.021 E0.02913
G1 X39.219 Y46.935 E2.50399
G1 X39.262 Y46.357 E0.03148
G1 X39.358 Y45.853 E0.02786
G1 X39.466 Y45.481 E0.02110
G1 X39.655 Y45.004 E0.02783
G1 X39.831 Y44.658 E0.02111
G1 X40.107 Y44.224 E0.02794
G1 X40.344 Y43.918 E0.02105
G1 X40.698 Y43.541 E0.02808
G1 X40.998 Y43.858 F9000.000
G1 X41.259 Y43.628 E0.01890 F1200.000
G1 X41.639 Y43.351 E0.02556
G1 X42.184 Y43.052 E0.03379
G1 X42.622 Y42.878 E0.02558
G1 X42.955 Y42.781 E0.01888
G1 X43.418 Y42.693 E0.02561
G1 X43.766 Y42.660 E0.01894
G1 X65.054 Y42.655 E1.15669
G1 X65.581 Y42.693 E0.02871 F1200.000
G1 X66.045 Y42.781 E0.02562
G1 X66.378 Y42.878 E0.01888
G1 X66.816 Y43.052 E0.02558
G1 X67.126 Y43.209 E0.01888
G1 X67.525 Y43.463 E0.02569
G1 X67.799 Y43.676 E0.01885
G1 X68.142 Y43.998 E0.02557
G1 X68.372 Y44.259 E0.01890
G1 X68.649 Y44.639 E0.02552
G1 X68.826 Y44.939 E0.01894
G1 X69.027 Y45.366 E0.02565
G1 X69.145 Y45.692 E0.01886
G1 X69.262 Y46.149 E0.02562
G1 X69.316 Y46.492 E0.01885
G1 X69.346 Y46.982 E0.02669
G1 X69.335 Y93.311 E2.51719
G1 X69.276 Y93.776 E0.02548
G1 X69.219 Y94.045 E0.01490
G1 X69.122 Y94.378 E0.01887
G1 X68.948 Y94.817 E0.02562
G1 X68.791 Y95.126 E0.01887
G1 X68.537 Y95.525 E0.02568
G1 X68.325 Y95.799 E0.01884
G1 X68.002 Y96.142 E0.02560
G1 X67.741 Y96.372 E0.01890
G1 X67.361 Y96.649 E0.02554
G1 X67.061 Y96.826 E0.01891
G1 X66.777 Y96.965 E0.01719
G1 X66.378 Y97.122 E0.02329
G1 X66.044 Y97.219 E0.01893
G1 X65.582 Y97.307 E0.02556
G1 X65.235 Y97.340 E0.01891
G1 X43.982 Y97.346 E1.15474
G1 X43.492 Y97.316 E0.02668
G1 X42.955 Y97.219 E0.02963
G1 X42.436 Y97.055 E0.02959
G1 X41.939 Y96.826 E0.02974
G1 X41.475 Y96.537 E0.02968
G1 X40.998 Y96.142 E0.03367
G1 X40.628 Y95.741 E0.02964
G1 X40.310 Y95.296 E0.02972
G1 X40.052 Y94.816 E0.02962
G1 X39.855 Y94.308 E0.02961
G1 X39.738 Y93.851 E0.02560
G1 X39.684 Y93.508 E0.01887
G1 X39.654 Y93.018 E0.02670
G1 X39.655 Y46.945 E2.50325
G1 X39.684 Y46.492 E0.02466
G1 X39.738 Y46.149 E0.01887
G1 X39.855 Y45.692 E0.02563
G1 X39.973 Y45.366 E0.01884
G1 X40.174 Y44.939 E0.02565
G1 X40.351 Y44.639 E0.01892
G1 X40.628 Y44.258 E0.02557
G1 X40.966 Y43.890 E0.02718
G1 X41.274 Y44.198 F9000.000
G1 X41.726 Y43.819 E0.03203 F1200.000
G1 X42.090 Y43.588 E0.02342
G1 X42.363 Y43.449 E0.01667
G1 X42.763 Y43.291 E0.02335
G1 X43.057 Y43.205 E0.01666
G1 X43.480 Y43.124 E0.02338
G1 X43.786 Y43.095 E0.01671
G1 X65.014 Y43.090 E1.15340
G1 X65.460 Y43.117 E0.02427 F1200.000
G1 X65.762 Y43.165 E0.01663
G1 X66.180 Y43.272 E0.02339
G1 X66.467 Y43.375 E0.01663
G1 X66.857 Y43.559 E0.02341
G1 X67.122 Y43.715 E0.01670
G1 X67.469 Y43.968 E0.02333
G1 X67.699 Y44.171 E0.01666
G1 X67.994 Y44.484 E0.02338
G1 X68.285 Y44.878 E0.02659
G1 X68.441 Y45.143 E0.01671
G1 X68.625 Y45.532 E0.02341
G1 X68.728 Y45.821 E0.01664
G1 X68.835 Y46.237 E0.02338
G1 X68.883 Y46.540 E0.01663
G1 X68.910 Y46.986 E0.02427
G1 X68.901 Y93.277 E2.51514
G1 X68.847 Y93.702 E0.02326
G1 X68.795 Y93.943 E0.01340
G1 X68.710 Y94.237 E0.01665
G1 X68.551 Y94.637 E0.02338
G1 X68.412 Y94.910 E0.01665
G1 X68.181 Y95.274 E0.02343
G1 X67.993 Y95.516 E0.01662
G1 X67.699 Y95.829 E0.02336
G1 X67.469 Y96.032 E0.01668
G1 X67.122 Y96.285 E0.02331
G1 X66.604 Y96.566 E0.03199
G1 X66.237 Y96.709 E0.02141
G1 X65.942 Y96.795 E0.01670
G1 X65.520 Y96.876 E0.02333
G1 X65.215 Y96.905 E0.01668
G1 X43.723 Y96.901 E1.16770
G1 X43.298 Y96.847 E0.02326
G1 X43.057 Y96.795 E0.01340
G1 X42.590 Y96.647 E0.02663
G1 X42.143 Y96.441 E0.02675
G1 X41.726 Y96.181 E0.02670
G1 X41.301 Y95.829 E0.02997
G1 X40.968 Y95.469 E0.02667
G1 X40.682 Y95.069 E0.02673
G1 X40.449 Y94.637 E0.02666
G1 X40.272 Y94.179 E0.02665
G1 X40.165 Y93.763 E0.02337
G1 X40.117 Y93.460 E0.01665
G1 X40.090 Y93.014 E0.02428
G1 X40.090 Y46.955 E2.50252
G1 X40.117 Y46.540 E0.02260
G1 X40.165 Y46.237 E0.01665
G1 X40.272 Y45.820 E0.02338
G1 X40.375 Y45.532 E0.01663
G1 X40.559 Y45.143 E0.02341
G1 X40.715 Y44.878 E0.01669
G1 X40.968 Y44.531 E0.02334
G1 X41.242 Y44.229 E0.02214
G1 X41.550 Y44.537 F9000.000
G1 X41.976 Y44.175 E0.03039 F1200.000
G1 X42.306 Y43.966 E0.02118
G1 X42.542 Y43.846 E0.01444
G1 X42.904 Y43.703 E0.02112
G1 X43.159 Y43.629 E0.01444
G1 X43.541 Y43.556 E0.02114
G1 X43.806 Y43.531 E0.01447
G1 X65.034 Y43.526 E1.15338
G1 X65.459 Y43.556 E0.02312 F1200.000
G1 X65.841 Y43.629 E0.02114
G1 X66.096 Y43.703 E0.01444
G1 X66.458 Y43.846 E0.02112
G1 X66.694 Y43.966 E0.01444
G1 X67.024 Y44.175 E0.02118
G1 X67.233 Y44.338 E0.01442
G1 X67.517 Y44.604 E0.02111
G1 X67.692 Y44.804 E0.01445
G1 X67.921 Y45.117 E0.02108
G1 X68.056 Y45.347 E0.01447
G1 X68.222 Y45.699 E0.02116
G1 X68.312 Y45.949 E0.01442
G1 X68.409 Y46.326 E0.02114
G1 X68.450 Y46.588 E0.01441
G1 X68.475 Y46.989 E0.02184
G1 X68.466 Y93.243 E2.51309
G1 X68.371 Y93.841 E0.03293
G1 X68.297 Y94.096 E0.01443
G1 X68.154 Y94.458 E0.02114
G1 X68.034 Y94.694 E0.01443
G1 X67.825 Y95.024 E0.02118
G1 X67.662 Y95.233 E0.01441
G1 X67.396 Y95.517 E0.02113
G1 X67.196 Y95.692 E0.01445
G1 X66.882 Y95.921 E0.02109
G1 X66.431 Y96.166 E0.02788
G1 X66.096 Y96.297 E0.01957
G1 X65.841 Y96.372 E0.01447
G1 X65.459 Y96.444 E0.02110
G1 X65.194 Y96.469 E0.01445
G1 X43.757 Y96.466 E1.16472
G1 X43.159 Y96.371 E0.03292
G1 X42.744 Y96.240 E0.02367
G1 X42.347 Y96.056 E0.02376
G1 X41.976 Y95.825 E0.02372
G1 X41.604 Y95.517 E0.02626
G1 X41.308 Y95.197 E0.02370
G1 X41.053 Y94.841 E0.02375
G1 X40.846 Y94.458 E0.02369
G1 X40.688 Y94.051 E0.02368
G1 X40.591 Y93.675 E0.02113
G1 X40.550 Y93.412 E0.01443
G1 X40.525 Y93.011 E0.02185
G1 X40.525 Y46.989 E2.50051
G1 X40.550 Y46.588 E0.02183
G1 X40.591 Y46.326 E0.01443
G1 X40.688 Y45.949 E0.02114
G1 X40.778 Y45.699 E0.01441
G1 X40.944 Y45.347 E0.02116
G1 X41.079 Y45.118 E0.01446
G1 X41.308 Y44.803 E0.02111
G1 X41.518 Y44.569 E0.01710
G1 X41.826 Y44.877 F9000.000
G1 X42.227 Y44.532 E0.02876 F1200.000
G1 X42.521 Y44.345 E0.01893
G1 X42.722 Y44.243 E0.01222
G1 X43.045 Y44.115 E0.01889
G1 X43.261 Y44.052 E0.01221
G1 X43.602 Y43.987 E0.01890
G1 X43.827 Y43.966 E0.01224
G1 X65.008 Y43.961 E1.15082
G1 X65.364 Y43.983 E0.01942 F1200.000
G1 X65.586 Y44.018 E0.01220
G1 X65.923 Y44.105 E0.01891
G1 X66.134 Y44.181 E0.01220
G1 X66.449 Y44.329 E0.01892
G1 X66.643 Y44.443 E0.01224
G1 X66.924 Y44.648 E0.01887
