; generated by Slic3r 1.2.9 on 2017-06-06 at 23:44:04

; external perimeters extrusion width = 0.30mm
; perimeters extrusion width = 0.30mm
; infill extrusion width = 0.30mm
; solid infill extrusion width = 0.30mm
; top infill extrusion width = 0.30mm

M107
M190 S57 ; set bed temperature
G28								; home all axes (if axis shifting bug is fixed!)
G32								; execute bed Z-plane  compensation at bed.g 4 points
G10 P0 X-16 Y-3 Z0.0 S-273 R-273		; set extruder x,y offsets
M83								; set extruder to relative mode
G10 P0 S195 R160					; Set tool 0 operating and standby temperatures
T0									; select tool ZERO




G21 ; set units to millimeters
G90 ; use absolute coordinates
M83 ; use relative distances for extrusion
G1 E-3.50000 F2400.00000
G1 Z0.300 F9000.000
G1 X30.108 Y41.448 F9000.000
G1 E3.50000 F2400.00000
G1 X30.666 Y41.090 E0.03600 F1200.000
G1 X31.336 Y40.722 E0.04154
G1 X31.934 Y40.444 E0.03585
G1 X32.428 Y40.249 E0.02883
G1 X33.039 Y40.046 E0.03499
G1 X33.675 Y39.879 E0.03572
G1 X34.319 Y39.752 E0.03565
G1 X35.079 Y39.656 E0.04162
G1 X35.739 Y39.618 E0.03595
G1 X104.258 Y39.618 E3.72283
G1 X104.921 Y39.656 E0.03609 F1200.000
G1 X105.681 Y39.752 E0.04164
G1 X106.325 Y39.879 E0.03563
G1 X106.842 Y40.012 E0.02902
G1 X107.572 Y40.249 E0.04168
G1 X108.178 Y40.493 E0.03551
G1 X108.664 Y40.722 E0.02920
G1 X109.335 Y41.090 E0.04155
G1 X109.790 Y41.379 E0.02931
G1 X110.319 Y41.759 E0.03536
G1 X110.912 Y42.250 E0.04185
G1 X111.383 Y42.697 E0.03528
G1 X111.750 Y43.088 E0.02915
G1 X112.241 Y43.681 E0.04185
G1 X112.621 Y44.210 E0.03533
G1 X112.910 Y44.665 E0.02933
G1 X113.279 Y45.337 E0.04163
G1 X113.507 Y45.822 E0.02912
G1 X113.751 Y46.428 E0.03550
G1 X113.988 Y47.158 E0.04169
G1 X114.121 Y47.675 E0.02904
G1 X114.248 Y48.318 E0.03561
G1 X114.344 Y49.079 E0.04164
G1 X114.382 Y49.738 E0.03589
G1 X114.378 Y50.384 E0.03510
G1 X114.332 Y51.043 E0.03590
G1 X114.190 Y52.007 E0.05291
G1 X107.548 Y85.504 E1.85544
G1 X107.370 Y86.315 E0.04510
G1 X107.064 Y87.428 E0.06275
G1 X106.900 Y87.932 E0.02879
G1 X106.493 Y89.013 E0.06274
G1 X106.245 Y89.587 E0.03396
G1 X105.735 Y90.623 E0.06275
G1 X105.162 Y91.626 E0.06275
G1 X104.878 Y92.073 E0.02879
G1 X104.215 Y93.019 E0.06274
G1 X103.832 Y93.513 E0.03396
G1 X103.101 Y94.367 E0.06113
G1 X102.276 Y95.218 E0.06436
G1 X101.421 Y95.994 E0.06275
G1 X101.013 Y96.332 E0.02879
G1 X100.066 Y97.043 E0.06435
G1 X99.126 Y97.662 E0.06114
G1 X98.588 Y97.980 E0.03396
G1 X98.123 Y98.235 E0.02880
G1 X97.087 Y98.745 E0.06272
G1 X96.513 Y98.993 E0.03399
G1 X95.432 Y99.400 E0.06274
G1 X94.328 Y99.738 E0.06275
G1 X93.815 Y99.870 E0.02878
G1 X92.685 Y100.105 E0.06273
G1 X91.541 Y100.270 E0.06278
G1 X90.390 Y100.362 E0.06272
G1 X89.765 Y100.381 E0.03399
G1 X50.500 Y100.386 E2.13337
G1 X49.610 Y100.362 E0.04836
G1 X48.459 Y100.270 E0.06275
G1 X47.316 Y100.105 E0.06275
G1 X46.185 Y99.870 E0.06274
G1 X45.672 Y99.738 E0.02880
G1 X44.568 Y99.400 E0.06275
G1 X43.980 Y99.188 E0.03396
G1 X42.913 Y98.745 E0.06274
G1 X42.434 Y98.519 E0.02880
G1 X41.387 Y97.965 E0.06437
G1 X40.427 Y97.378 E0.06112
G1 X39.910 Y97.027 E0.03396
G1 X39.481 Y96.715 E0.02879
G1 X38.579 Y95.994 E0.06274
G1 X37.724 Y95.218 E0.06275
G1 X36.919 Y94.390 E0.06275
G1 X36.168 Y93.513 E0.06274
G1 X35.473 Y92.590 E0.06274
G1 X35.122 Y92.073 E0.03398
G1 X34.535 Y91.113 E0.06111
G1 X33.981 Y90.066 E0.06437
G1 X33.507 Y89.013 E0.06276
G1 X33.100 Y87.932 E0.06273
G1 X32.762 Y86.827 E0.06277
G1 X32.452 Y85.504 E0.07385
G1 X25.733 Y51.560 E1.88003
G1 X25.656 Y50.921 E0.03498
G1 X25.618 Y50.262 E0.03589
G1 X25.622 Y49.616 E0.03510
G1 X25.668 Y48.957 E0.03589
G1 X25.752 Y48.318 E0.03498
G1 X25.879 Y47.675 E0.03562
G1 X26.046 Y47.040 E0.03569
G1 X26.249 Y46.427 E0.03508
G1 X26.444 Y45.934 E0.02880
G1 X26.722 Y45.335 E0.03586
G1 X27.090 Y44.666 E0.04154
G1 X27.449 Y44.108 E0.03604
G1 X27.834 Y43.584 E0.03534
G1 X28.251 Y43.087 E0.03524
G1 X28.700 Y42.614 E0.03544
G1 X29.180 Y42.169 E0.03555
G1 X29.585 Y41.834 E0.02855
G1 X30.072 Y41.475 E0.03288
G1 E-3.50000 F2400.00000
G1 X32.978 Y45.747 F9000.000
G1 E3.50000 F2400.00000
G1 X33.249 Y45.567 E0.01766 F1200.000
G1 X33.731 Y45.302 E0.02991
G1 X34.340 Y45.054 E0.03569
G1 X34.752 Y44.934 E0.02333
G1 X35.074 Y44.865 E0.01789
G1 X35.396 Y44.818 E0.01771
G1 X35.925 Y44.784 E0.02878
G1 X65.074 Y44.784 E1.58379
G1 X65.604 Y44.818 E0.02883 F1200.000
G1 X65.926 Y44.865 E0.01769
G1 X66.564 Y45.023 E0.03571
G1 X67.175 Y45.257 E0.03554
G1 X67.557 Y45.452 E0.02333
G1 X67.840 Y45.623 E0.01791
G1 X68.109 Y45.810 E0.01785
G1 X68.534 Y46.161 E0.02992
G1 X68.988 Y46.636 E0.03568
G1 X69.377 Y47.160 E0.03549
G1 X69.733 Y47.800 E0.03976
G1 X70.267 Y47.800 E0.02899
G1 X70.623 Y47.160 E0.03976
G1 X70.810 Y46.891 E0.01783
G1 X71.162 Y46.466 E0.02996
G1 X71.391 Y46.232 E0.01781
G1 X71.714 Y45.948 E0.02335
G1 X72.160 Y45.623 E0.03001
G1 X72.443 Y45.452 E0.01792
G1 X73.033 Y45.168 E0.03560
G1 X73.652 Y44.960 E0.03548
G1 X74.296 Y44.830 E0.03570
G1 X74.925 Y44.784 E0.03427
G1 X104.024 Y44.783 E1.58106
G1 X104.380 Y44.796 E0.01934
G1 X105.027 Y44.885 E0.03549
G1 X105.564 Y45.023 E0.03012
G1 X106.175 Y45.257 E0.03554
G1 X106.751 Y45.567 E0.03555
G1 X107.109 Y45.810 E0.02352
G1 X107.609 Y46.232 E0.03551
G1 X107.988 Y46.636 E0.03009
G1 X108.377 Y47.160 E0.03549
G1 X108.596 Y47.531 E0.02338
G1 X108.832 Y48.033 E0.03013
G1 X108.977 Y48.436 E0.02330
G1 X109.115 Y48.972 E0.03009
G1 X109.182 Y49.396 E0.02330
G1 X109.217 Y49.949 E0.03012
G1 X109.204 Y50.380 E0.02340
G1 X109.138 Y50.907 E0.02889
G1 X102.475 Y84.518 E1.86171
G1 X102.315 Y85.237 E0.04002
G1 X102.054 Y86.133 E0.05070
G1 X101.770 Y86.913 E0.04511
G1 X101.481 Y87.581 E0.03954
G1 X101.058 Y88.412 E0.05069
G1 X100.687 Y89.039 E0.03954
G1 X100.223 Y89.727 E0.04511
G1 X99.651 Y90.464 E0.05069
G1 X99.170 Y91.010 E0.03954
G1 X98.585 Y91.600 E0.04510
G1 X97.885 Y92.217 E0.05070
G1 X97.227 Y92.723 E0.04511
G1 X96.625 Y93.132 E0.03955
G1 X95.822 Y93.607 E0.05069
G1 X95.081 Y93.981 E0.04511
G1 X94.413 Y94.270 E0.03955
G1 X93.458 Y94.609 E0.05508
G1 X92.737 Y94.815 E0.04071
G1 X91.926 Y94.993 E0.04511
G1 X91.207 Y95.106 E0.03955
G1 X90.381 Y95.188 E0.04511
G1 X89.448 Y95.217 E0.05070
G1 X88.721 Y95.194 E0.03953
G1 X87.894 Y95.119 E0.04512
G1 X86.973 Y94.973 E0.05068
G1 X86.263 Y94.815 E0.03954
G1 X85.464 Y94.586 E0.04511
G1 X84.587 Y94.270 E0.05069
G1 X83.919 Y93.981 E0.03954
G1 X83.178 Y93.607 E0.04511
G1 X82.375 Y93.132 E0.05069
G1 X81.773 Y92.723 E0.03954
G1 X81.115 Y92.217 E0.04511
G1 X80.490 Y91.670 E0.04511
G1 X79.958 Y91.143 E0.04070
G1 X79.283 Y90.385 E0.05509
G1 X78.837 Y89.810 E0.03954
G1 X78.368 Y89.125 E0.04512
G1 X77.942 Y88.412 E0.04512
G1 X77.519 Y87.581 E0.05069
G1 X77.230 Y86.913 E0.03954
G1 X76.946 Y86.133 E0.04511
G1 X76.685 Y85.237 E0.05069
G1 X76.525 Y84.518 E0.04002
G1 X70.358 Y53.412 E1.72301
G1 X69.642 Y53.412 E0.03887
G1 X63.475 Y84.518 E1.72301
G1 X63.315 Y85.237 E0.04002
G1 X63.054 Y86.133 E0.05070
G1 X62.770 Y86.913 E0.04511
G1 X62.481 Y87.581 E0.03954
G1 X62.058 Y88.412 E0.05069
G1 X61.687 Y89.039 E0.03954
G1 X61.223 Y89.727 E0.04511
G1 X60.717 Y90.385 E0.04512
G1 X60.224 Y90.949 E0.04071
G1 X59.510 Y91.670 E0.05509
G1 X58.964 Y92.151 E0.03954
G1 X58.310 Y92.663 E0.04511
G1 X57.539 Y93.187 E0.05069
G1 X56.822 Y93.607 E0.04512
G1 X56.081 Y93.981 E0.04511
G1 X55.413 Y94.270 E0.03955
G1 X54.633 Y94.554 E0.04511
G1 X53.737 Y94.815 E0.05069
G1 X52.926 Y94.993 E0.04511
G1 X52.207 Y95.106 E0.03955
G1 X51.279 Y95.194 E0.05068
G1 X50.551 Y95.217 E0.03955
G1 X49.721 Y95.194 E0.04511
G1 X48.792 Y95.106 E0.05070
G1 X47.973 Y94.973 E0.04510
G1 X47.263 Y94.815 E0.03954
G1 X46.367 Y94.554 E0.05069
G1 X45.587 Y94.270 E0.04512
G1 X44.826 Y93.937 E0.04511
G1 X44.088 Y93.558 E0.04511
G1 X43.461 Y93.187 E0.03954
G1 X42.690 Y92.663 E0.05069
G1 X42.115 Y92.217 E0.03954
G1 X41.490 Y91.670 E0.04511
G1 X40.830 Y91.010 E0.05069
G1 X40.283 Y90.385 E0.04511
G1 X39.837 Y89.810 E0.03954
G1 X39.313 Y89.039 E0.05069
G1 X38.942 Y88.412 E0.03954
G1 X38.563 Y87.674 E0.04511
G1 X38.192 Y86.818 E0.05069
G1 X37.946 Y86.133 E0.03954
G1 X37.711 Y85.337 E0.04512
G1 X37.525 Y84.518 E0.04559
G1 X30.874 Y50.970 E1.85825
G1 X30.818 Y50.604 E0.02011
G1 X30.790 Y50.276 E0.01790
G1 X30.790 Y49.725 E0.02994
G1 X30.865 Y49.074 E0.03561
G1 X31.023 Y48.436 E0.03570
G1 X31.257 Y47.825 E0.03555
G1 X31.567 Y47.249 E0.03555
G1 X31.948 Y46.713 E0.03571
G1 X32.391 Y46.232 E0.03555
G1 X32.942 Y45.773 E0.03893
G1 X33.198 Y46.126 F9000.000
G1 X33.735 Y45.789 E0.03443 F1200.000
G1 X34.005 Y45.654 E0.01639
G1 X34.481 Y45.466 E0.02781
G1 X35.149 Y45.295 E0.03747
G1 X35.444 Y45.251 E0.01623
G1 X35.935 Y45.219 E0.02672
G1 X65.021 Y45.218 E1.58033
G1 X65.346 Y45.231 E0.01765 F1200.000
G1 X65.851 Y45.295 E0.02769
G1 X66.519 Y45.466 E0.03748
G1 X66.995 Y45.654 E0.02782
G1 X67.342 Y45.831 E0.02111
G1 X67.600 Y45.987 E0.01641
G1 X68.014 Y46.288 E0.02780
G1 X68.516 Y46.760 E0.03744
G1 X68.841 Y47.152 E0.02770
G1 X69.061 Y47.476 E0.02127
G1 X69.307 Y47.923 E0.02772
G1 X69.430 Y48.199 E0.01640
G1 X69.673 Y48.949 E0.04285
G1 X70.327 Y48.949 E0.03552
G1 X70.570 Y48.199 E0.04284
G1 X70.789 Y47.735 E0.02790
G1 X70.987 Y47.400 E0.02115
G1 X71.288 Y46.986 E0.02780
G1 X71.545 Y46.694 E0.02111
G1 X71.759 Y46.484 E0.01633
G1 X72.153 Y46.158 E0.02773
G1 X72.658 Y45.831 E0.03273
G1 X73.282 Y45.538 E0.03746
G1 X73.767 Y45.380 E0.02769
G1 X74.061 Y45.311 E0.01639
G1 X74.745 Y45.225 E0.03748
G1 X104.346 Y45.231 E1.60828
G1 X104.939 Y45.311 E0.03253
G1 X105.436 Y45.439 E0.02788
G1 X105.995 Y45.654 E0.03258
G1 X106.524 Y45.938 E0.03259
G1 X106.848 Y46.159 E0.02127
G1 X107.305 Y46.545 E0.03255
G1 X107.656 Y46.919 E0.02786
G1 X108.013 Y47.400 E0.03253
G1 X108.211 Y47.735 E0.02115
G1 X108.430 Y48.199 E0.02789
G1 X108.561 Y48.564 E0.02108
G1 X108.689 Y49.061 E0.02785
G1 X108.749 Y49.444 E0.02108
G1 X108.781 Y49.956 E0.02788
G1 X108.769 Y50.345 E0.02117
G1 X108.708 Y50.835 E0.02681
G1 X102.048 Y84.431 E1.86088
G1 X101.891 Y85.135 E0.03922
G1 X101.642 Y85.992 E0.04846
G1 X101.400 Y86.664 E0.03879
G1 X101.084 Y87.402 E0.04363
G1 X100.679 Y88.197 E0.04846
G1 X100.316 Y88.811 E0.03880
G1 X99.867 Y89.477 E0.04362
G1 X99.320 Y90.181 E0.04846
G1 X98.848 Y90.717 E0.03880
G1 X98.282 Y91.287 E0.04362
G1 X97.613 Y91.877 E0.04847
G1 X96.977 Y92.367 E0.04362
G1 X96.386 Y92.768 E0.03880
G1 X95.619 Y93.222 E0.04846
G1 X94.902 Y93.584 E0.04362
G1 X94.247 Y93.868 E0.03880
G1 X93.336 Y94.190 E0.05249
G1 X92.636 Y94.391 E0.03959
G1 X91.851 Y94.563 E0.04362
G1 X91.146 Y94.675 E0.03880
G1 X90.347 Y94.753 E0.04363
G1 X89.455 Y94.781 E0.04847
G1 X88.742 Y94.759 E0.03879
G1 X87.942 Y94.686 E0.04363
G1 X87.149 Y94.563 E0.04363
G1 X86.364 Y94.391 E0.04363
G1 X85.508 Y94.142 E0.04846
G1 X84.836 Y93.900 E0.03880
G1 X84.098 Y93.584 E0.04362
G1 X83.304 Y93.179 E0.04846
G1 X82.689 Y92.816 E0.03880
G1 X82.023 Y92.367 E0.04363
G1 X81.319 Y91.820 E0.04846
G1 X80.718 Y91.287 E0.04363
G1 X80.213 Y90.782 E0.03880
G1 X79.680 Y90.182 E0.04362
G1 X79.231 Y89.607 E0.03959
G1 X78.684 Y88.811 E0.05249
G1 X78.278 Y88.119 E0.04363
G1 X77.916 Y87.402 E0.04363
G1 X77.632 Y86.746 E0.03880
G1 X77.330 Y85.907 E0.04845
G1 X77.131 Y85.222 E0.03880
G1 X76.959 Y84.464 E0.04219
G1 X70.358 Y51.172 E1.84411
G1 X69.642 Y51.172 E0.03887
G1 X63.048 Y84.431 E1.84225
G1 X62.891 Y85.135 E0.03922
G1 X62.642 Y85.992 E0.04846
G1 X62.400 Y86.664 E0.03879
G1 X62.084 Y87.402 E0.04363
G1 X61.722 Y88.119 E0.04363
G1 X61.268 Y88.886 E0.04846
G1 X60.814 Y89.549 E0.04362
G1 X60.320 Y90.181 E0.04363
G1 X59.848 Y90.717 E0.03880
G1 X59.282 Y91.287 E0.04362
G1 X58.613 Y91.877 E0.04847
G1 X57.977 Y92.367 E0.04362
G1 X57.386 Y92.768 E0.03880
G1 X56.619 Y93.222 E0.04846
G1 X55.902 Y93.584 E0.04362
G1 X55.247 Y93.868 E0.03880
G1 X54.336 Y94.190 E0.05249
G1 X53.636 Y94.391 E0.03959
G1 X52.851 Y94.563 E0.04362
G1 X52.146 Y94.675 E0.03880
G1 X51.347 Y94.753 E0.04363
G1 X50.455 Y94.781 E0.04847
G1 X49.742 Y94.759 E0.03879
G1 X48.942 Y94.686 E0.04363
G1 X48.149 Y94.563 E0.04363
G1 X47.364 Y94.391 E0.04363
G1 X46.438 Y94.117 E0.05249
G1 X45.753 Y93.868 E0.03959
G1 X45.018 Y93.546 E0.04363
G1 X44.381 Y93.222 E0.03879
G1 X43.689 Y92.816 E0.04363
G1 X42.951 Y92.314 E0.04846
G1 X42.319 Y91.820 E0.04363
G1 X41.718 Y91.287 E0.04363
G1 X41.213 Y90.782 E0.03880
G1 X40.623 Y90.113 E0.04846
G1 X40.186 Y89.549 E0.03880
G1 X39.732 Y88.886 E0.04363
G1 X39.278 Y88.119 E0.04846
G1 X38.916 Y87.402 E0.04363
G1 X38.632 Y86.746 E0.03880
G1 X38.330 Y85.907 E0.04845
G1 X38.131 Y85.222 E0.03880
G1 X37.959 Y84.464 E0.04219
G1 X31.302 Y50.890 E1.85973
G1 X31.251 Y50.556 E0.01832
G1 X31.225 Y50.255 E0.01640
G1 X31.225 Y49.745 E0.02773
G1 X31.295 Y49.149 E0.03263
G1 X31.439 Y48.564 E0.03271
G1 X31.655 Y48.004 E0.03258
G1 X31.938 Y47.476 E0.03258
G1 X32.288 Y46.986 E0.03272
G1 X32.694 Y46.545 E0.03259
G1 X33.161 Y46.152 E0.03315
G1 E-3.50000 F2400.00000
G1 X70.665 Y49.689 F9000.000
G1 E3.50000 F2400.00000
G1 X70.724 Y49.223 E0.02549 F1200.000
G1 X70.781 Y48.956 E0.01488
G1 X70.878 Y48.622 E0.01889
G1 X71.052 Y48.184 E0.02559
G1 X71.351 Y47.639 E0.03378
G1 X71.628 Y47.258 E0.02557
G1 X71.858 Y46.998 E0.01889
G1 X72.201 Y46.675 E0.02558
G1 X72.475 Y46.463 E0.01885
G1 X72.704 Y46.310 E0.01494
G1 X73.115 Y46.084 E0.02548
G1 X73.436 Y45.945 E0.01902
G1 X73.882 Y45.800 E0.02548
G1 X74.492 Y45.684 E0.03375
G1 X74.982 Y45.654 E0.02668
G1 X104.054 Y45.655 E1.57958
G1 X104.581 Y45.693 E0.02871 F1200.000
G1 X105.045 Y45.781 E0.02562
G1 X105.378 Y45.878 E0.01888
G1 X105.816 Y46.052 E0.02558
G1 X106.126 Y46.209 E0.01888
G1 X106.525 Y46.463 E0.02569
G1 X106.947 Y46.806 E0.02956
G1 X107.194 Y47.053 E0.01896
G1 X107.493 Y47.414 E0.02549
G1 X107.690 Y47.704 E0.01902
G1 X107.948 Y48.184 E0.02963
G1 X108.122 Y48.622 E0.02560
G1 X108.219 Y48.955 E0.01886
G1 X108.316 Y49.492 E0.02963
G1 X108.346 Y49.963 E0.02564
G1 X108.335 Y50.311 E0.01894
G1 X108.270 Y50.809 E0.02728
G1 X101.621 Y84.344 E1.85750
G1 X101.449 Y85.107 E0.04251
G1 X101.230 Y85.851 E0.04214
G1 X100.965 Y86.580 E0.04214
G1 X100.687 Y87.223 E0.03805
G1 X100.337 Y87.915 E0.04214
G1 X99.944 Y88.583 E0.04214
G1 X99.466 Y89.287 E0.04623
G1 X98.989 Y89.899 E0.04214
G1 X98.474 Y90.479 E0.04214
G1 X97.924 Y91.026 E0.04214
G1 X97.399 Y91.489 E0.03805
G1 X96.726 Y92.010 E0.04622
G1 X96.083 Y92.444 E0.04215
G1 X95.415 Y92.837 E0.04214
G1 X94.661 Y93.214 E0.04580
G1 X94.010 Y93.493 E0.03847
G1 X93.351 Y93.730 E0.03805
G1 X92.607 Y93.949 E0.04214
G1 X91.777 Y94.134 E0.04622
G1 X91.010 Y94.253 E0.04215
G1 X90.170 Y94.326 E0.04579
G1 X89.462 Y94.346 E0.03849
G1 X88.762 Y94.324 E0.03804
G1 X87.990 Y94.253 E0.04214
G1 X87.150 Y94.120 E0.04623
G1 X86.393 Y93.949 E0.04215
G1 X85.721 Y93.753 E0.03805
G1 X84.990 Y93.493 E0.04214
G1 X84.277 Y93.187 E0.04214
G1 X83.519 Y92.801 E0.04623
G1 X82.853 Y92.404 E0.04214
G1 X82.274 Y92.010 E0.03805
G1 X81.659 Y91.537 E0.04214
G1 X81.076 Y91.026 E0.04214
G1 X80.474 Y90.424 E0.04623
G1 X80.011 Y89.899 E0.03805
G1 X79.575 Y89.340 E0.03848
G1 X79.096 Y88.647 E0.04580
G1 X78.699 Y87.981 E0.04214
G1 X78.313 Y87.223 E0.04623
G1 X78.007 Y86.510 E0.04214
G1 X77.747 Y85.779 E0.04214
G1 X77.533 Y85.034 E0.04214
G1 X77.379 Y84.344 E0.03842
G1 X70.730 Y50.809 E1.85750
G1 X70.660 Y50.235 E0.03142
G1 X70.662 Y49.734 E0.02723
G1 X71.097 Y49.761 F9000.000
G1 X71.124 Y49.480 E0.01536 F1200.000
G1 X71.205 Y49.057 E0.02336
G1 X71.291 Y48.763 E0.01667
G1 X71.449 Y48.363 E0.02336
G1 X71.715 Y47.878 E0.03005
G1 X71.968 Y47.531 E0.02334
G1 X72.171 Y47.301 E0.01666
G1 X72.484 Y47.007 E0.02335
G1 X72.726 Y46.819 E0.01663
G1 X72.931 Y46.682 E0.01343
G1 X73.307 Y46.475 E0.02327
G1 X73.590 Y46.353 E0.01677
G1 X73.997 Y46.220 E0.02326
G1 X74.540 Y46.117 E0.03003
G1 X74.986 Y46.090 E0.02426
G1 X104.014 Y46.090 E1.57721
G1 X104.460 Y46.117 E0.02427 F1200.000
G1 X104.762 Y46.165 E0.01663
G1 X105.180 Y46.272 E0.02339
G1 X105.637 Y46.449 E0.02665
G1 X105.910 Y46.588 E0.01666
G1 X106.274 Y46.819 E0.02344
G1 X106.654 Y47.128 E0.02661
G1 X106.872 Y47.346 E0.01672
G1 X107.145 Y47.676 E0.02327
G1 X107.318 Y47.931 E0.01677
G1 X107.551 Y48.363 E0.02666
G1 X107.710 Y48.763 E0.02336
G1 X107.795 Y49.057 E0.01664
