;FLAVOR:UltiGCode
;TIME:1091
;MATERIAL:855
;MATERIAL2:0

;Layer count: 168
;LAYER:0
M107
G0 F9000 X106.031 Y104.076 Z0.300
;TYPE:SKIRT
G1 F1200 X106.432 Y103.675 E0.06805
G1 X106.581 Y103.534 E0.09267
G1 X106.693 Y103.429 E0.11109
G1 X106.804 Y103.329 E0.12902
G1 X106.959 Y103.192 E0.15384
G1 X107.062 Y103.105 E0.17002
G1 X107.118 Y103.057 E0.17887
G1 X107.278 Y102.926 E0.20369
G1 X107.440 Y102.797 E0.22854
G1 X107.505 Y102.749 E0.23823
G1 X107.608 Y102.668 E0.25396
G1 X107.775 Y102.546 E0.27878
G1 X107.932 Y102.433 E0.30199
G1 X108.153 Y102.283 E0.33404
G1 X108.374 Y102.137 E0.36583
G1 X108.583 Y102.007 E0.39536
G1 X108.652 Y101.966 E0.40499
G1 X108.782 Y101.888 E0.42319
G1 X108.942 Y101.796 E0.44533
G1 X109.045 Y101.738 E0.45952
G1 X109.200 Y101.653 E0.48073
G1 X109.361 Y101.569 E0.50252
G1 X109.467 Y101.515 E0.51680
G1 X109.628 Y101.435 E0.53837
G1 X109.789 Y101.359 E0.55974
G1 X109.898 Y101.309 E0.57413
G1 X110.006 Y101.260 E0.58836
G1 X110.200 Y101.174 E0.61382
G1 X110.394 Y101.096 E0.63891
G1 X110.583 Y101.021 E0.66331
G1 X110.757 Y100.955 E0.68565
G1 X110.933 Y100.892 E0.70808
G1 X111.069 Y100.846 E0.72531
G1 X111.205 Y100.801 E0.74250
G1 X111.439 Y100.727 E0.77195
G1 X111.638 Y100.668 E0.79686
G1 X111.822 Y100.618 E0.81974
G1 X111.940 Y100.587 E0.83438
G1 X112.077 Y100.553 E0.85132
G1 X112.262 Y100.509 E0.87413
G1 X112.397 Y100.479 E0.89073
G1 X112.520 Y100.453 E0.90582
G1 X112.706 Y100.416 E0.92857
G1 X113.022 Y100.359 E0.96710
G1 X113.169 Y100.338 E0.98492
G1 X113.285 Y100.319 E0.99903
G1 X113.486 Y100.294 E1.02334
G1 X113.594 Y100.281 E1.03639
G1 X113.787 Y100.260 E1.05969
G1 X113.917 Y100.248 E1.07535
G1 X114.043 Y100.237 E1.09053
G1 X114.231 Y100.224 E1.11314
G1 X114.429 Y100.213 E1.13694
G1 X114.553 Y100.209 E1.15183
G1 X114.679 Y100.204 E1.16696
G1 X114.805 Y100.202 E1.18208
G1 X115.000 Y100.199 E1.20548
G1 X115.195 Y100.202 E1.22889
G1 X115.321 Y100.204 E1.24401
G1 X115.447 Y100.209 E1.25914
G1 X115.571 Y100.213 E1.27403
G1 X115.769 Y100.224 E1.29783
G1 X115.957 Y100.237 E1.32044
G1 X116.083 Y100.248 E1.33562
G1 X116.213 Y100.260 E1.35128
G1 X116.406 Y100.281 E1.37458
G1 X116.514 Y100.294 E1.38763
G1 X116.715 Y100.319 E1.41194
G1 X116.831 Y100.338 E1.42604
G1 X116.978 Y100.359 E1.44386
G1 X117.294 Y100.416 E1.48240
G1 X117.480 Y100.453 E1.50515
G1 X117.603 Y100.479 E1.52024
G1 X117.738 Y100.509 E1.53683
G1 X117.923 Y100.553 E1.55965
G1 X118.060 Y100.587 E1.57659
G1 X118.178 Y100.618 E1.59123
G1 X118.362 Y100.668 E1.61411
G1 X118.561 Y100.727 E1.63902
G1 X118.795 Y100.801 E1.66847
G1 X118.931 Y100.846 E1.68566
G1 X119.067 Y100.892 E1.70289
G1 X119.243 Y100.955 E1.72532
G1 X119.417 Y101.021 E1.74765
G1 X119.606 Y101.096 E1.77205
G1 X119.800 Y101.174 E1.79715
G1 X119.994 Y101.260 E1.82261
G1 X120.102 Y101.309 E1.83684
G1 X120.211 Y101.359 E1.85123
G1 X120.372 Y101.435 E1.87260
G1 X120.533 Y101.515 E1.89417
G1 X120.639 Y101.569 E1.90845
G1 X120.800 Y101.653 E1.93024
G1 X120.955 Y101.738 E1.95145
G1 X121.058 Y101.796 E1.96564
G1 X121.218 Y101.888 E1.98778
G1 X121.348 Y101.966 E2.00598
G1 X121.417 Y102.007 E2.01561
G1 X121.626 Y102.137 E2.04514
G1 X121.847 Y102.283 E2.07693
G1 X122.068 Y102.433 E2.10898
G1 X122.225 Y102.546 E2.13219
G1 X122.392 Y102.668 E2.15701
G1 X122.495 Y102.749 E2.17273
G1 X122.560 Y102.797 E2.18243
G1 X122.722 Y102.926 E2.20728
G1 X122.882 Y103.057 E2.23210
G1 X122.938 Y103.105 E2.24095
G1 X123.041 Y103.192 E2.25712
G1 X123.196 Y103.329 E2.28195
G1 X123.307 Y103.429 E2.29988
G1 X123.419 Y103.534 E2.31830
G1 X123.674 Y103.776 E2.36049
G1 X124.489 Y104.655 E2.50433
G1 X125.310 Y105.773 E2.67078
G1 X126.003 Y106.976 E2.83738
G1 X126.557 Y108.256 E3.00475
G1 X126.962 Y109.588 E3.17181
G1 X127.198 Y110.873 E3.32859
G1 X127.286 Y111.834 E3.44439
G1 X127.306 Y112.741 E3.55326
G1 X127.216 Y114.038 E3.70927
G1 X126.968 Y115.392 E3.87446
G1 X126.600 Y116.620 E4.02829
G1 X126.077 Y117.876 E4.19156
G1 X125.415 Y119.062 E4.35455
G1 X124.740 Y120.024 E4.49557
G1 X123.969 Y120.924 E4.63778
G1 X123.568 Y121.325 E4.70583
G1 X123.419 Y121.466 E4.73045
G1 X123.307 Y121.571 E4.74887
G1 X123.196 Y121.671 E4.76680
G1 X123.041 Y121.808 E4.79162
G1 X122.938 Y121.895 E4.80780
G1 X122.882 Y121.943 E4.81665
G1 X122.722 Y122.074 E4.84147
G1 X122.560 Y122.203 E4.86632
G1 X122.495 Y122.251 E4.87601
G1 X122.392 Y122.332 E4.89174
G1 X122.225 Y122.454 E4.91656
G1 X122.068 Y122.567 E4.93977
G1 X121.847 Y122.717 E4.97182
G1 X121.626 Y122.863 E5.00361
G1 X121.417 Y122.993 E5.03314
G1 X121.348 Y123.034 E5.04277
G1 X121.218 Y123.112 E5.06097
G1 X121.058 Y123.204 E5.08311
G1 X120.955 Y123.262 E5.09730
G1 X120.800 Y123.347 E5.11851
G1 X120.639 Y123.431 E5.14030
G1 X120.533 Y123.485 E5.15458
G1 X120.372 Y123.565 E5.17615
G1 X120.211 Y123.641 E5.19752
G1 X120.102 Y123.691 E5.21191
G1 X119.994 Y123.740 E5.22614
G1 X119.800 Y123.826 E5.25160
G1 X119.606 Y123.904 E5.27669
G1 X119.417 Y123.979 E5.30109
G1 X119.243 Y124.045 E5.32343
G1 X119.067 Y124.108 E5.34586
G1 X118.931 Y124.154 E5.36309
G1 X118.795 Y124.199 E5.38028
G1 X118.561 Y124.273 E5.40973
G1 X118.362 Y124.332 E5.43464
G1 X118.178 Y124.382 E5.45752
G1 X118.060 Y124.413 E5.47216
G1 X117.923 Y124.447 E5.48909
G1 X117.738 Y124.491 E5.51191
G1 X117.603 Y124.521 E5.52851
G1 X117.480 Y124.547 E5.54360
G1 X117.294 Y124.584 E5.56635
G1 X117.007 Y124.635 E5.60133
G1 X116.669 Y124.687 E5.64237
G1 X116.109 Y124.754 E5.71005
G1 X114.976 Y124.811 E5.84618
G1 X113.743 Y124.741 E5.99438
G1 X113.174 Y124.663 E6.06330
G1 X112.864 Y124.613 E6.10098
G1 X112.560 Y124.556 E6.13809
G1 X112.397 Y124.521 E6.15810
G1 X112.262 Y124.491 E6.17470
G1 X112.077 Y124.447 E6.19751
G1 X111.940 Y124.413 E6.21445
G1 X111.822 Y124.382 E6.22909
G1 X111.638 Y124.332 E6.25197
G1 X111.439 Y124.273 E6.27688
G1 X111.205 Y124.199 E6.30633
G1 X111.069 Y124.154 E6.32352
G1 X110.902 Y124.097 E6.34470
G1 X110.613 Y123.991 E6.38164
G1 X110.394 Y123.904 E6.40991
G1 X110.200 Y123.826 E6.43501
G1 X110.006 Y123.740 E6.46047
G1 X109.898 Y123.691 E6.47470
G1 X109.789 Y123.641 E6.48909
G1 X109.628 Y123.565 E6.51046
G1 X109.467 Y123.485 E6.53203
G1 X109.361 Y123.431 E6.54631
G1 X109.200 Y123.347 E6.56810
G1 X109.045 Y123.262 E6.58931
G1 X108.942 Y123.204 E6.60350
G1 X108.782 Y123.112 E6.62564
G1 X108.652 Y123.034 E6.64384
G1 X108.583 Y122.993 E6.65347
G1 X108.374 Y122.863 E6.68300
G1 X108.153 Y122.717 E6.71479
G1 X107.932 Y122.567 E6.74684
G1 X107.775 Y122.454 E6.77005
G1 X107.608 Y122.332 E6.79487
G1 X107.505 Y122.251 E6.81059
G1 X107.440 Y122.203 E6.82029
G1 X107.278 Y122.074 E6.84514
G1 X107.118 Y121.943 E6.86996
G1 X107.062 Y121.895 E6.87881
G1 X106.959 Y121.808 E6.89499
G1 X106.804 Y121.671 E6.91981
G1 X106.693 Y121.571 E6.93774
G1 X106.581 Y121.466 E6.95616
G1 X106.326 Y121.224 E6.99835
G1 X105.511 Y120.345 E7.14219
G1 X104.690 Y119.227 E7.30864
G1 X103.997 Y118.024 E7.47524
G1 X103.443 Y116.744 E7.64261
G1 X103.038 Y115.412 E7.80967
G1 X102.802 Y114.127 E7.96645
G1 X102.714 Y113.166 E8.08225
G1 X102.694 Y112.259 E8.19112
G1 X102.784 Y110.962 E8.34713
G1 X103.032 Y109.608 E8.51232
G1 X103.400 Y108.380 E8.66615
G1 X103.923 Y107.124 E8.82942
G1 X104.585 Y105.938 E8.99241
G1 X105.260 Y104.976 E9.13343
G1 X106.031 Y104.076 E9.27564
G0 F9000 X106.324 Y104.348
G1 F1200 X106.712 Y103.961 E9.34140
G1 X106.855 Y103.825 E9.36508
G1 X106.963 Y103.724 E9.38283
G1 X107.070 Y103.628 E9.40008
G1 X107.220 Y103.495 E9.42413
G1 X107.298 Y103.430 E9.43632
G1 X107.375 Y103.364 E9.44849
G1 X107.529 Y103.237 E9.47244
G1 X107.685 Y103.113 E9.49635
G1 X107.775 Y103.046 E9.50982
G1 X107.849 Y102.988 E9.52110
G1 X108.010 Y102.870 E9.54505
G1 X108.161 Y102.761 E9.56740
G1 X108.375 Y102.616 E9.59842
G1 X108.590 Y102.474 E9.62934
G1 X108.791 Y102.348 E9.65781
G1 X108.859 Y102.308 E9.66728
G1 X108.984 Y102.233 E9.68477
G1 X109.139 Y102.144 E9.70622
G1 X109.239 Y102.088 E9.71997
G1 X109.389 Y102.006 E9.74048
G1 X109.544 Y101.925 E9.76147
G1 X109.648 Y101.872 E9.77548
G1 X109.802 Y101.795 E9.79614
G1 X109.958 Y101.722 E9.81681
G1 X110.064 Y101.673 E9.83082
G1 X110.169 Y101.625 E9.84467
G1 X110.356 Y101.543 E9.86918
G1 X110.543 Y101.467 E9.89340
G1 X110.728 Y101.394 E9.91727
G1 X110.895 Y101.331 E9.93868
G1 X111.064 Y101.270 E9.96025
G1 X111.196 Y101.225 E9.97698
G1 X111.329 Y101.181 E9.99379
G1 X111.556 Y101.110 E10.02233
G1 X111.747 Y101.053 E10.04625
G1 X111.925 Y101.005 E10.06837
G1 X112.040 Y100.975 E10.08264
G1 X112.172 Y100.941 E10.09899
G1 X112.351 Y100.899 E10.12106
G1 X112.482 Y100.870 E10.13716
G1 X112.601 Y100.845 E10.15175
G1 X112.781 Y100.809 E10.17378
G1 X113.086 Y100.754 E10.21097
G1 X113.224 Y100.734 E10.22770
G1 X113.342 Y100.715 E10.24204
G1 X113.535 Y100.691 E10.26538
G1 X113.640 Y100.678 E10.27808
G1 X113.826 Y100.658 E10.30053
G1 X113.953 Y100.647 E10.31582
G1 X114.075 Y100.636 E10.33052
G1 X114.256 Y100.623 E10.35230
G1 X114.446 Y100.613 E10.37513
G1 X114.567 Y100.609 E10.38966
G1 X114.690 Y100.604 E10.40443
G1 X114.812 Y100.602 E10.41907
G1 X115.000 Y100.599 E10.44163
G1 X115.188 Y100.602 E10.46420
G1 X115.310 Y100.604 E10.47884
G1 X115.433 Y100.609 E10.49361
G1 X115.554 Y100.613 E10.50814
G1 X115.744 Y100.623 E10.53097
G1 X115.925 Y100.636 E10.55275
G1 X116.047 Y100.647 E10.56745
G1 X116.174 Y100.658 E10.58274
G1 X116.360 Y100.678 E10.60519
G1 X116.465 Y100.691 E10.61789
G1 X116.658 Y100.715 E10.64123
G1 X116.776 Y100.734 E10.65557
G1 X116.914 Y100.754 E10.67230
G1 X117.219 Y100.809 E10.70949
G1 X117.399 Y100.845 E10.73152
G1 X117.518 Y100.870 E10.74611
G1 X117.649 Y100.899 E10.76221
G1 X117.828 Y100.941 E10.78428
G1 X117.960 Y100.975 E10.80063
G1 X118.075 Y101.005 E10.81489
G1 X118.253 Y101.053 E10.83702
G1 X118.444 Y101.110 E10.86094
G1 X118.671 Y101.181 E10.88948
G1 X118.804 Y101.225 E10.90629
G1 X118.936 Y101.270 E10.92302
G1 X119.105 Y101.331 E10.94458
G1 X119.272 Y101.394 E10.96600
G1 X119.457 Y101.467 E10.98987
G1 X119.644 Y101.543 E11.01409
G1 X119.831 Y101.625 E11.03859
G1 X119.936 Y101.673 E11.05245
G1 X120.042 Y101.722 E11.06646
G1 X120.198 Y101.795 E11.08713
G1 X120.352 Y101.872 E11.10779
G1 X120.456 Y101.925 E11.12180
G1 X120.611 Y102.006 E11.14278
G1 X120.761 Y102.088 E11.16330
G1 X120.861 Y102.144 E11.17705
G1 X121.016 Y102.233 E11.19850
G1 X121.141 Y102.308 E11.21599
G1 X121.209 Y102.348 E11.22546
G1 X121.410 Y102.474 E11.25393
G1 X121.625 Y102.616 E11.28485
G1 X121.839 Y102.761 E11.31587
G1 X121.990 Y102.870 E11.33821
G1 X122.151 Y102.988 E11.36217
G1 X122.225 Y103.046 E11.37345
G1 X122.315 Y103.113 E11.38691
G1 X122.471 Y103.237 E11.41083
G1 X122.625 Y103.364 E11.43478
G1 X122.702 Y103.430 E11.44695
G1 X122.780 Y103.495 E11.45913
G1 X122.930 Y103.628 E11.48319
G1 X123.037 Y103.724 E11.50044
G1 X123.145 Y103.825 E11.51819
G1 X123.389 Y104.057 E11.55859
G1 X124.180 Y104.910 E11.69819
G1 X124.975 Y105.992 E11.85931
G1 X125.645 Y107.156 E12.02047
G1 X126.180 Y108.394 E12.18231
G1 X126.573 Y109.683 E12.34402
G1 X126.802 Y110.928 E12.49593
G1 X126.887 Y111.857 E12.60787
G1 X126.905 Y112.731 E12.71277
G1 X126.819 Y113.988 E12.86397
G1 X126.578 Y115.298 E13.02381
G1 X126.222 Y116.486 E13.17263
G1 X125.717 Y117.702 E13.33063
G1 X125.076 Y118.850 E13.48841
G1 X124.424 Y119.779 E13.62461
G1 X123.676 Y120.652 E13.76256
G1 X123.288 Y121.039 E13.82832
G1 X123.145 Y121.175 E13.85200
G1 X123.037 Y121.276 E13.86975
G1 X122.930 Y121.372 E13.88700
G1 X122.780 Y121.505 E13.91106
G1 X122.702 Y121.570 E13.92324
G1 X122.625 Y121.636 E13.93541
G1 X122.471 Y121.763 E13.95936
G1 X122.315 Y121.887 E13.98328
G1 X122.225 Y121.954 E13.99674
G1 X122.151 Y122.012 E14.00802
G1 X121.990 Y122.130 E14.03198
G1 X121.839 Y122.239 E14.05432
G1 X121.625 Y122.384 E14.08534
G1 X121.410 Y122.526 E14.11626
G1 X121.209 Y122.652 E14.14473
G1 X121.141 Y122.692 E14.15420
G1 X121.016 Y122.767 E14.17169
G1 X120.861 Y122.856 E14.19314
G1 X120.761 Y122.912 E14.20689
G1 X120.611 Y122.994 E14.22741
G1 X120.456 Y123.075 E14.24839
G1 X120.352 Y123.128 E14.26240
G1 X120.198 Y123.205 E14.28306
G1 X120.042 Y123.278 E14.30373
G1 X119.936 Y123.327 E14.31774
G1 X119.831 Y123.375 E14.33160
G1 X119.644 Y123.457 E14.35610
G1 X119.457 Y123.533 E14.38032
G1 X119.272 Y123.606 E14.40419
G1 X119.105 Y123.669 E14.42561
G1 X118.936 Y123.730 E14.44717
G1 X118.804 Y123.775 E14.46390
G1 X118.671 Y123.819 E14.48071
G1 X118.444 Y123.890 E14.50925
G1 X118.253 Y123.947 E14.53317
G1 X118.075 Y123.995 E14.55530
G1 X117.960 Y124.025 E14.56956
G1 X117.828 Y124.059 E14.58591
G1 X117.649 Y124.101 E14.60798
G1 X117.518 Y124.130 E14.62408
G1 X117.399 Y124.155 E14.63867
G1 X117.219 Y124.191 E14.66070
G1 X116.942 Y124.241 E14.69448
G1 X116.615 Y124.291 E14.73417
G1 X116.075 Y124.355 E14.79943
G1 X114.977 Y124.411 E14.93136
G1 X113.782 Y124.342 E15.07500
G1 X113.233 Y124.268 E15.14147
G1 X112.933 Y124.219 E15.17795
G1 X112.639 Y124.163 E15.21386
G1 X112.482 Y124.130 E15.23311
G1 X112.351 Y124.101 E15.24921
G1 X112.172 Y124.059 E15.27128
G1 X112.040 Y124.025 E15.28763
G1 X111.925 Y123.995 E15.30190
G1 X111.747 Y123.947 E15.32402
G1 X111.556 Y123.890 E15.34794
G1 X111.329 Y123.819 E15.37648
G1 X111.196 Y123.775 E15.39329
G1 X111.035 Y123.720 E15.41371
G1 X110.756 Y123.617 E15.44940
G1 X110.543 Y123.533 E15.47687
G1 X110.356 Y123.457 E15.50109
G1 X110.169 Y123.375 E15.52560
G1 X110.064 Y123.327 E15.53945
G1 X109.958 Y123.278 E15.55346
G1 X109.802 Y123.205 E15.57413
G1 X109.648 Y123.128 E15.59479
G1 X109.544 Y123.075 E15.60880
G1 X109.389 Y122.994 E15.62979
G1 X109.239 Y122.912 E15.65030
G1 X109.139 Y122.856 E15.66405
G1 X108.984 Y122.767 E15.68550
G1 X108.859 Y122.692 E15.70300
G1 X108.791 Y122.652 E15.71246
G1 X108.590 Y122.526 E15.74093
G1 X108.375 Y122.384 E15.77185
G1 X108.161 Y122.239 E15.80287
G1 X108.010 Y122.130 E15.82522
G1 X107.849 Y122.012 E15.84917
G1 X107.775 Y121.954 E15.86045
G1 X107.685 Y121.887 E15.87392
G1 X107.529 Y121.763 E15.89783
G1 X107.375 Y121.636 E15.92178
G1 X107.298 Y121.570 E15.93395
G1 X107.220 Y121.505 E15.94614
G1 X107.070 Y121.372 E15.97019
G1 X106.963 Y121.276 E15.98744
G1 X106.855 Y121.175 E16.00519
G1 X106.611 Y120.943 E16.04559
G1 X105.820 Y120.090 E16.18519
G1 X105.025 Y119.008 E16.34631
G1 X104.355 Y117.844 E16.50748
G1 X103.820 Y116.606 E16.66931
G1 X103.427 Y115.317 E16.83102
G1 X103.198 Y114.072 E16.98293
G1 X103.113 Y113.143 E17.09488
G1 X103.095 Y112.269 E17.19978
G1 X103.181 Y111.012 E17.35097
G1 X103.422 Y109.702 E17.51081
G1 X103.778 Y108.514 E17.65963
G1 X104.283 Y107.298 E17.81763
G1 X104.924 Y106.150 E17.97541
G1 X105.576 Y105.221 E18.11161
G1 X106.324 Y104.348 E18.24956
G0 F9000 X106.618 Y104.620
G1 F1200 X106.991 Y104.247 E18.31287
G1 X107.128 Y104.117 E18.33553
G1 X107.233 Y104.019 E18.35276
G1 X107.337 Y103.926 E18.36951
G1 X107.481 Y103.799 E18.39255
G1 X107.541 Y103.748 E18.40200
G1 X107.632 Y103.670 E18.41638
G1 X107.781 Y103.549 E18.43941
G1 X107.931 Y103.430 E18.46239
G1 X108.045 Y103.343 E18.47960
G1 X108.091 Y103.307 E18.48661
G1 X108.245 Y103.194 E18.50953
G1 X108.390 Y103.089 E18.53101
G1 X108.598 Y102.948 E18.56116
G1 X108.806 Y102.810 E18.59112
G1 X108.999 Y102.690 E18.61839
G1 X109.121 Y102.618 E18.63539
G1 X109.187 Y102.578 E18.64465
G1 X109.336 Y102.492 E18.66530
G1 X109.434 Y102.438 E18.67872
G1 X109.578 Y102.358 E18.69849
G1 X109.728 Y102.280 E18.71878
G1 X109.828 Y102.229 E18.73225
G1 X109.977 Y102.155 E18.75221
G1 X110.127 Y102.084 E18.77213
G1 X110.230 Y102.036 E18.78576
G1 X110.332 Y101.990 E18.79919
G1 X110.512 Y101.911 E18.82278
G1 X110.691 Y101.839 E18.84593
G1 X110.872 Y101.767 E18.86931
G1 X111.033 Y101.706 E18.88997
G1 X111.196 Y101.648 E18.91073
G1 X111.324 Y101.604 E18.92697
G1 X111.452 Y101.562 E18.94314
G1 X111.673 Y101.492 E18.97096
G1 X111.857 Y101.438 E18.99397
G1 X112.028 Y101.391 E19.01525
G1 X112.139 Y101.362 E19.02901
G1 X112.267 Y101.330 E19.04485
G1 X112.440 Y101.289 E19.06618
G1 X112.567 Y101.261 E19.08179
G1 X112.682 Y101.236 E19.09591
G1 X112.855 Y101.202 E19.11707
G1 X113.150 Y101.149 E19.15303
G1 X113.276 Y101.131 E19.16831
G1 X113.398 Y101.111 E19.18314
G1 X113.584 Y101.088 E19.20563
G1 X113.686 Y101.075 E19.21797
G1 X113.865 Y101.056 E19.23957
G1 X113.988 Y101.045 E19.25439
