;FLAVOR:UltiGCode
;TIME:1120
;MATERIAL:956
;MATERIAL2:0

;Layer count: 168
;LAYER:0
M107
G0 F9000 X106.251 Y103.948 Z0.300
;TYPE:SKIRT
G1 F1200 X106.652 Y103.547 E0.06805
G1 X106.801 Y103.406 E0.09267
G1 X106.913 Y103.301 E0.11109
G1 X107.024 Y103.201 E0.12902
G1 X107.179 Y103.064 E0.15384
G1 X107.282 Y102.977 E0.17002
G1 X107.338 Y102.929 E0.17887
G1 X107.498 Y102.798 E0.20369
G1 X107.660 Y102.669 E0.22854
G1 X107.725 Y102.621 E0.23823
G1 X107.828 Y102.540 E0.25396
G1 X107.995 Y102.418 E0.27878
G1 X108.152 Y102.305 E0.30199
G1 X108.373 Y102.155 E0.33404
G1 X108.594 Y102.009 E0.36583
G1 X108.803 Y101.879 E0.39536
G1 X108.872 Y101.838 E0.40499
G1 X109.002 Y101.760 E0.42319
G1 X109.162 Y101.668 E0.44533
G1 X109.265 Y101.610 E0.45952
G1 X109.420 Y101.525 E0.48073
G1 X109.581 Y101.441 E0.50252
G1 X109.687 Y101.387 E0.51680
G1 X109.848 Y101.307 E0.53837
G1 X110.009 Y101.231 E0.55974
G1 X110.118 Y101.181 E0.57413
G1 X110.226 Y101.132 E0.58836
G1 X110.420 Y101.046 E0.61382
G1 X110.614 Y100.968 E0.63891
G1 X110.803 Y100.893 E0.66331
G1 X110.977 Y100.827 E0.68565
G1 X111.153 Y100.764 E0.70808
G1 X111.289 Y100.718 E0.72531
G1 X111.425 Y100.673 E0.74250
G1 X111.659 Y100.599 E0.77195
G1 X111.858 Y100.540 E0.79686
G1 X112.042 Y100.490 E0.81974
G1 X112.160 Y100.459 E0.83438
G1 X112.297 Y100.425 E0.85132
G1 X112.482 Y100.381 E0.87413
G1 X112.617 Y100.351 E0.89073
G1 X112.740 Y100.325 E0.90582
G1 X112.926 Y100.288 E0.92857
G1 X113.242 Y100.231 E0.96710
G1 X113.389 Y100.210 E0.98492
G1 X113.505 Y100.191 E0.99903
G1 X113.706 Y100.166 E1.02334
G1 X113.814 Y100.153 E1.03639
G1 X114.007 Y100.132 E1.05969
G1 X114.137 Y100.120 E1.07535
G1 X114.263 Y100.109 E1.09053
G1 X114.451 Y100.096 E1.11314
G1 X114.649 Y100.085 E1.13694
G1 X114.773 Y100.081 E1.15183
G1 X114.899 Y100.076 E1.16696
G1 X115.025 Y100.074 E1.18208
G1 X115.220 Y100.071 E1.20548
G1 X115.415 Y100.074 E1.22889
G1 X115.541 Y100.076 E1.24401
G1 X115.667 Y100.081 E1.25914
G1 X115.791 Y100.085 E1.27403
G1 X115.989 Y100.096 E1.29783
G1 X116.177 Y100.109 E1.32044
G1 X116.303 Y100.120 E1.33562
G1 X116.433 Y100.132 E1.35128
G1 X116.626 Y100.153 E1.37458
G1 X116.734 Y100.166 E1.38763
G1 X116.935 Y100.191 E1.41194
G1 X117.051 Y100.210 E1.42604
G1 X117.198 Y100.231 E1.44386
G1 X117.514 Y100.288 E1.48240
G1 X117.700 Y100.325 E1.50515
G1 X117.823 Y100.351 E1.52024
G1 X117.958 Y100.381 E1.53683
G1 X118.143 Y100.425 E1.55965
G1 X118.280 Y100.459 E1.57659
G1 X118.398 Y100.490 E1.59123
G1 X118.582 Y100.540 E1.61411
G1 X118.781 Y100.599 E1.63902
G1 X119.015 Y100.673 E1.66847
G1 X119.151 Y100.718 E1.68566
G1 X119.287 Y100.764 E1.70289
G1 X119.463 Y100.827 E1.72532
G1 X119.637 Y100.893 E1.74765
G1 X119.826 Y100.968 E1.77205
G1 X120.020 Y101.046 E1.79715
G1 X120.214 Y101.132 E1.82261
G1 X120.322 Y101.181 E1.83684
G1 X120.431 Y101.231 E1.85123
G1 X120.592 Y101.307 E1.87260
G1 X120.753 Y101.387 E1.89417
G1 X120.859 Y101.441 E1.90845
G1 X121.020 Y101.525 E1.93024
G1 X121.175 Y101.610 E1.95145
G1 X121.278 Y101.668 E1.96564
G1 X121.438 Y101.760 E1.98778
G1 X121.568 Y101.838 E2.00598
G1 X121.637 Y101.879 E2.01561
G1 X121.846 Y102.009 E2.04514
G1 X122.067 Y102.155 E2.07693
G1 X122.288 Y102.305 E2.10898
G1 X122.445 Y102.418 E2.13219
G1 X122.612 Y102.540 E2.15701
G1 X122.715 Y102.621 E2.17273
G1 X122.780 Y102.669 E2.18243
G1 X122.942 Y102.798 E2.20728
G1 X123.102 Y102.929 E2.23210
G1 X123.158 Y102.977 E2.24095
G1 X123.261 Y103.064 E2.25712
G1 X123.416 Y103.201 E2.28195
G1 X123.527 Y103.301 E2.29988
G1 X123.639 Y103.406 E2.31830
G1 X123.894 Y103.648 E2.36049
G1 X124.692 Y104.509 E2.50136
G1 X125.440 Y105.514 E2.65170
G1 X126.094 Y106.599 E2.80372
G1 X126.667 Y107.844 E2.96818
G1 X127.105 Y109.159 E3.13451
G1 X127.378 Y110.462 E3.29426
G1 X127.499 Y111.553 E3.42598
G1 X127.527 Y112.592 E3.55071
G1 X127.436 Y113.910 E3.70925
G1 X127.188 Y115.264 E3.87443
G1 X126.820 Y116.492 E4.02826
G1 X126.297 Y117.748 E4.19153
G1 X125.635 Y118.934 E4.35452
G1 X124.960 Y119.896 E4.49554
G1 X124.189 Y120.796 E4.63775
G1 X123.788 Y121.197 E4.70580
G1 X123.639 Y121.338 E4.73042
G1 X123.527 Y121.443 E4.74884
G1 X123.416 Y121.543 E4.76677
G1 X123.261 Y121.680 E4.79159
G1 X123.158 Y121.767 E4.80777
G1 X123.102 Y121.815 E4.81662
G1 X122.942 Y121.946 E4.84144
G1 X122.780 Y122.075 E4.86629
G1 X122.715 Y122.123 E4.87599
G1 X122.612 Y122.204 E4.89171
G1 X122.445 Y122.326 E4.91653
G1 X122.288 Y122.439 E4.93974
G1 X122.067 Y122.589 E4.97179
G1 X121.846 Y122.735 E5.00358
G1 X121.637 Y122.865 E5.03311
G1 X121.568 Y122.906 E5.04274
G1 X121.438 Y122.984 E5.06094
G1 X121.278 Y123.076 E5.08308
G1 X121.175 Y123.134 E5.09727
G1 X121.020 Y123.219 E5.11848
G1 X120.859 Y123.303 E5.14027
G1 X120.753 Y123.357 E5.15455
G1 X120.592 Y123.437 E5.17612
G1 X120.431 Y123.513 E5.19749
G1 X120.322 Y123.563 E5.21188
G1 X120.214 Y123.612 E5.22611
G1 X120.020 Y123.698 E5.25157
G1 X119.826 Y123.776 E5.27667
G1 X119.637 Y123.851 E5.30107
G1 X119.463 Y123.917 E5.32340
G1 X119.287 Y123.980 E5.34583
G1 X119.151 Y124.026 E5.36306
G1 X119.015 Y124.071 E5.38025
G1 X118.781 Y124.145 E5.40970
G1 X118.582 Y124.204 E5.43461
G1 X118.398 Y124.254 E5.45749
G1 X118.280 Y124.285 E5.47213
G1 X118.143 Y124.319 E5.48907
G1 X117.958 Y124.363 E5.51189
G1 X117.823 Y124.393 E5.52848
G1 X117.700 Y124.419 E5.54357
G1 X117.514 Y124.456 E5.56632
G1 X117.227 Y124.507 E5.60130
G1 X116.889 Y124.559 E5.64234
G1 X116.329 Y124.626 E5.71002
G1 X115.196 Y124.683 E5.84615
G1 X113.963 Y124.613 E5.99435
G1 X113.394 Y124.535 E6.06327
G1 X113.084 Y124.485 E6.10095
G1 X112.780 Y124.428 E6.13807
G1 X112.617 Y124.393 E6.15807
G1 X112.482 Y124.363 E6.17467
G1 X112.297 Y124.319 E6.19749
G1 X112.160 Y124.285 E6.21442
G1 X112.042 Y124.254 E6.22906
G1 X111.858 Y124.204 E6.25195
G1 X111.659 Y124.145 E6.27685
G1 X111.425 Y124.071 E6.30630
G1 X111.289 Y124.026 E6.32349
G1 X111.153 Y123.980 E6.34072
G1 X110.977 Y123.917 E6.36315
G1 X110.803 Y123.851 E6.38549
G1 X110.614 Y123.776 E6.40989
G1 X110.420 Y123.698 E6.43498
G1 X110.226 Y123.612 E6.46044
G1 X110.118 Y123.563 E6.47467
G1 X110.009 Y123.513 E6.48906
G1 X109.848 Y123.437 E6.51043
G1 X109.687 Y123.357 E6.53200
G1 X109.581 Y123.303 E6.54628
G1 X109.420 Y123.219 E6.56807
G1 X109.265 Y123.134 E6.58928
G1 X109.162 Y123.076 E6.60347
G1 X109.002 Y122.984 E6.62562
G1 X108.872 Y122.906 E6.64381
G1 X108.803 Y122.865 E6.65344
G1 X108.594 Y122.735 E6.68297
G1 X108.373 Y122.589 E6.71476
G1 X108.152 Y122.439 E6.74681
G1 X107.995 Y122.326 E6.77002
G1 X107.828 Y122.204 E6.79484
G1 X107.725 Y122.123 E6.81057
G1 X107.660 Y122.075 E6.82026
G1 X107.498 Y121.946 E6.84511
G1 X107.338 Y121.815 E6.86993
G1 X107.282 Y121.767 E6.87878
G1 X107.179 Y121.680 E6.89496
G1 X107.024 Y121.543 E6.91978
G1 X106.913 Y121.443 E6.93771
G1 X106.801 Y121.338 E6.95613
G1 X106.546 Y121.096 E6.99832
G1 X105.731 Y120.217 E7.14216
G1 X104.910 Y119.099 E7.30861
G1 X104.217 Y117.896 E7.47521
G1 X103.663 Y116.616 E7.64258
G1 X103.258 Y115.284 E7.80964
G1 X103.022 Y113.999 E7.96642
G1 X102.934 Y113.038 E8.08223
G1 X102.914 Y112.131 E8.19109
G1 X103.004 Y110.834 E8.34711
G1 X103.252 Y109.480 E8.51229
G1 X103.620 Y108.252 E8.66612
G1 X104.143 Y106.996 E8.82939
G1 X104.805 Y105.810 E8.99238
G1 X105.480 Y104.848 E9.13340
G1 X106.251 Y103.948 E9.27561
G0 F9000 X106.544 Y104.220
G1 F1200 X106.932 Y103.833 E9.34137
G1 X107.075 Y103.697 E9.36505
G1 X107.183 Y103.596 E9.38280
G1 X107.290 Y103.500 E9.40005
G1 X107.440 Y103.367 E9.42411
G1 X107.518 Y103.302 E9.43629
G1 X107.595 Y103.236 E9.44846
G1 X107.749 Y103.109 E9.47241
G1 X107.905 Y102.985 E9.49633
G1 X107.995 Y102.918 E9.50979
G1 X108.069 Y102.860 E9.52107
G1 X108.230 Y102.742 E9.54503
G1 X108.381 Y102.633 E9.56737
G1 X108.595 Y102.488 E9.59839
G1 X108.810 Y102.346 E9.62931
G1 X109.011 Y102.220 E9.65778
G1 X109.079 Y102.180 E9.66725
G1 X109.204 Y102.105 E9.68474
G1 X109.359 Y102.016 E9.70619
G1 X109.459 Y101.960 E9.71994
G1 X109.609 Y101.878 E9.74046
G1 X109.764 Y101.797 E9.76144
G1 X109.868 Y101.744 E9.77545
G1 X110.022 Y101.667 E9.79611
G1 X110.178 Y101.594 E9.81678
G1 X110.284 Y101.545 E9.83079
G1 X110.389 Y101.497 E9.84465
G1 X110.576 Y101.415 E9.86915
G1 X110.763 Y101.339 E9.89337
G1 X110.948 Y101.266 E9.91724
G1 X111.115 Y101.203 E9.93866
G1 X111.284 Y101.142 E9.96022
G1 X111.416 Y101.097 E9.97695
G1 X111.549 Y101.053 E9.99376
G1 X111.776 Y100.982 E10.02230
G1 X111.967 Y100.925 E10.04622
G1 X112.145 Y100.877 E10.06835
G1 X112.260 Y100.847 E10.08261
G1 X112.392 Y100.813 E10.09896
G1 X112.571 Y100.771 E10.12103
G1 X112.702 Y100.742 E10.13713
G1 X112.821 Y100.717 E10.15172
G1 X113.001 Y100.681 E10.17375
G1 X113.306 Y100.626 E10.21094
G1 X113.444 Y100.606 E10.22767
G1 X113.562 Y100.587 E10.24201
G1 X113.755 Y100.563 E10.26535
G1 X113.860 Y100.550 E10.27805
G1 X114.046 Y100.530 E10.30050
G1 X114.173 Y100.519 E10.31579
G1 X114.295 Y100.508 E10.33049
G1 X114.476 Y100.495 E10.35227
G1 X114.666 Y100.485 E10.37510
G1 X114.787 Y100.481 E10.38963
G1 X114.910 Y100.476 E10.40440
G1 X115.032 Y100.474 E10.41904
G1 X115.220 Y100.471 E10.44161
G1 X115.408 Y100.474 E10.46417
G1 X115.530 Y100.476 E10.47881
G1 X115.653 Y100.481 E10.49358
G1 X115.774 Y100.485 E10.50811
G1 X115.964 Y100.495 E10.53094
G1 X116.145 Y100.508 E10.55272
G1 X116.267 Y100.519 E10.56742
G1 X116.394 Y100.530 E10.58271
G1 X116.580 Y100.550 E10.60516
G1 X116.685 Y100.563 E10.61786
G1 X116.878 Y100.587 E10.64120
G1 X116.996 Y100.606 E10.65554
G1 X117.134 Y100.626 E10.67227
G1 X117.439 Y100.681 E10.70946
G1 X117.619 Y100.717 E10.73149
G1 X117.738 Y100.742 E10.74608
G1 X117.869 Y100.771 E10.76218
G1 X118.048 Y100.813 E10.78425
G1 X118.180 Y100.847 E10.80060
G1 X118.295 Y100.877 E10.81487
G1 X118.473 Y100.925 E10.83699
G1 X118.664 Y100.982 E10.86091
G1 X118.891 Y101.053 E10.88945
G1 X119.024 Y101.097 E10.90626
G1 X119.156 Y101.142 E10.92300
G1 X119.325 Y101.203 E10.94456
G1 X119.492 Y101.266 E10.96597
G1 X119.677 Y101.339 E10.98984
G1 X119.864 Y101.415 E11.01406
G1 X120.051 Y101.497 E11.03857
G1 X120.156 Y101.545 E11.05242
G1 X120.262 Y101.594 E11.06643
G1 X120.418 Y101.667 E11.08710
G1 X120.572 Y101.744 E11.10776
G1 X120.676 Y101.797 E11.12177
G1 X120.831 Y101.878 E11.14276
G1 X120.981 Y101.960 E11.16327
G1 X121.081 Y102.016 E11.17702
G1 X121.236 Y102.105 E11.19847
G1 X121.361 Y102.180 E11.21596
G1 X121.429 Y102.220 E11.22543
G1 X121.630 Y102.346 E11.25390
G1 X121.845 Y102.488 E11.28482
G1 X122.059 Y102.633 E11.31584
G1 X122.210 Y102.742 E11.33819
G1 X122.371 Y102.860 E11.36214
G1 X122.445 Y102.918 E11.37342
G1 X122.535 Y102.985 E11.38689
G1 X122.691 Y103.109 E11.41080
G1 X122.845 Y103.236 E11.43475
G1 X122.922 Y103.302 E11.44692
G1 X123.000 Y103.367 E11.45911
G1 X123.150 Y103.500 E11.48316
G1 X123.257 Y103.596 E11.50041
G1 X123.365 Y103.697 E11.51816
G1 X123.609 Y103.929 E11.55856
G1 X124.384 Y104.765 E11.69536
G1 X125.108 Y105.737 E11.84080
G1 X125.740 Y106.786 E11.98776
G1 X126.294 Y107.991 E12.14691
G1 X126.719 Y109.264 E12.30796
G1 X126.982 Y110.525 E12.46253
G1 X127.100 Y111.581 E12.59004
G1 X127.127 Y112.583 E12.71032
G1 X127.039 Y113.860 E12.86393
G1 X126.798 Y115.170 E13.02377
G1 X126.442 Y116.358 E13.17259
G1 X125.937 Y117.574 E13.33059
G1 X125.296 Y118.722 E13.48837
G1 X124.644 Y119.651 E13.62457
G1 X123.896 Y120.524 E13.76252
G1 X123.508 Y120.911 E13.82828
G1 X123.365 Y121.047 E13.85197
G1 X123.257 Y121.148 E13.86971
G1 X123.150 Y121.244 E13.88696
G1 X123.000 Y121.377 E13.91102
G1 X122.922 Y121.442 E13.92320
G1 X122.845 Y121.508 E13.93537
G1 X122.691 Y121.635 E13.95932
G1 X122.535 Y121.759 E13.98324
G1 X122.445 Y121.826 E13.99670
G1 X122.371 Y121.884 E14.00798
G1 X122.210 Y122.002 E14.03194
G1 X122.059 Y122.111 E14.05429
G1 X121.845 Y122.256 E14.08531
G1 X121.630 Y122.398 E14.11622
G1 X121.429 Y122.524 E14.14469
G1 X121.361 Y122.564 E14.15416
G1 X121.236 Y122.639 E14.17165
G1 X121.081 Y122.728 E14.19310
G1 X120.981 Y122.784 E14.20685
G1 X120.831 Y122.866 E14.22737
G1 X120.676 Y122.947 E14.24835
G1 X120.572 Y123.000 E14.26236
G1 X120.418 Y123.077 E14.28302
G1 X120.262 Y123.150 E14.30369
G1 X120.156 Y123.199 E14.31770
G1 X120.051 Y123.247 E14.33156
G1 X119.864 Y123.329 E14.35606
G1 X119.677 Y123.405 E14.38028
G1 X119.492 Y123.478 E14.40415
G1 X119.325 Y123.541 E14.42557
G1 X119.156 Y123.602 E14.44713
G1 X119.024 Y123.647 E14.46386
G1 X118.891 Y123.691 E14.48067
G1 X118.664 Y123.762 E14.50922
G1 X118.473 Y123.819 E14.53313
G1 X118.295 Y123.867 E14.55526
G1 X118.180 Y123.897 E14.56952
G1 X118.048 Y123.931 E14.58588
G1 X117.869 Y123.973 E14.60794
G1 X117.738 Y124.002 E14.62404
G1 X117.619 Y124.027 E14.63863
G1 X117.439 Y124.063 E14.66066
G1 X117.162 Y124.113 E14.69444
G1 X116.835 Y124.163 E14.73413
G1 X116.295 Y124.227 E14.79939
G1 X115.197 Y124.283 E14.93132
G1 X114.002 Y124.214 E15.07496
G1 X113.453 Y124.140 E15.14143
G1 X113.153 Y124.091 E15.17791
G1 X112.859 Y124.035 E15.21382
G1 X112.702 Y124.002 E15.23308
G1 X112.571 Y123.973 E15.24918
G1 X112.392 Y123.931 E15.27124
G1 X112.260 Y123.897 E15.28760
G1 X112.145 Y123.867 E15.30186
G1 X111.967 Y123.819 E15.32398
G1 X111.776 Y123.762 E15.34790
G1 X111.549 Y123.691 E15.37644
G1 X111.416 Y123.647 E15.39325
G1 X111.284 Y123.602 E15.40999
G1 X111.115 Y123.541 E15.43155
G1 X110.948 Y123.478 E15.45297
G1 X110.763 Y123.405 E15.47683
G1 X110.576 Y123.329 E15.50105
G1 X110.389 Y123.247 E15.52556
G1 X110.284 Y123.199 E15.53941
G1 X110.178 Y123.150 E15.55342
G1 X110.022 Y123.077 E15.57409
G1 X109.868 Y123.000 E15.59475
G1 X109.764 Y122.947 E15.60876
G1 X109.609 Y122.866 E15.62975
G1 X109.459 Y122.784 E15.65026
G1 X109.359 Y122.728 E15.66402
G1 X109.204 Y122.639 E15.68546
G1 X109.079 Y122.564 E15.70296
G1 X109.011 Y122.524 E15.71242
G1 X108.810 Y122.398 E15.74089
G1 X108.595 Y122.256 E15.77181
G1 X108.381 Y122.111 E15.80283
G1 X108.230 Y122.002 E15.82518
G1 X108.069 Y121.884 E15.84913
G1 X107.995 Y121.826 E15.86041
G1 X107.905 Y121.759 E15.87388
G1 X107.749 Y121.635 E15.89779
G1 X107.595 Y121.508 E15.92174
G1 X107.518 Y121.442 E15.93391
G1 X107.440 Y121.377 E15.94610
G1 X107.290 Y121.244 E15.97015
G1 X107.183 Y121.148 E15.98741
G1 X107.075 Y121.047 E16.00515
G1 X106.831 Y120.815 E16.04555
G1 X106.040 Y119.962 E16.18515
G1 X105.245 Y118.880 E16.34627
G1 X104.575 Y117.716 E16.50744
G1 X104.040 Y116.478 E16.66927
G1 X103.647 Y115.189 E16.83098
G1 X103.418 Y113.944 E16.98289
G1 X103.333 Y113.015 E17.09484
G1 X103.315 Y112.141 E17.19974
G1 X103.401 Y110.884 E17.35093
G1 X103.642 Y109.574 E17.51077
G1 X103.998 Y108.386 E17.65959
G1 X104.503 Y107.170 E17.81760
G1 X105.144 Y106.022 E17.97537
G1 X105.796 Y105.093 E18.11157
G1 X106.544 Y104.220 E18.24953
G0 F9000 X106.838 Y104.492
G1 F1200 X107.211 Y104.119 E18.31283
G1 X107.348 Y103.989 E18.33549
G1 X107.453 Y103.891 E18.35272
G1 X107.557 Y103.798 E18.36947
G1 X107.701 Y103.671 E18.39251
G1 X107.761 Y103.620 E18.40196
G1 X107.852 Y103.542 E18.41634
G1 X108.001 Y103.421 E18.43937
G1 X108.151 Y103.302 E18.46235
G1 X108.265 Y103.215 E18.47956
G1 X108.311 Y103.179 E18.48657
G1 X108.465 Y103.066 E18.50949
G1 X108.610 Y102.961 E18.53097
G1 X108.818 Y102.820 E18.56113
G1 X109.026 Y102.682 E18.59108
G1 X109.219 Y102.562 E18.61835
G1 X109.341 Y102.490 E18.63535
G1 X109.407 Y102.450 E18.64461
G1 X109.556 Y102.364 E18.66526
G1 X109.654 Y102.310 E18.67868
G1 X109.798 Y102.230 E18.69845
G1 X109.948 Y102.152 E18.71874
G1 X110.048 Y102.101 E18.73221
G1 X110.197 Y102.027 E18.75217
G1 X110.347 Y101.956 E18.77209
G1 X110.450 Y101.908 E18.78572
G1 X110.552 Y101.862 E18.79915
G1 X110.732 Y101.783 E18.82274
G1 X110.911 Y101.711 E18.84589
G1 X111.092 Y101.639 E18.86927
G1 X111.253 Y101.578 E18.88993
G1 X111.416 Y101.520 E18.91069
G1 X111.544 Y101.476 E18.92693
G1 X111.672 Y101.434 E18.94310
G1 X111.893 Y101.364 E18.97092
G1 X112.077 Y101.310 E18.99393
G1 X112.248 Y101.263 E19.01521
G1 X112.359 Y101.234 E19.02897
G1 X112.487 Y101.202 E19.04481
G1 X112.660 Y101.161 E19.06614
G1 X112.787 Y101.133 E19.08175
G1 X112.902 Y101.108 E19.09587
G1 X113.075 Y101.074 E19.11703
G1 X113.370 Y101.021 E19.15299
G1 X113.496 Y101.003 E19.16827
G1 X113.618 Y100.983 E19.18310
G1 X113.804 Y100.960 E19.20559
G1 X113.906 Y100.947 E19.21793
